;FLAVOR:Marlin
;TIME:675
;Filament used: 0.235975m
;Layer height: 0.06
;Generated with Cura_SteamEngine 4.0.0
M140 S60
M105
M190 S60
M104 S200
M105
M109 S200
M82 ;absolute extrusion mode
; Ender 3 Custom Start G-code
G28 ; Home all axes
G92 E0 ; Reset Extruder
G1 Z2.0 F3000 ; Move Z Axis up little to prevent scratching of Heat Bed
G1 X0.1 Y20 Z0.3 F5000.0 ; Move to start position
G1 X0.1 Y200.0 Z0.3 F1500.0 E15 ; Draw the first line
G1 X0.4 Y200.0 Z0.3 F5000.0 ; Move to side a little
G1 X0.4 Y20 Z0.3 F1500.0 E30 ; Draw the second line
G92 E0 ; Reset Extruder
G1 Z2.0 F3000 ; Move Z Axis up little to prevent scratching of Heat Bed
; End of custom start GCode
G92 E0
G1 F2400 E-5
;LAYER_COUNT:48
;LAYER:0
M107
M204 S5000
M205 X30 Y30
G0 F3600 X101.185 Y100.504 Z0.2
M204 S500
M205 X20 Y20
;TYPE:SKIRT
G1 F2400 E0
G1 F1800 X101.795 Y100.003 E0.02625
G1 X102.16 Y99.748 E0.04106
G1 X102.512 Y99.517 E0.05507
G1 X103.194 Y99.118 E0.08135
G1 X103.912 Y98.789 E0.10762
G1 X104.314 Y98.642 E0.12185
G1 X104.717 Y98.507 E0.13599
G1 X105.478 Y98.294 E0.16227
G1 X106.256 Y98.16 E0.18853
G1 X106.74 Y98.116 E0.20469
G1 X107.151 Y98.092 E0.21839
G1 X107.941 Y98.086 E0.24466
G1 X108.727 Y98.16 E0.27092
G1 X109.139 Y98.231 E0.28483
G1 X109.553 Y98.314 E0.29887
G1 X110.319 Y98.508 E0.32515
G1 X111.061 Y98.779 E0.35143
G1 X111.442 Y98.953 E0.36536
G1 X111.823 Y99.139 E0.37946
G1 X112.51 Y99.519 E0.40557
G1 X112.512 Y99.517 E0.40566
G1 X113.194 Y99.118 E0.43194
G1 X113.912 Y98.789 E0.45821
G1 X114.314 Y98.642 E0.47245
G1 X114.717 Y98.507 E0.48659
G1 X115.478 Y98.294 E0.51287
G1 X116.256 Y98.16 E0.53913
G1 X116.74 Y98.116 E0.55529
G1 X117.151 Y98.092 E0.56898
G1 X117.941 Y98.086 E0.59526
G1 X118.727 Y98.16 E0.62152
G1 X119.139 Y98.231 E0.63542
G1 X119.553 Y98.314 E0.64947
G1 X120.319 Y98.508 E0.67575
G1 X121.061 Y98.779 E0.70202
G1 X121.442 Y98.953 E0.71595
G1 X121.823 Y99.139 E0.73005
G1 X122.51 Y99.519 E0.75617
G1 X122.512 Y99.517 E0.75626
G1 X123.194 Y99.118 E0.78254
G1 X123.912 Y98.789 E0.80881
G1 X124.314 Y98.642 E0.82305
G1 X124.717 Y98.507 E0.83718
G1 X125.478 Y98.294 E0.86347
G1 X126.256 Y98.16 E0.88972
G1 X126.74 Y98.116 E0.90589
G1 X127.151 Y98.092 E0.91958
G1 X127.941 Y98.086 E0.94586
G1 X128.727 Y98.16 E0.97212
G1 X129.139 Y98.231 E0.98602
G1 X129.553 Y98.314 E1.00006
G1 X130.319 Y98.508 E1.02635
G1 X131.061 Y98.779 E1.05262
G1 X131.442 Y98.953 E1.06655
G1 X131.823 Y99.139 E1.08065
G1 X132.514 Y99.521 E1.10691
G1 X133.163 Y99.97 E1.13316
G1 X133.557 Y100.295 E1.15015
G1 X133.876 Y100.576 E1.16429
G1 X134.441 Y101.127 E1.19054
G1 X134.948 Y101.733 E1.21682
G1 X135.19 Y102.073 E1.2307
G1 X135.427 Y102.425 E1.24481
G1 X135.834 Y103.101 E1.27105
G1 X136.171 Y103.815 E1.29731
G1 X136.34 Y104.265 E1.3133
G1 X136.477 Y104.667 E1.32743
G1 X136.694 Y105.426 E1.35368
G1 X136.832 Y106.204 E1.37996
G1 X136.878 Y106.685 E1.39604
G1 X136.905 Y107.107 E1.4101
G1 X136.916 Y107.897 E1.43638
G1 X136.897 Y108.107 E1.44339
G1 X137.151 Y108.092 E1.45185
G1 X137.941 Y108.086 E1.47813
G1 X138.727 Y108.16 E1.50439
G1 X139.139 Y108.231 E1.51829
G1 X139.553 Y108.314 E1.53234
G1 X140.319 Y108.508 E1.55862
G1 X141.061 Y108.779 E1.58489
G1 X141.442 Y108.953 E1.59882
G1 X141.823 Y109.139 E1.61292
G1 X142.514 Y109.521 E1.63919
G1 X143.163 Y109.97 E1.66543
G1 X143.557 Y110.295 E1.68242
G1 X143.876 Y110.576 E1.69656
G1 X144.441 Y111.127 E1.72281
G1 X144.948 Y111.733 E1.74909
G1 X145.19 Y112.073 E1.76297
G1 X145.427 Y112.425 E1.77708
G1 X145.834 Y113.101 E1.80333
G1 X146.171 Y113.815 E1.82959
G1 X146.34 Y114.265 E1.84558
G1 X146.477 Y114.667 E1.8597
G1 X146.694 Y115.426 E1.88596
G1 X146.832 Y116.204 E1.91224
G1 X146.878 Y116.685 E1.92831
G1 X146.905 Y117.107 E1.94237
G1 X146.916 Y117.897 E1.96865
G1 X146.846 Y118.683 E1.9949
G1 X146.772 Y119.12 E2.00964
G1 X146.69 Y119.534 E2.02368
G1 X146.498 Y120.3 E2.04994
G1 X146.229 Y121.043 E2.07622
G1 X146.037 Y121.463 E2.09158
G1 X145.848 Y121.847 E2.10582
G1 X145.464 Y122.537 E2.13208
G1 X145.012 Y123.185 E2.15836
G1 X144.695 Y123.568 E2.1749
G1 X144.406 Y123.895 E2.18941
G1 X143.853 Y124.46 E2.21571
G1 X143.247 Y124.966 E2.24196
G1 X142.845 Y125.248 E2.2583
G1 X142.492 Y125.48 E2.27235
G1 X141.811 Y125.88 E2.29861
G1 X141.093 Y126.209 E2.32488
G1 X140.686 Y126.358 E2.3393
G1 X140.283 Y126.493 E2.35343
G1 X139.522 Y126.706 E2.37972
G1 X138.744 Y126.84 E2.40597
G1 X138.227 Y126.886 E2.42324
G1 X137.803 Y126.909 E2.43736
G1 X137.014 Y126.911 E2.4636
G1 X136.533 Y126.864 E2.47968
G1 X136.694 Y127.426 E2.49912
G1 X136.832 Y128.204 E2.5254
G1 X136.878 Y128.685 E2.54147
G1 X136.905 Y129.107 E2.55554
G1 X136.916 Y129.897 E2.58182
G1 X136.846 Y130.683 E2.60806
G1 X136.772 Y131.12 E2.6228
G1 X136.69 Y131.534 E2.63684
G1 X136.498 Y132.3 E2.66311
G1 X136.229 Y133.043 E2.68939
G1 X136.037 Y133.463 E2.70475
G1 X135.848 Y133.847 E2.71898
G1 X135.464 Y134.537 E2.74525
G1 X135.012 Y135.185 E2.77152
G1 X134.695 Y135.568 E2.78806
G1 X134.406 Y135.895 E2.80258
G1 X133.853 Y136.46 E2.82887
G1 X133.247 Y136.966 E2.85513
G1 X132.845 Y137.248 E2.87146
G1 X132.492 Y137.48 E2.88551
G1 X131.811 Y137.88 E2.91178
G1 X131.093 Y138.209 E2.93805
G1 X130.686 Y138.358 E2.95246
G1 X130.283 Y138.493 E2.9666
G1 X129.522 Y138.706 E2.99288
G1 X128.744 Y138.84 E3.01914
G1 X128.227 Y138.886 E3.0364
G1 X127.803 Y138.909 E3.05053
G1 X127.014 Y138.911 E3.07677
G1 X126.228 Y138.834 E3.10304
G1 X125.812 Y138.761 E3.11708
G1 X125.398 Y138.676 E3.13114
G1 X124.634 Y138.478 E3.15739
G1 X123.893 Y138.204 E3.18367
G1 X123.449 Y137.997 E3.19996
G1 X123.069 Y137.805 E3.21412
G1 X122.496 Y137.477 E3.23608
G1 X122.492 Y137.48 E3.23625
G1 X121.811 Y137.88 E3.26252
G1 X121.093 Y138.209 E3.28878
G1 X120.686 Y138.358 E3.3032
G1 X120.283 Y138.493 E3.31734
G1 X119.522 Y138.706 E3.34362
G1 X118.744 Y138.84 E3.36988
G1 X118.227 Y138.886 E3.38714
G1 X117.803 Y138.909 E3.40126
G1 X117.014 Y138.911 E3.42751
G1 X116.892 Y138.899 E3.43158
G1 X116.905 Y139.107 E3.43851
G1 X116.916 Y139.897 E3.46479
G1 X116.846 Y140.683 E3.49104
G1 X116.772 Y141.12 E3.50578
G1 X116.69 Y141.534 E3.51982
G1 X116.498 Y142.3 E3.54608
G1 X116.229 Y143.043 E3.57237
G1 X116.037 Y143.463 E3.58772
G1 X115.848 Y143.847 E3.60196
G1 X115.464 Y144.537 E3.62822
G1 X115.012 Y145.185 E3.6545
G1 X114.695 Y145.568 E3.67104
G1 X114.406 Y145.895 E3.68555
G1 X113.853 Y146.46 E3.71185
G1 X113.247 Y146.966 E3.73811
G1 X112.845 Y147.248 E3.75444
G1 X112.492 Y147.48 E3.76849
G1 X111.811 Y147.88 E3.79476
G1 X111.093 Y148.209 E3.82102
G1 X110.686 Y148.358 E3.83544
G1 X110.283 Y148.493 E3.84958
G1 X109.522 Y148.706 E3.87586
G1 X108.744 Y148.84 E3.90212
G1 X108.227 Y148.886 E3.91938
G1 X107.803 Y148.909 E3.9335
G1 X107.014 Y148.911 E3.95975
G1 X106.228 Y148.834 E3.98601
G1 X105.812 Y148.761 E4.00006
G1 X105.398 Y148.676 E4.01412
G1 X104.634 Y148.478 E4.04037
G1 X103.893 Y148.204 E4.06664
G1 X103.449 Y147.997 E4.08294
G1 X103.069 Y147.805 E4.0971
G1 X102.384 Y147.413 E4.12335
G1 X101.741 Y146.955 E4.14961
G1 X101.399 Y146.668 E4.16446
G1 X101.079 Y146.383 E4.17871
G1 X100.517 Y145.828 E4.20498
G1 X100.014 Y145.22 E4.23122
G1 X99.74 Y144.829 E4.2471
G1 X99.511 Y144.479 E4.26102
G1 X99.113 Y143.797 E4.28728
G1 X98.785 Y143.078 E4.31356
G1 X98.64 Y142.68 E4.32765
G1 X98.505 Y142.276 E4.34182
G1 X98.293 Y141.515 E4.36809
G1 X98.159 Y140.737 E4.39435
G1 X98.115 Y140.227 E4.41138
G1 X98.092 Y139.804 E4.42547
G1 X98.089 Y139.015 E4.45171
G1 X98.166 Y138.229 E4.47798
G1 X98.242 Y137.798 E4.49253
G1 X98.328 Y137.383 E4.50663
G1 X98.527 Y136.619 E4.53289
G1 X98.803 Y135.879 E4.55916
G1 X98.993 Y135.47 E4.57416
G1 X99.184 Y135.089 E4.58833
G1 X99.521 Y134.494 E4.61108
G1 X99.511 Y134.479 E4.61168
G1 X99.113 Y133.797 E4.63794
G1 X98.785 Y133.078 E4.66422
G1 X98.64 Y132.68 E4.67831
G1 X98.505 Y132.276 E4.69248
G1 X98.293 Y131.515 E4.71875
G1 X98.159 Y130.737 E4.74501
G1 X98.115 Y130.227 E4.76204
G1 X98.092 Y129.804 E4.77613
G1 X98.089 Y129.015 E4.80237
G1 X98.166 Y128.229 E4.82864
G1 X98.242 Y127.798 E4.84319
G1 X98.328 Y127.383 E4.85729
G1 X98.463 Y126.865 E4.87509
G1 X98.227 Y126.886 E4.88297
G1 X97.803 Y126.909 E4.8971
G1 X97.014 Y126.911 E4.92334
G1 X96.228 Y126.834 E4.94961
G1 X95.812 Y126.761 E4.96366
G1 X95.398 Y126.676 E4.97771
G1 X94.634 Y126.478 E5.00396
G1 X93.893 Y126.204 E5.03024
G1 X93.449 Y125.997 E5.04653
G1 X93.069 Y125.805 E5.06069
G1 X92.384 Y125.413 E5.08694
G1 X91.741 Y124.955 E5.1132
G1 X91.399 Y124.668 E5.12805
G1 X91.079 Y124.383 E5.1423
G1 X90.517 Y123.828 E5.16857
G1 X90.014 Y123.22 E5.19482
G1 X89.74 Y122.829 E5.2107
G1 X89.511 Y122.479 E5.22461
G1 X89.113 Y121.797 E5.25087
G1 X88.785 Y121.078 E5.27716
G1 X88.64 Y120.68 E5.29125
G1 X88.505 Y120.276 E5.30541
G1 X88.293 Y119.515 E5.33169
G1 X88.159 Y118.737 E5.35795
G1 X88.115 Y118.227 E5.37497
G1 X88.092 Y117.804 E5.38906
G1 X88.089 Y117.015 E5.4153
G1 X88.166 Y116.229 E5.44157
G1 X88.242 Y115.798 E5.45613
G1 X88.328 Y115.383 E5.47022
G1 X88.527 Y114.619 E5.49648
G1 X88.803 Y113.879 E5.52275
G1 X88.993 Y113.47 E5.53775
G1 X89.184 Y113.089 E5.55193
G1 X89.573 Y112.402 E5.57818
G1 X90.03 Y111.758 E5.60445
G1 X90.347 Y111.381 E5.62083
G1 X90.63 Y111.065 E5.63494
G1 X91.185 Y110.504 E5.66119
G1 X91.795 Y110.003 E5.68744
G1 X92.16 Y109.748 E5.70225
G1 X92.512 Y109.517 E5.71626
G1 X93.194 Y109.118 E5.74254
G1 X93.912 Y108.789 E5.7688
G1 X94.314 Y108.642 E5.78304
G1 X94.717 Y108.507 E5.79718
G1 X95.478 Y108.294 E5.82346
G1 X96.256 Y108.16 E5.84972
G1 X96.74 Y108.116 E5.86588
G1 X97.151 Y108.092 E5.87957
G1 X97.941 Y108.086 E5.90585
G1 X98.108 Y108.102 E5.91143
G1 X98.092 Y107.804 E5.92136
G1 X98.089 Y107.015 E5.9476
G1 X98.166 Y106.229 E5.97387
G1 X98.242 Y105.798 E5.98842
G1 X98.328 Y105.383 E6.00252
G1 X98.527 Y104.619 E6.02878
G1 X98.803 Y103.879 E6.05505
G1 X98.993 Y103.47 E6.07005
G1 X99.184 Y103.089 E6.08422
G1 X99.573 Y102.402 E6.11048
G1 X100.03 Y101.758 E6.13674
G1 X100.347 Y101.381 E6.15313
G1 X100.63 Y101.065 E6.16724
G1 X101.185 Y100.504 E6.19348
M204 S5000
M205 X30 Y30
G0 F3600 X101.47 Y100.787
M204 S500
M205 X20 Y20
G1 F1800 X102.38 Y100.082 E6.23177
G1 X102.732 Y99.851 E6.24577
G1 X103.396 Y99.463 E6.27135
G1 X104.441 Y99.021 E6.30909
G1 X104.844 Y98.886 E6.32323
G1 X105.586 Y98.68 E6.34884
G1 X106.344 Y98.552 E6.37441
G1 X106.764 Y98.516 E6.38843
G1 X107.175 Y98.492 E6.40212
G1 X107.944 Y98.487 E6.4277
G1 X109.061 Y98.623 E6.46512
G1 X109.475 Y98.706 E6.47917
G1 X110.22 Y98.897 E6.50475
G1 X111.266 Y99.312 E6.54218
G1 X111.647 Y99.498 E6.55628
G1 X112.32 Y99.871 E6.58187
G1 X112.505 Y100 E6.58937
G1 X112.732 Y99.851 E6.5984
G1 X113.396 Y99.463 E6.62398
G1 X114.441 Y99.021 E6.66172
G1 X114.844 Y98.886 E6.67586
G1 X115.586 Y98.68 E6.70147
G1 X116.344 Y98.552 E6.72704
G1 X116.764 Y98.516 E6.74106
G1 X117.175 Y98.492 E6.75475
G1 X117.944 Y98.487 E6.78033
G1 X119.061 Y98.623 E6.81775
G1 X119.475 Y98.706 E6.8318
G1 X120.22 Y98.897 E6.85738
G1 X121.266 Y99.312 E6.89481
G1 X121.647 Y99.498 E6.90891
G1 X122.32 Y99.871 E6.9345
G1 X122.505 Y100 E6.942
G1 X122.732 Y99.851 E6.95103
G1 X123.396 Y99.463 E6.97661
G1 X124.441 Y99.021 E7.01435
G1 X124.844 Y98.886 E7.02848
G1 X125.586 Y98.68 E7.0541
G1 X126.344 Y98.552 E7.07966
G1 X126.764 Y98.516 E7.09369
G1 X127.175 Y98.492 E7.10738
G1 X127.944 Y98.487 E7.13296
G1 X129.061 Y98.623 E7.17038
G1 X129.475 Y98.706 E7.18443
G1 X130.22 Y98.897 E7.21001
G1 X131.266 Y99.312 E7.24743
G1 X131.647 Y99.498 E7.26154
G1 X132.32 Y99.871 E7.28713
G1 X132.95 Y100.312 E7.31271
G1 X133.292 Y100.595 E7.32747
G1 X133.611 Y100.876 E7.34161
G1 X134.161 Y101.414 E7.3672
G1 X134.858 Y102.296 E7.40459
G1 X135.095 Y102.648 E7.4187
G1 X135.491 Y103.308 E7.4443
G1 X135.816 Y104.005 E7.46988
G1 X135.961 Y104.394 E7.48369
G1 X136.098 Y104.796 E7.49781
G1 X136.308 Y105.536 E7.5234
G1 X136.44 Y106.294 E7.54899
G1 X136.479 Y106.711 E7.56292
G1 X136.506 Y107.133 E7.57698
G1 X136.515 Y107.902 E7.60256
G1 X136.439 Y108.544 E7.62406
G1 X136.764 Y108.516 E7.63491
G1 X137.175 Y108.492 E7.64861
G1 X137.944 Y108.487 E7.67418
G1 X139.061 Y108.623 E7.71161
G1 X139.475 Y108.706 E7.72565
G1 X140.22 Y108.897 E7.75123
G1 X141.266 Y109.312 E7.78866
G1 X141.647 Y109.498 E7.80276
G1 X142.32 Y109.871 E7.82836
G1 X142.95 Y110.312 E7.85393
G1 X143.292 Y110.595 E7.8687
G1 X143.611 Y110.876 E7.88284
G1 X144.161 Y111.414 E7.90843
G1 X144.858 Y112.296 E7.94582
G1 X145.095 Y112.648 E7.95993
G1 X145.491 Y113.308 E7.98553
G1 X145.816 Y114.005 E8.01111
G1 X145.961 Y114.394 E8.02492
G1 X146.098 Y114.796 E8.03904
G1 X146.308 Y115.536 E8.06463
G1 X146.44 Y116.294 E8.09022
G1 X146.479 Y116.711 E8.10415
G1 X146.506 Y117.133 E8.11821
G1 X146.515 Y117.902 E8.14379
G1 X146.38 Y119.043 E8.18201
G1 X146.298 Y119.457 E8.19604
G1 X146.11 Y120.202 E8.2216
G1 X145.845 Y120.925 E8.24721
G1 X145.678 Y121.287 E8.26047
G1 X145.489 Y121.671 E8.2747
G1 X145.114 Y122.342 E8.30027
G1 X144.672 Y122.971 E8.32584
G1 X144.395 Y123.303 E8.34022
G1 X144.106 Y123.63 E8.35474
G1 X143.567 Y124.18 E8.38035
G1 X142.975 Y124.67 E8.40591
G1 X142.625 Y124.914 E8.4201
G1 X142.272 Y125.146 E8.43415
G1 X141.608 Y125.534 E8.45973
G1 X140.559 Y125.979 E8.49763
G1 X140.156 Y126.114 E8.51176
G1 X139.414 Y126.32 E8.53738
G1 X138.656 Y126.448 E8.56294
G1 X138.206 Y126.486 E8.57796
G1 X137.782 Y126.509 E8.59209
G1 X137.013 Y126.511 E8.61766
G1 X135.955 Y126.377 E8.65313
G1 X135.961 Y126.394 E8.65373
G1 X136.098 Y126.796 E8.66786
G1 X136.308 Y127.536 E8.69344
G1 X136.44 Y128.294 E8.71903
G1 X136.479 Y128.711 E8.73296
G1 X136.506 Y129.133 E8.74703
G1 X136.515 Y129.902 E8.77261
G1 X136.38 Y131.043 E8.81082
G1 X136.298 Y131.457 E8.82486
G1 X136.11 Y132.202 E8.85042
G1 X135.845 Y132.925 E8.87603
G1 X135.678 Y133.287 E8.88929
G1 X135.489 Y133.671 E8.90352
G1 X135.114 Y134.342 E8.92909
G1 X134.672 Y134.971 E8.95466
G1 X134.395 Y135.303 E8.96904
G1 X134.106 Y135.63 E8.98355
G1 X133.567 Y136.18 E9.00917
G1 X132.975 Y136.67 E9.03473
G1 X132.625 Y136.914 E9.04892
G1 X132.272 Y137.146 E9.06297
G1 X131.608 Y137.534 E9.08854
G1 X130.559 Y137.979 E9.12644
G1 X130.156 Y138.114 E9.14058
G1 X129.414 Y138.32 E9.16619
G1 X128.656 Y138.448 E9.19176
G1 X128.206 Y138.486 E9.20678
G1 X127.782 Y138.509 E9.2209
G1 X127.013 Y138.511 E9.24648
G1 X125.893 Y138.369 E9.28403
G1 X125.479 Y138.284 E9.29809
G1 X124.734 Y138.09 E9.32369
G1 X124.014 Y137.82 E9.34927
G1 X123.63 Y137.64 E9.36337
G1 X123.25 Y137.448 E9.37753
G1 X122.582 Y137.066 E9.40313
G1 X122.495 Y137 E9.40676
G1 X122.272 Y137.146 E9.41563
G1 X121.608 Y137.534 E9.4412
G1 X120.559 Y137.979 E9.4791
G1 X120.156 Y138.114 E9.49324
G1 X119.414 Y138.32 E9.51885
G1 X118.656 Y138.448 E9.54442
G1 X118.206 Y138.486 E9.55944
G1 X117.782 Y138.509 E9.57356
G1 X117.013 Y138.511 E9.59914
G1 X116.454 Y138.44 E9.61788
G1 X116.479 Y138.711 E9.62693
G1 X116.506 Y139.133 E9.641
G1 X116.515 Y139.902 E9.66658
G1 X116.38 Y141.043 E9.70479
G1 X116.298 Y141.457 E9.71883
G1 X116.11 Y142.202 E9.74439
G1 X115.845 Y142.925 E9.77
G1 X115.678 Y143.287 E9.78326
G1 X115.489 Y143.671 E9.79749
G1 X115.114 Y144.342 E9.82306
G1 X114.672 Y144.971 E9.84863
G1 X114.395 Y145.303 E9.86301
G1 X114.106 Y145.63 E9.87752
G1 X113.567 Y146.18 E9.90314
G1 X112.975 Y146.67 E9.9287
G1 X112.625 Y146.914 E9.94289
G1 X112.272 Y147.146 E9.95694
G1 X111.608 Y147.534 E9.98251
G1 X110.559 Y147.979 E10.02041
G1 X110.156 Y148.114 E10.03455
G1 X109.414 Y148.32 E10.06016
G1 X108.656 Y148.448 E10.08573
G1 X108.206 Y148.486 E10.10075
G1 X107.782 Y148.509 E10.11487
G1 X107.013 Y148.511 E10.14045
G1 X105.893 Y148.369 E10.178
G1 X105.479 Y148.284 E10.19206
G1 X104.734 Y148.09 E10.21766
G1 X104.014 Y147.82 E10.24324
G1 X103.63 Y147.64 E10.25734
G1 X103.25 Y147.448 E10.2715
G1 X102.582 Y147.066 E10.2971
G1 X101.665 Y146.369 E10.33541
G1 X101.345 Y146.084 E10.34966
G1 X100.798 Y145.543 E10.37525
G1 X100.31 Y144.949 E10.40082
G1 X100.075 Y144.61 E10.41454
G1 X99.846 Y144.26 E10.42845
G1 X99.459 Y143.595 E10.45404
G1 X99.019 Y142.553 E10.49166
G1 X98.884 Y142.149 E10.50583
G1 X98.679 Y141.408 E10.5314
G1 X98.551 Y140.65 E10.55697
G1 X98.514 Y140.206 E10.57179
G1 X98.491 Y139.783 E10.58588
G1 X98.489 Y139.014 E10.61145
G1 X98.634 Y137.879 E10.64951
