;FLAVOR:Marlin
;TIME:588
;Filament used: 0.158528m
;Layer height: 0.1
;Generated with Cura_SteamEngine 4.0.0
M140 S60
M105
M190 S60
M104 S200
M105
M109 S200
M82 ;absolute extrusion mode
; Ender 3 Custom Start G-code
G28 ; Home all axes
G92 E0 ; Reset Extruder
G1 Z2.0 F3000 ; Move Z Axis up little to prevent scratching of Heat Bed
G1 X0.1 Y20 Z0.3 F5000.0 ; Move to start position
G1 X0.1 Y200.0 Z0.3 F1500.0 E15 ; Draw the first line
G1 X0.4 Y200.0 Z0.3 F5000.0 ; Move to side a little
G1 X0.4 Y20 Z0.3 F1500.0 E30 ; Draw the second line
G92 E0 ; Reset Extruder
G1 Z2.0 F3000 ; Move Z Axis up little to prevent scratching of Heat Bed
; End of custom start GCode
G92 E0
G1 F2400 E-5
;LAYER_COUNT:30
;LAYER:0
M107
M204 S5000
M205 X30 Y30
;MESH:EndCap.stl(5)
G0 F3600 X107.622 Y106.363 Z0.2
M204 S500
M205 X20 Y20
;TYPE:WALL-INNER
G1 F2400 E0
G1 F1200 X107.852 Y106.412 E0.00782
G1 X107.981 Y106.463 E0.01244
G1 X108.119 Y106.538 E0.01766
G1 X108.236 Y106.622 E0.02245
G1 X108.391 Y106.78 E0.02981
G1 X108.474 Y106.897 E0.03458
G1 X108.549 Y107.04 E0.03995
G1 X108.598 Y107.17 E0.04457
G1 X108.63 Y107.314 E0.04948
G1 X108.645 Y107.46 E0.05436
G1 X108.639 Y107.616 E0.05955
G1 X108.616 Y107.759 E0.06437
G1 X108.573 Y107.902 E0.06934
G1 X108.514 Y108.032 E0.07409
G1 X108.438 Y108.154 E0.07887
G1 X108.336 Y108.281 E0.08428
G1 X108.183 Y108.42 E0.09116
G1 X108.053 Y108.502 E0.09627
G1 X107.917 Y108.566 E0.10127
G1 X107.777 Y108.61 E0.10615
G1 X107.635 Y108.636 E0.11095
G1 X107.476 Y108.644 E0.11625
G1 X107.346 Y108.632 E0.12059
G1 X107.188 Y108.6 E0.12595
G1 X107.052 Y108.552 E0.13075
G1 X106.919 Y108.485 E0.1357
G1 X106.797 Y108.401 E0.14063
G1 X106.685 Y108.301 E0.14562
G1 X106.595 Y108.196 E0.15022
G1 X106.501 Y108.055 E0.15586
G1 X106.444 Y107.94 E0.16013
G1 X106.379 Y107.73 E0.16744
G1 X106.358 Y107.571 E0.17277
G1 X106.365 Y107.353 E0.18003
G1 X106.395 Y107.209 E0.18492
G1 X106.44 Y107.072 E0.18972
G1 X106.507 Y106.935 E0.19479
G1 X106.59 Y106.808 E0.19984
G1 X106.682 Y106.702 E0.2045
G1 X106.797 Y106.6 E0.20962
G1 X106.912 Y106.52 E0.21428
G1 X107.055 Y106.447 E0.21962
G1 X107.184 Y106.401 E0.22417
G1 X107.332 Y106.369 E0.22921
G1 X107.476 Y106.356 E0.23402
G1 X107.622 Y106.363 E0.23888
M204 S5000
M205 X30 Y30
G0 F3600 X107.673 Y105.965
M204 S500
M205 X20 Y20
;TYPE:WALL-OUTER
G1 F1200 X107.965 Y106.026 E0.2488
G1 X108.152 Y106.101 E0.2555
G1 X108.334 Y106.199 E0.26238
G1 X108.49 Y106.312 E0.26878
G1 X108.646 Y106.463 E0.276
G1 X108.7 Y106.525 E0.27874
G1 X108.819 Y106.693 E0.28559
G1 X108.913 Y106.873 E0.29234
G1 X108.982 Y107.056 E0.29884
G1 X109.026 Y107.252 E0.30553
G1 X109.046 Y107.45 E0.31214
G1 X109.038 Y107.655 E0.31897
G1 X109.007 Y107.845 E0.32537
G1 X108.947 Y108.046 E0.33235
G1 X108.867 Y108.222 E0.33878
G1 X108.764 Y108.388 E0.34528
G1 X108.632 Y108.552 E0.35228
G1 X108.492 Y108.686 E0.35872
G1 X108.408 Y108.751 E0.36226
G1 X108.252 Y108.849 E0.36838
G1 X108.058 Y108.941 E0.37552
G1 X107.875 Y108.998 E0.3819
G1 X107.678 Y109.035 E0.38857
G1 X107.475 Y109.045 E0.39533
G1 X107.283 Y109.028 E0.40174
G1 X107.083 Y108.987 E0.40853
G1 X106.896 Y108.921 E0.41512
G1 X106.714 Y108.829 E0.42191
G1 X106.549 Y108.716 E0.42856
G1 X106.403 Y108.586 E0.43506
G1 X106.274 Y108.436 E0.44164
G1 X106.156 Y108.259 E0.44872
G1 X106.075 Y108.096 E0.45477
G1 X106.005 Y107.886 E0.46213
G1 X105.984 Y107.798 E0.46514
G1 X105.959 Y107.606 E0.47158
G1 X105.955 Y107.504 E0.47498
G1 X105.968 Y107.296 E0.48191
G1 X106.006 Y107.112 E0.48816
G1 X106.072 Y106.914 E0.4951
G1 X106.158 Y106.737 E0.50164
G1 X106.268 Y106.569 E0.50832
G1 X106.399 Y106.418 E0.51497
G1 X106.546 Y106.287 E0.52152
G1 X106.71 Y106.174 E0.52814
G1 X106.891 Y106.081 E0.53491
G1 X107.082 Y106.014 E0.54164
G1 X107.272 Y105.972 E0.54812
G1 X107.469 Y105.955 E0.55469
G1 X107.673 Y105.965 E0.56149
M204 S5000
M205 X30 Y30
G0 F3600 X107.868 Y106.005
G0 X107.739 Y106.788
M204 S500
M205 X20 Y20
;TYPE:SKIN
G1 F1200 X107.814 Y106.817 E0.56416
G1 X107.917 Y106.873 E0.56806
G1 X107.979 Y106.917 E0.57059
G1 X108.091 Y107.032 E0.57593
G1 X108.144 Y107.105 E0.57893
G1 X108.191 Y107.195 E0.58231
G1 X108.224 Y107.282 E0.5854
G1 X108.244 Y107.377 E0.58863
G1 X108.254 Y107.47 E0.59174
G1 X108.237 Y107.665 E0.59825
G1 X108.207 Y107.766 E0.60176
G1 X108.168 Y107.849 E0.60481
G1 X108.123 Y107.922 E0.60766
G1 X108.046 Y108.018 E0.61175
G1 X107.948 Y108.108 E0.61618
G1 X107.867 Y108.159 E0.61936
G1 X107.779 Y108.2 E0.62259
G1 X107.682 Y108.23 E0.62597
G1 X107.59 Y108.248 E0.62908
G1 X107.478 Y108.253 E0.63281
G1 X107.292 Y108.223 E0.63908
G1 X107.212 Y108.195 E0.6419
G1 X107.111 Y108.144 E0.64566
G1 X107.037 Y108.093 E0.64865
G1 X106.967 Y108.03 E0.65178
G1 X106.903 Y107.956 E0.65504
G1 X106.841 Y107.863 E0.65875
G1 X106.808 Y107.797 E0.66121
G1 X106.76 Y107.641 E0.66664
G1 X106.748 Y107.555 E0.66953
G1 X106.754 Y107.399 E0.67472
G1 X106.773 Y107.305 E0.67791
G1 X106.8 Y107.222 E0.68081
G1 X106.849 Y107.124 E0.68445
G1 X106.9 Y107.046 E0.68755
G1 X106.958 Y106.98 E0.69048
G1 X107.046 Y106.901 E0.69441
G1 X107.106 Y106.859 E0.69685
G1 X107.215 Y106.804 E0.70091
G1 X107.29 Y106.777 E0.70356
G1 X107.393 Y106.754 E0.70707
G1 X107.477 Y106.747 E0.70987
G1 X107.57 Y106.751 E0.71297
G1 X107.739 Y106.788 E0.71872
M204 S5000
M205 X30 Y30
G0 F3600 X107.493 Y106.927
M204 S500
M205 X20 Y20
G1 F1200 X108.069 Y107.504 E0.74584
M204 S5000
M205 X30 Y30
G0 F3600 X107.903 Y107.903
M204 S500
M205 X20 Y20
G1 F1200 X107.096 Y107.096 E0.7838
M204 S5000
M205 X30 Y30
G0 F3600 X106.93 Y107.496
M204 S500
M205 X20 Y20
G1 F1200 X107.504 Y108.069 E0.81077
G1 X107.574 Y108.139
M204 S5000
M205 X30 Y30
G1 F2400 E-4.18923
;MESH:EndCap.stl(2)
G0 F3600 X107.476 Y108.625
G0 X107.537 Y109.907
G0 X107.368 Y115.098
G0 X107.476 Y116.375
G0 X107.61 Y116.462
G0 X107.622 Y116.363
M204 S500
M205 X20 Y20
;TYPE:WALL-INNER
G1 F2400 E0.81077
G1 F1200 X107.852 Y116.412 E0.81859
G1 X107.981 Y116.463 E0.82321
G1 X108.119 Y116.538 E0.82843
G1 X108.236 Y116.622 E0.83322
G1 X108.391 Y116.78 E0.84058
G1 X108.474 Y116.897 E0.84536
G1 X108.549 Y117.04 E0.85073
G1 X108.598 Y117.17 E0.85535
G1 X108.63 Y117.314 E0.86025
G1 X108.645 Y117.46 E0.86513
G1 X108.639 Y117.616 E0.87033
G1 X108.616 Y117.759 E0.87514
G1 X108.573 Y117.902 E0.88011
G1 X108.514 Y118.032 E0.88486
G1 X108.438 Y118.154 E0.88964
G1 X108.336 Y118.281 E0.89506
G1 X108.183 Y118.42 E0.90193
G1 X108.053 Y118.502 E0.90705
G1 X107.917 Y118.566 E0.91204
G1 X107.777 Y118.61 E0.91693
G1 X107.635 Y118.636 E0.92173
G1 X107.476 Y118.644 E0.92702
G1 X107.346 Y118.632 E0.93136
G1 X107.188 Y118.6 E0.93673
G1 X107.052 Y118.552 E0.94152
G1 X106.919 Y118.485 E0.94648
G1 X106.797 Y118.401 E0.9514
G1 X106.685 Y118.301 E0.9564
G1 X106.595 Y118.196 E0.961
G1 X106.501 Y118.055 E0.96663
G1 X106.444 Y117.94 E0.9709
G1 X106.379 Y117.73 E0.97821
G1 X106.358 Y117.571 E0.98355
G1 X106.365 Y117.353 E0.9908
G1 X106.395 Y117.209 E0.99569
G1 X106.44 Y117.072 E1.00049
G1 X106.507 Y116.935 E1.00556
G1 X106.59 Y116.808 E1.01061
G1 X106.682 Y116.702 E1.01528
G1 X106.797 Y116.6 E1.02039
G1 X106.912 Y116.52 E1.02505
G1 X107.055 Y116.447 E1.03039
G1 X107.184 Y116.401 E1.03494
G1 X107.332 Y116.369 E1.03998
G1 X107.476 Y116.356 E1.04479
G1 X107.622 Y116.363 E1.04965
M204 S5000
M205 X30 Y30
G0 F3600 X107.673 Y115.965
M204 S500
M205 X20 Y20
;TYPE:WALL-OUTER
G1 F1200 X107.965 Y116.026 E1.05957
G1 X108.152 Y116.101 E1.06627
G1 X108.334 Y116.199 E1.07315
G1 X108.49 Y116.312 E1.07956
G1 X108.646 Y116.463 E1.08678
G1 X108.7 Y116.525 E1.08951
G1 X108.819 Y116.693 E1.09636
G1 X108.913 Y116.873 E1.10311
G1 X108.982 Y117.056 E1.10962
G1 X109.026 Y117.252 E1.1163
G1 X109.046 Y117.45 E1.12292
G1 X109.038 Y117.655 E1.12974
G1 X109.007 Y117.845 E1.13614
G1 X108.947 Y118.046 E1.14312
G1 X108.867 Y118.222 E1.14955
G1 X108.764 Y118.388 E1.15605
G1 X108.632 Y118.552 E1.16305
G1 X108.492 Y118.686 E1.1695
G1 X108.408 Y118.751 E1.17303
G1 X108.252 Y118.849 E1.17916
G1 X108.058 Y118.941 E1.1863
G1 X107.875 Y118.998 E1.19267
G1 X107.678 Y119.035 E1.19934
G1 X107.475 Y119.045 E1.2061
G1 X107.283 Y119.028 E1.21251
G1 X107.083 Y118.987 E1.2193
G1 X106.896 Y118.921 E1.2259
G1 X106.714 Y118.829 E1.23268
G1 X106.549 Y118.716 E1.23933
G1 X106.403 Y118.586 E1.24583
G1 X106.274 Y118.436 E1.25241
G1 X106.156 Y118.259 E1.25949
G1 X106.075 Y118.096 E1.26554
G1 X106.005 Y117.886 E1.2729
G1 X105.984 Y117.798 E1.27591
G1 X105.959 Y117.606 E1.28235
G1 X105.955 Y117.504 E1.28575
G1 X105.968 Y117.296 E1.29268
G1 X106.006 Y117.112 E1.29893
G1 X106.072 Y116.914 E1.30587
G1 X106.158 Y116.737 E1.31242
G1 X106.268 Y116.569 E1.3191
G1 X106.399 Y116.418 E1.32574
G1 X106.546 Y116.287 E1.33229
G1 X106.71 Y116.174 E1.33892
G1 X106.891 Y116.081 E1.34569
G1 X107.082 Y116.014 E1.35242
G1 X107.272 Y115.972 E1.35889
G1 X107.469 Y115.955 E1.36547
G1 X107.673 Y115.965 E1.37226
M204 S5000
M205 X30 Y30
G0 F3600 X107.868 Y116.005
G0 X107.739 Y116.788
M204 S500
M205 X20 Y20
;TYPE:SKIN
G1 F1200 X107.814 Y116.817 E1.37493
G1 X107.917 Y116.873 E1.37883
G1 X107.979 Y116.917 E1.38136
G1 X108.091 Y117.032 E1.3867
G1 X108.144 Y117.105 E1.3897
G1 X108.191 Y117.195 E1.39308
G1 X108.224 Y117.282 E1.39617
G1 X108.244 Y117.377 E1.3994
G1 X108.254 Y117.47 E1.40251
G1 X108.237 Y117.665 E1.40902
G1 X108.207 Y117.766 E1.41253
G1 X108.168 Y117.849 E1.41558
G1 X108.123 Y117.922 E1.41843
G1 X108.046 Y118.018 E1.42252
G1 X107.948 Y118.108 E1.42695
G1 X107.867 Y118.159 E1.43013
G1 X107.779 Y118.2 E1.43336
G1 X107.682 Y118.23 E1.43674
G1 X107.59 Y118.248 E1.43986
G1 X107.478 Y118.253 E1.44359
G1 X107.292 Y118.223 E1.44985
G1 X107.212 Y118.195 E1.45267
G1 X107.111 Y118.144 E1.45643
G1 X107.037 Y118.093 E1.45942
G1 X106.967 Y118.03 E1.46256
G1 X106.903 Y117.956 E1.46581
G1 X106.841 Y117.863 E1.46953
G1 X106.808 Y117.797 E1.47198
G1 X106.76 Y117.641 E1.47741
G1 X106.748 Y117.555 E1.4803
G1 X106.754 Y117.399 E1.48549
G1 X106.773 Y117.305 E1.48868
G1 X106.8 Y117.222 E1.49158
G1 X106.849 Y117.124 E1.49523
G1 X106.9 Y117.046 E1.49833
G1 X106.958 Y116.98 E1.50125
G1 X107.046 Y116.901 E1.50518
G1 X107.106 Y116.859 E1.50762
G1 X107.215 Y116.804 E1.51168
G1 X107.29 Y116.777 E1.51433
G1 X107.393 Y116.754 E1.51784
G1 X107.477 Y116.747 E1.52064
G1 X107.57 Y116.751 E1.52374
G1 X107.739 Y116.788 E1.52949
M204 S5000
M205 X30 Y30
G0 F3600 X107.334 Y116.951
M204 S500
M205 X20 Y20
G1 F1200 X108.049 Y117.666 E1.56313
M204 S5000
M205 X30 Y30
G0 F3600 X107.803 Y117.985
M204 S500
M205 X20 Y20
G1 F1200 X107.015 Y117.197 E1.60019
M204 S5000
M205 X30 Y30
G0 F3600 X106.971 Y117.719
M204 S500
M205 X20 Y20
G1 F1200 X107.275 Y118.023 E1.61449
M204 S5000
M205 X30 Y30
G1 F2400 E-3.38551
;MESH:EndCap_bot.stl(4)
G0 F3600 X106.377 Y117.571
G0 X105.106 Y117.696
G0 X100.571 Y116.752
G0 X99.313 Y117.007
G0 X97.608 Y115.703
G0 X97.616 Y115.604
M204 S500
M205 X20 Y20
;TYPE:WALL-INNER
G1 F2400 E1.61449
G1 F1200 X97.85 Y115.635 E1.62234
G1 X98.096 Y115.697 E1.63078
G1 X98.297 Y115.776 E1.63796
G1 X98.524 Y115.901 E1.64658
G1 X98.601 Y115.953 E1.64967
G1 X98.795 Y116.112 E1.65801
G1 X98.959 Y116.285 E1.66594
G1 X99.026 Y116.37 E1.66954
G1 X99.157 Y116.573 E1.67758
G1 X99.258 Y116.783 E1.68533
G1 X99.332 Y117.002 E1.69302
G1 X99.379 Y117.221 E1.70047
G1 X99.399 Y117.476 E1.70897
G1 X99.386 Y117.721 E1.71713
G1 X99.373 Y117.816 E1.72032
G1 X99.314 Y118.06 E1.72867
G1 X99.233 Y118.276 E1.73635
G1 X99.119 Y118.493 E1.7445
G1 X98.995 Y118.671 E1.75171
G1 X98.824 Y118.86 E1.76019
G1 X98.643 Y119.017 E1.76816
G1 X98.566 Y119.072 E1.77131
G1 X98.344 Y119.202 E1.77986
G1 X98.248 Y119.246 E1.78338
G1 X98.015 Y119.328 E1.79159
G1 X97.909 Y119.356 E1.79524
G1 X97.67 Y119.393 E1.80328
G1 X97.563 Y119.399 E1.80685
G1 X97.322 Y119.391 E1.81487
G1 X97.08 Y119.352 E1.82302
G1 X96.847 Y119.284 E1.83109
G1 X96.754 Y119.247 E1.83442
G1 X96.534 Y119.135 E1.84263
G1 X96.341 Y119.007 E1.85034
G1 X96.166 Y118.854 E1.85807
G1 X96.015 Y118.683 E1.86565
G1 X95.862 Y118.463 E1.87457
G1 X95.82 Y118.388 E1.87743
G1 X95.718 Y118.157 E1.88582
G1 X95.648 Y117.927 E1.89382
G1 X95.628 Y117.825 E1.89728
G1 X95.602 Y117.593 E1.90504
G1 X95.607 Y117.34 E1.91346
G1 X95.641 Y117.114 E1.92106
G1 X95.705 Y116.877 E1.92923
G1 X95.74 Y116.783 E1.93256
G1 X95.855 Y116.55 E1.9412
G1 X95.901 Y116.475 E1.94413
G1 X96.058 Y116.263 E1.9529
G1 X96.129 Y116.184 E1.95644
G1 X96.301 Y116.027 E1.96418
G1 X96.501 Y115.885 E1.97234
G1 X96.591 Y115.832 E1.97581
G1 X96.827 Y115.723 E1.98446
G1 X96.906 Y115.696 E1.98724
G1 X97.16 Y115.631 E1.99596
G1 X97.266 Y115.615 E1.99952
G1 X97.506 Y115.6 E2.00752
G1 X97.616 Y115.604 E2.01118
M204 S5000
M205 X30 Y30
G0 F3600 X97.074 Y115.24
M204 S500
M205 X20 Y20
;TYPE:WALL-OUTER
G1 F1200 X97.226 Y115.217 E2.0163
G1 X97.506 Y115.2 E2.02563
G1 X97.649 Y115.205 E2.03038
G1 X97.927 Y115.241 E2.03971
G1 X98.213 Y115.314 E2.04953
G1 X98.47 Y115.415 E2.05871
G1 X98.731 Y115.558 E2.06861
G1 X98.841 Y115.632 E2.07302
G1 X99.066 Y115.817 E2.08271
G1 X99.265 Y116.027 E2.09233
G1 X99.351 Y116.136 E2.09695
G1 X99.506 Y116.376 E2.10645
G1 X99.627 Y116.627 E2.11572
G1 X99.681 Y116.773 E2.12089
G1 X99.719 Y116.899 E2.12527
G1 X99.755 Y117.05 E2.13043
G1 X99.777 Y117.179 E2.13479
G1 X99.792 Y117.321 E2.13954
G1 X99.799 Y117.467 E2.1444
G1 X99.784 Y117.762 E2.15422
G1 X99.766 Y117.892 E2.15859
G1 X99.698 Y118.175 E2.16827
G1 X99.598 Y118.441 E2.17772
G1 X99.464 Y118.696 E2.1873
G1 X99.384 Y118.82 E2.19221
G1 X99.308 Y118.921 E2.19641
G1 X99.106 Y119.145 E2.20645
G1 X98.895 Y119.328 E2.21573
G1 X98.776 Y119.413 E2.2206
G1 X98.534 Y119.554 E2.22991
G1 X98.393 Y119.619 E2.23508
G1 X98.131 Y119.712 E2.24433
G1 X97.993 Y119.747 E2.24906
G1 X97.714 Y119.791 E2.25845
G1 X97.559 Y119.799 E2.26362
G1 X97.284 Y119.79 E2.27277
G1 X96.993 Y119.743 E2.28257
G1 X96.718 Y119.663 E2.2921
G1 X96.591 Y119.613 E2.29664
G1 X96.334 Y119.482 E2.30623
G1 X96.207 Y119.403 E2.31121
G1 X96.092 Y119.32 E2.31592
G1 X95.885 Y119.139 E2.32507
G1 X95.696 Y118.926 E2.33454
G1 X95.522 Y118.675 E2.3447
G1 X95.462 Y118.568 E2.34878
G1 X95.342 Y118.297 E2.35864
G1 X95.261 Y118.029 E2.36795
G1 X95.231 Y117.879 E2.37304
G1 X95.202 Y117.613 E2.38194
G1 X95.207 Y117.312 E2.39195
G1 X95.248 Y117.033 E2.40133
G1 X95.324 Y116.755 E2.41091
G1 X95.372 Y116.626 E2.41549
G1 X95.502 Y116.361 E2.42531
G1 X95.572 Y116.247 E2.42976
G1 X95.745 Y116.013 E2.43944
G1 X95.844 Y115.903 E2.44436
G1 X96.047 Y115.717 E2.45352
G1 X96.288 Y115.545 E2.46336
G1 X96.396 Y115.482 E2.46752
G1 X96.678 Y115.352 E2.47785
G1 X96.794 Y115.311 E2.48194
G1 X97.074 Y115.24 E2.49155
M204 S5000
M205 X30 Y30
G0 F3600 X97.226 Y115.217
G0 X97.273 Y115.215
G0 X97.305 Y116.004
M204 S500
M205 X20 Y20
;TYPE:SKIN
G1 F1200 X97.515 Y115.991 E2.49855
G1 X97.593 Y115.994 E2.50114
G1 X97.773 Y116.018 E2.50718
G1 X97.974 Y116.068 E2.51407
G1 X98.133 Y116.131 E2.51976
G1 X98.37 Y116.268 E2.52887
G1 X98.531 Y116.4 E2.53579
G1 X98.659 Y116.535 E2.54198
G1 X98.711 Y116.601 E2.54477
G1 X98.817 Y116.764 E2.55124
G1 X98.897 Y116.93 E2.55737
G1 X98.952 Y117.094 E2.56312
G1 X98.993 Y117.287 E2.56969
G1 X99.009 Y117.471 E2.57583
G1 X98.99 Y117.742 E2.58486
G1 X98.941 Y117.945 E2.59181
G1 X98.876 Y118.118 E2.59796
G1 X98.785 Y118.29 E2.60443
G1 X98.692 Y118.424 E2.60985
G1 X98.549 Y118.583 E2.61697
G1 X98.408 Y118.706 E2.62319
G1 X98.158 Y118.859 E2.63294
G1 X97.896 Y118.957 E2.64224
G1 X97.841 Y118.971 E2.64413
G1 X97.627 Y119.005 E2.65134
G1 X97.555 Y119.009 E2.65373
G1 X97.358 Y119.001 E2.66029
G1 X97.162 Y118.97 E2.66689
G1 X96.978 Y118.916 E2.67327
G1 X96.743 Y118.804 E2.68193
G1 X96.575 Y118.692 E2.68864
G1 X96.437 Y118.573 E2.6947
G1 X96.324 Y118.444 E2.70041
G1 X96.195 Y118.259 E2.70791
G1 X96.083 Y118.019 E2.71672
G1 X96.028 Y117.836 E2.72307
G1 X96.014 Y117.765 E2.72548
G1 X95.992 Y117.572 E2.73194
G1 X95.997 Y117.376 E2.73846
G1 X96.025 Y117.185 E2.74488
G1 X96.101 Y116.931 E2.7537
G1 X96.215 Y116.707 E2.76206
G1 X96.358 Y116.514 E2.77005
G1 X96.413 Y116.453 E2.77278
G1 X96.546 Y116.332 E2.77876
G1 X96.758 Y116.186 E2.78732
G1 X97.016 Y116.071 E2.79672
G1 X97.236 Y116.014 E2.80428
G1 X97.305 Y116.004 E2.8066
M204 S5000
M205 X30 Y30
G0 F3600 X97.503 Y116.171
M204 S500
