;FLAVOR:Marlin
;TIME:279
;Filament used: 0.0969034m
;Layer height: 0.2
;MINX:95.615
;MINY:93.615
;MINZ:0.2
;MAXX:139.386
;MAXY:151.385
;MAXZ:3
;Generated with Cura_SteamEngine 4.1.0
M140 S60
M105
M190 S60
M104 S200
M105
M109 S200
M82 ;absolute extrusion mode
; Ender 3 Custom Start G-code
G28 ; Home all axes
G92 E0 ; Reset Extruder
G1 Z2.0 F3000 ; Move Z Axis up little to prevent scratching of Heat Bed
G1 X0.1 Y20 Z0.3 F5000.0 ; Move to start position
G1 X0.1 Y200.0 Z0.3 F1500.0 E15 ; Draw the first line
G1 X0.4 Y200.0 Z0.3 F5000.0 ; Move to side a little
G1 X0.4 Y20 Z0.3 F1500.0 E30 ; Draw the second line
G92 E0 ; Reset Extruder
G1 Z2.0 F3000 ; Move Z Axis up little to prevent scratching of Heat Bed
; End of custom start GCode
G92 E0
G92 E0
G1 F2400 E-5
;LAYER_COUNT:15
;LAYER:0
M107
M204 S500
M205 X10 Y10
G0 F3600 X101.719 Y96.151 Z0.2
;TYPE:SKIRT
G1 F2400 E0
G1 F1800 X101.945 Y95.92 E0.01075
G1 X102.09 Y95.777 E0.01752
G1 X102.188 Y95.683 E0.02204
G1 X102.731 Y95.218 E0.04582
G1 X103.628 Y94.643 E0.08125
G1 X103.946 Y94.475 E0.09322
G1 X104.597 Y94.177 E0.11703
G1 X105.384 Y93.925 E0.14451
G1 X105.784 Y93.825 E0.15823
G1 X106.408 Y93.702 E0.17938
G1 X106.565 Y93.679 E0.18466
G1 X107.278 Y93.615 E0.20847
G1 X107.993 Y93.631 E0.23226
G1 X108.473 Y93.687 E0.24833
G1 X108.944 Y93.76 E0.26418
G1 X109.644 Y93.908 E0.28798
G1 X110.626 Y94.264 E0.32272
G1 X111.048 Y94.457 E0.33815
G1 X113.507 Y95.539 E0.42751
G1 X115.942 Y96.53 E0.51495
G1 X118.448 Y97.469 E0.60396
G1 X119.087 Y97.688 E0.62642
G1 X119.173 Y97.718 E0.62945
G1 X120.116 Y98.057 E0.66278
G1 X120.774 Y98.336 E0.68655
G1 X121.012 Y98.453 E0.69537
G1 X121.178 Y98.538 E0.70158
G1 X121.373 Y98.641 E0.70891
G1 X121.986 Y99.01 E0.73271
G1 X122.437 Y99.347 E0.75143
G1 X123.037 Y99.838 E0.77722
G1 X125.143 Y101.511 E0.86668
G1 X127.261 Y103.098 E0.9547
G1 X129.291 Y104.534 E1.03741
G1 X129.802 Y104.886 E1.05805
G1 X130.1 Y105.105 E1.07035
G1 X130.496 Y105.413 E1.08703
G1 X131.035 Y105.883 E1.11082
G1 X131.691 Y106.631 E1.14391
G1 X131.914 Y106.929 E1.15629
G1 X132.036 Y107.098 E1.16322
G1 X133.059 Y108.562 E1.22262
G1 X134.648 Y110.749 E1.31254
G1 X137.032 Y113.8 E1.44132
G1 X137.654 Y114.564 E1.47408
G1 X138.074 Y115.143 E1.49787
G1 X138.358 Y115.628 E1.51657
G1 X138.531 Y115.957 E1.52893
G1 X138.828 Y116.608 E1.55273
G1 X139.071 Y117.369 E1.5793
G1 X139.17 Y117.761 E1.59275
G1 X139.298 Y118.407 E1.61465
G1 X139.322 Y118.572 E1.6202
G1 X139.386 Y119.284 E1.64397
G1 X139.369 Y119.999 E1.66776
G1 X139.321 Y120.42 E1.68185
G1 X139.274 Y120.741 E1.69265
G1 X139.248 Y120.909 E1.6983
G1 X139.223 Y121.053 E1.70316
G1 X139.061 Y121.75 E1.72696
G1 X138.823 Y122.424 E1.75073
G1 X138.656 Y122.79 E1.76412
G1 X138.542 Y123.021 E1.77268
G1 X138.471 Y123.162 E1.77793
G1 X138.375 Y123.345 E1.78481
G1 X138.007 Y123.959 E1.80862
G1 X137.574 Y124.528 E1.8324
G1 X137.29 Y124.839 E1.84641
G1 X136.365 Y125.788 E1.89048
G1 X136.294 Y125.86 E1.89385
G1 X135.865 Y126.286 E1.91395
G1 X134.045 Y128.201 E2.00182
G1 X132.26 Y130.188 E2.09066
G1 X130.585 Y132.161 E2.17674
G1 X128.898 Y134.267 E2.26649
G1 X127.307 Y136.374 E2.35431
G1 X125.778 Y138.522 E2.442
G1 X124.312 Y140.711 E2.52963
G1 X122.888 Y142.97 E2.61844
G1 X121.543 Y145.246 E2.70637
G1 X120.703 Y146.771 E2.76428
G1 X120.667 Y146.835 E2.76672
G1 X120.278 Y147.522 E2.79298
G1 X119.892 Y148.124 E2.81677
G1 X119.294 Y148.835 E2.84767
G1 X119.069 Y149.066 E2.85839
G1 X118.918 Y149.215 E2.86545
G1 X118.816 Y149.313 E2.87015
G1 X118.273 Y149.779 E2.89395
G1 X117.372 Y150.357 E2.92955
G1 X117.054 Y150.525 E2.94152
G1 X116.403 Y150.823 E2.96533
G1 X115.616 Y151.075 E2.99281
G1 X115.216 Y151.175 E3.00653
G1 X114.592 Y151.298 E3.02768
G1 X114.435 Y151.321 E3.03296
G1 X113.722 Y151.385 E3.05677
G1 X113.007 Y151.369 E3.08056
G1 X112.581 Y151.322 E3.09481
G1 X112.239 Y151.272 E3.10631
G1 X111.538 Y151.129 E3.1301
G1 X110.87 Y150.913 E3.15345
G1 X110.516 Y150.777 E3.16607
G1 X109.838 Y150.471 E3.19081
G1 X109.655 Y150.375 E3.19768
G1 X109.041 Y150.007 E3.22149
G1 X108.472 Y149.574 E3.24527
G1 X108.15 Y149.279 E3.25979
G1 X107.907 Y149.041 E3.27111
G1 X107.756 Y148.888 E3.27826
G1 X107.672 Y148.8 E3.2823
G1 X107.207 Y148.256 E3.30611
G1 X106.639 Y147.364 E3.34128
G1 X106.472 Y147.047 E3.3532
G1 X106.174 Y146.397 E3.37698
G1 X106.022 Y145.961 E3.39234
G1 X105.689 Y144.888 E3.4297
G1 X105.629 Y144.683 E3.43681
G1 X105.491 Y144.18 E3.45416
G1 X104.713 Y141.627 E3.54292
G1 X103.874 Y139.129 E3.63057
G1 X102.962 Y136.648 E3.71849
G1 X101.975 Y134.182 E3.80683
G1 X100.921 Y131.75 E3.89499
G1 X99.796 Y129.343 E3.98336
G1 X98.623 Y127.007 E4.0703
G1 X97.067 Y124.136 E4.17891
G1 X96.776 Y123.62 E4.19862
G1 X96.685 Y123.454 E4.20491
G1 X96.468 Y123.041 E4.22043
G1 X96.172 Y122.39 E4.24422
G1 X95.925 Y121.616 E4.27124
G1 X95.825 Y121.216 E4.28495
G1 X95.702 Y120.592 E4.3061
G1 X95.679 Y120.435 E4.31138
G1 X95.615 Y119.722 E4.33519
G1 X95.631 Y119.007 E4.35898
G1 X95.68 Y118.569 E4.37364
G1 X95.732 Y118.218 E4.38544
G1 X95.896 Y117.446 E4.41169
G1 X96.105 Y116.692 E4.43771
G1 X96.161 Y116.5 E4.44437
G1 X96.609 Y115.061 E4.49449
G1 X97.316 Y112.539 E4.58161
G1 X97.957 Y109.975 E4.66951
G1 X98.54 Y107.333 E4.7595
G1 X99.022 Y104.79 E4.84559
G1 X99.479 Y101.952 E4.94119
G1 X99.726 Y100.254 E4.99826
G1 X99.868 Y99.553 E5.02205
G1 X100.073 Y98.913 E5.0444
G1 X100.211 Y98.548 E5.05738
G1 X100.536 Y97.826 E5.08372
G1 X100.633 Y97.642 E5.09064
G1 X101.001 Y97.029 E5.11442
G1 X101.435 Y96.461 E5.13819
G1 X101.719 Y96.151 E5.15217
G0 F3600 X102.005 Y96.431
G1 F1800 X102.231 Y96.2 E5.16292
G1 X102.367 Y96.066 E5.16927
G1 X102.465 Y95.972 E5.17379
G1 X102.991 Y95.522 E5.19681
G1 X103.815 Y94.997 E5.22931
G1 X104.133 Y94.829 E5.24127
G1 X104.763 Y94.541 E5.26431
G1 X105.481 Y94.313 E5.28937
G1 X105.881 Y94.213 E5.30308
G1 X106.466 Y94.097 E5.32292
G1 X106.623 Y94.074 E5.32819
G1 X107.313 Y94.014 E5.35123
G1 X108.005 Y94.033 E5.37426
G1 X108.412 Y94.082 E5.38789
G1 X108.883 Y94.155 E5.40374
G1 X109.56 Y94.3 E5.42677
G1 X110.459 Y94.628 E5.4586
G1 X110.837 Y94.801 E5.47243
G1 X113.344 Y95.904 E5.56352
G1 X115.829 Y96.916 E5.65276
G1 X118.282 Y97.834 E5.73988
G1 X118.957 Y98.066 E5.76362
G1 X119.038 Y98.095 E5.76648
G1 X119.981 Y98.434 E5.79981
G1 X120.598 Y98.695 E5.82209
G1 X120.836 Y98.812 E5.83091
G1 X120.991 Y98.892 E5.83671
G1 X121.186 Y98.995 E5.84405
G1 X121.779 Y99.353 E5.86709
G1 X122.184 Y99.657 E5.88393
G1 X122.776 Y100.142 E5.90938
G1 X124.9 Y101.829 E5.9996
G1 X127.012 Y103.411 E6.08737
G1 X129.11 Y104.896 E6.17286
G1 X129.575 Y105.216 E6.19163
G1 X129.855 Y105.421 E6.20317
G1 X130.251 Y105.729 E6.21986
G1 X130.772 Y106.185 E6.24289
G1 X131.371 Y106.87 E6.27315
G1 X131.594 Y107.168 E6.28553
G1 X131.709 Y107.327 E6.29206
G1 X132.765 Y108.839 E6.3534
G1 X134.319 Y110.976 E6.44128
G1 X136.733 Y114.067 E6.57173
G1 X137.344 Y114.817 E6.6039
G1 X137.75 Y115.378 E6.62693
G1 X138.004 Y115.815 E6.64375
G1 X138.177 Y116.144 E6.65611
G1 X138.463 Y116.774 E6.67912
G1 X138.683 Y117.467 E6.7033
G1 X138.782 Y117.859 E6.71675
G1 X138.903 Y118.464 E6.73727
G1 X138.927 Y118.629 E6.74282
G1 X138.986 Y119.319 E6.76585
G1 X138.967 Y120.012 E6.78891
G1 X138.926 Y120.362 E6.80063
G1 X138.879 Y120.683 E6.81142
G1 X138.854 Y120.84 E6.81671
G1 X138.829 Y120.984 E6.82157
G1 X138.671 Y121.659 E6.84463
G1 X138.297 Y122.613 E6.87871
G1 X138.183 Y122.844 E6.88728
G1 X138.116 Y122.976 E6.8922
G1 X138.02 Y123.159 E6.89907
G1 X137.664 Y123.753 E6.92211
G1 X137.241 Y124.302 E6.94516
G1 X137.004 Y124.56 E6.95681
G1 X136.079 Y125.509 E7.00089
G1 X136.012 Y125.577 E7.00406
G1 X135.558 Y126.028 E7.02535
G1 X133.756 Y127.923 E7.11232
G1 X131.991 Y129.888 E7.20017
G1 X130.252 Y131.937 E7.28956
G1 X128.582 Y134.022 E7.37841
G1 X126.977 Y136.147 E7.46698
G1 X125.453 Y138.289 E7.55441
G1 X123.968 Y140.506 E7.64316
G1 X122.548 Y142.76 E7.73177
G1 X121.206 Y145.031 E7.81951
G1 X120.353 Y146.578 E7.87826
G1 X120.319 Y146.638 E7.88056
G1 X119.93 Y147.325 E7.90681
G1 X119.555 Y147.907 E7.92984
G1 X119.007 Y148.555 E7.95807
G1 X118.782 Y148.786 E7.96879
G1 X118.641 Y148.927 E7.97543
G1 X118.539 Y149.025 E7.98013
G1 X118.013 Y149.475 E8.00315
G1 X117.185 Y150.003 E8.03582
G1 X116.867 Y150.171 E8.04778
G1 X116.237 Y150.459 E8.07082
G1 X115.519 Y150.687 E8.09587
G1 X115.119 Y150.787 E8.10959
G1 X114.534 Y150.903 E8.12942
G1 X114.377 Y150.926 E8.1347
G1 X113.687 Y150.986 E8.15774
G1 X112.995 Y150.967 E8.18076
G1 X112.639 Y150.926 E8.19268
G1 X112.297 Y150.876 E8.20418
G1 X111.619 Y150.736 E8.2272
G1 X111.013 Y150.54 E8.24839
G1 X110.659 Y150.404 E8.261
G1 X110.024 Y150.116 E8.28419
G1 X109.841 Y150.02 E8.29106
G1 X109.247 Y149.664 E8.3141
G1 X108.698 Y149.241 E8.33715
G1 X108.43 Y148.994 E8.34927
G1 X108.187 Y148.756 E8.36058
G1 X108.045 Y148.612 E8.36731
G1 X107.961 Y148.524 E8.37136
G1 X107.512 Y147.996 E8.39441
G1 X106.993 Y147.178 E8.42663
G1 X106.826 Y146.861 E8.43855
G1 X106.539 Y146.23 E8.4616
G1 X106.404 Y145.842 E8.47527
G1 X106.071 Y144.769 E8.51263
G1 X106.014 Y144.577 E8.51929
G1 X105.867 Y144.04 E8.53781
G1 X105.096 Y141.51 E8.62578
G1 X104.257 Y139.011 E8.71346
G1 X103.321 Y136.467 E8.80362
G1 X102.356 Y134.055 E8.89002
G1 X101.292 Y131.601 E8.97898
G1 X100.157 Y129.173 E9.06813
G1 X98.967 Y126.803 E9.15633
G1 X97.409 Y123.928 E9.26509
G1 X97.125 Y123.424 E9.28434
G1 X97.04 Y123.268 E9.29024
G1 X96.823 Y122.855 E9.30576
G1 X96.536 Y122.224 E9.32882
G1 X96.313 Y121.519 E9.35341
G1 X96.213 Y121.119 E9.36712
G1 X96.097 Y120.534 E9.38696
G1 X96.074 Y120.377 E9.39224
G1 X96.014 Y119.687 E9.41527
G1 X96.033 Y118.995 E9.4383
G1 X96.076 Y118.628 E9.45059
G1 X96.128 Y118.277 E9.46239
G1 X96.281 Y117.553 E9.487
G1 X96.49 Y116.799 E9.51303
G1 X96.543 Y116.619 E9.51927
G1 X96.99 Y115.183 E9.56929
G1 X97.704 Y112.638 E9.6572
G1 X98.352 Y110.045 E9.7461
G1 X98.929 Y107.429 E9.8352
G1 X99.417 Y104.857 E9.92227
G1 X99.874 Y102.016 E10.01798
G1 X100.122 Y100.312 E10.07525
G1 X100.261 Y99.633 E10.0983
G1 X100.447 Y99.054 E10.11853
G1 X100.585 Y98.689 E10.13151
G1 X100.889 Y98.013 E10.15616
G1 X100.986 Y97.829 E10.16308
G1 X101.344 Y97.236 E10.18612
G1 X101.768 Y96.688 E10.20916
G1 X102.005 Y96.431 E10.22079
G0 F3600 X102.291 Y96.711
G1 F1800 X102.517 Y96.48 E10.23154
G1 X102.644 Y96.355 E10.23747
G1 X102.742 Y96.261 E10.24198
G1 X103.251 Y95.827 E10.26423
G1 X104.002 Y95.351 E10.2938
G1 X104.32 Y95.183 E10.30577
G1 X104.929 Y94.906 E10.32802
G1 X105.578 Y94.701 E10.35065
G1 X105.978 Y94.601 E10.36437
G1 X106.524 Y94.493 E10.38288
G1 X106.681 Y94.47 E10.38816
G1 X107.348 Y94.413 E10.41042
G1 X108.017 Y94.436 E10.43269
G1 X108.351 Y94.477 E10.44388
G1 X108.822 Y94.55 E10.45973
G1 X109.476 Y94.692 E10.48199
G1 X110.293 Y94.991 E10.51093
G1 X110.724 Y95.188 E10.52669
G1 X113.211 Y96.282 E10.61706
G1 X115.644 Y97.273 E10.70443
G1 X118.193 Y98.227 E10.79496
G1 X118.827 Y98.445 E10.81726
G1 X118.902 Y98.471 E10.8199
G1 X119.845 Y98.81 E10.85322
G1 X120.422 Y99.054 E10.87406
G1 X120.66 Y99.171 E10.88288
G1 X120.805 Y99.245 E10.8883
G1 X121 Y99.348 E10.89563
G1 X121.571 Y99.696 E10.91787
G1 X121.931 Y99.966 E10.93284
G1 X122.524 Y100.451 E10.95832
G1 X124.674 Y102.159 E11.04965
G1 X126.788 Y103.743 E11.13751
G1 X128.837 Y105.193 E11.221
G1 X129.348 Y105.545 E11.24163
G1 X129.609 Y105.737 E11.25241
G1 X130.005 Y106.045 E11.2691
G1 X130.508 Y106.486 E11.29134
G1 X131.051 Y107.11 E11.31886
G1 X131.274 Y107.408 E11.33124
G1 X131.381 Y107.556 E11.33731
G1 X132.44 Y109.071 E11.39879
G1 X134.007 Y111.227 E11.48744
G1 X136.391 Y114.28 E11.61627
G1 X137.034 Y115.069 E11.65013
G1 X137.425 Y115.612 E11.67238
G1 X137.65 Y116.001 E11.68733
G1 X137.823 Y116.33 E11.69969
G1 X138.098 Y116.939 E11.72192
G1 X138.296 Y117.565 E11.74375
G1 X138.395 Y117.957 E11.7572
G1 X138.507 Y118.522 E11.77636
G1 X138.531 Y118.687 E11.7819
G1 X138.587 Y119.354 E11.80417
G1 X138.53 Y120.304 E11.83582
G1 X138.483 Y120.625 E11.84661
G1 X138.459 Y120.772 E11.85156
G1 X138.434 Y120.916 E11.85643
G1 X138.281 Y121.567 E11.87867
G1 X137.939 Y122.436 E11.90973
G1 X137.825 Y122.667 E11.9183
G1 X137.762 Y122.79 E11.92289
G1 X137.666 Y122.973 E11.92977
G1 X137.32 Y123.546 E11.95203
G1 X136.717 Y124.281 E11.98365
G1 X135.792 Y125.23 E12.02773
G1 X135.73 Y125.293 E12.03067
G1 X135.305 Y125.716 E12.05061
G1 X133.436 Y127.681 E12.14081
G1 X131.688 Y129.627 E12.22781
G1 X129.919 Y131.711 E12.31873
G1 X128.278 Y133.76 E12.40604
G1 X126.664 Y135.897 E12.49511
G1 X125.127 Y138.056 E12.58326
G1 X123.641 Y140.275 E12.67208
G1 X122.199 Y142.564 E12.76206
G1 X120.863 Y144.825 E12.84941
G1 X120.003 Y146.385 E12.90866
G1 X119.971 Y146.441 E12.91081
G1 X119.582 Y147.128 E12.93706
G1 X119.218 Y147.69 E12.95933
G1 X118.721 Y148.276 E12.98489
G1 X118.496 Y148.507 E12.99562
G1 X118.364 Y148.638 E13.0018
G1 X118.262 Y148.736 E13.00651
G1 X117.753 Y149.17 E13.02875
G1 X116.998 Y149.649 E13.05849
G1 X116.68 Y149.817 E13.07045
G1 X116.071 Y150.094 E13.09271
G1 X115.422 Y150.299 E13.11534
G1 X115.022 Y150.399 E13.12906
G1 X114.476 Y150.507 E13.14757
G1 X114.319 Y150.53 E13.15285
G1 X113.652 Y150.587 E13.17511
G1 X112.697 Y150.53 E13.20693
G1 X112.355 Y150.48 E13.21843
G1 X111.7 Y150.344 E13.24068
G1 X111.157 Y150.166 E13.25968
G1 X110.803 Y150.03 E13.2723
G1 X110.21 Y149.762 E13.29394
G1 X110.027 Y149.666 E13.30081
G1 X109.454 Y149.32 E13.32308
G1 X108.71 Y148.708 E13.35512
G1 X108.467 Y148.47 E13.36643
G1 X108.334 Y148.336 E13.37271
G1 X108.25 Y148.248 E13.37676
G1 X107.818 Y147.737 E13.39901
G1 X107.346 Y146.991 E13.42837
G1 X107.179 Y146.674 E13.44029
G1 X106.904 Y146.065 E13.46252
G1 X106.786 Y145.724 E13.47452
G1 X106.453 Y144.651 E13.51189
G1 X106.4 Y144.471 E13.51813
G1 X106.259 Y143.955 E13.53592
G1 X105.474 Y141.382 E13.62539
G1 X104.625 Y138.851 E13.71418
G1 X103.709 Y136.36 E13.80246
G1 X102.713 Y133.871 E13.89162
G1 X101.651 Y131.421 E13.98044
G1 X100.52 Y129.002 E14.06925
G1 X99.338 Y126.65 E14.1568
G1 X97.745 Y123.709 E14.26805
G1 X97.473 Y123.227 E14.28646
G1 X97.394 Y123.082 E14.29195
G1 X97.177 Y122.669 E14.30747
G1 X96.901 Y122.059 E14.32974
G1 X96.701 Y121.422 E14.35194
G1 X96.601 Y121.022 E14.36566
G1 X96.493 Y120.476 E14.38417
G1 X96.47 Y120.319 E14.38944
G1 X96.413 Y119.652 E14.41171
G1 X96.471 Y118.686 E14.4439
G1 X96.523 Y118.335 E14.4557
G1 X96.666 Y117.66 E14.47865
G1 X96.875 Y116.906 E14.50467
G1 X96.925 Y116.738 E14.5105
G1 X97.371 Y115.305 E14.56042
G1 X98.091 Y112.738 E14.64909
G1 X98.745 Y110.122 E14.73878
G1 X99.318 Y107.523 E14.8273
G1 X99.811 Y104.923 E14.91531
G1 X100.266 Y102.095 E15.01058
G1 X100.517 Y100.369 E15.06859
G1 X100.653 Y99.714 E15.09084
G1 X100.821 Y99.196 E15.10896
G1 X100.959 Y98.831 E15.12194
G1 X101.243 Y98.199 E15.14498
G1 X101.34 Y98.015 E15.1519
G1 X101.687 Y97.443 E15.17415
G1 X102.291 Y96.711 E15.20572
G0 F3600 X102.577 Y96.99
G1 F1800 X102.803 Y96.759 E15.21646
G1 X102.92 Y96.643 E15.22194
G1 X103.018 Y96.549 E15.22646
G1 X103.51 Y96.133 E15.24789
G1 X104.189 Y95.704 E15.2746
G1 X104.507 Y95.536 E15.28657
G1 X105.095 Y95.271 E15.30802
G1 X105.675 Y95.089 E15.32823
G1 X106.075 Y94.989 E15.34195
G1 X106.582 Y94.889 E15.35914
G1 X106.739 Y94.866 E15.36441
G1 X107.382 Y94.812 E15.38588
G1 X108.289 Y94.872 E15.41611
G1 X108.76 Y94.945 E15.43196
G1 X109.39 Y95.083 E15.45341
G1 X110.127 Y95.355 E15.47954
G1 X110.547 Y95.547 E15.4949
G1 X113.048 Y96.647 E15.58577
G1 X115.512 Y97.651 E15.67427
G1 X118.039 Y98.597 E15.76401
G1 X118.697 Y98.823 E15.78715
G1 X118.767 Y98.848 E15.78963
G1 X119.71 Y99.187 E15.82296
G1 X120.245 Y99.413 E15.84227
G1 X120.483 Y99.53 E15.85109
G1 X120.618 Y99.599 E15.85614
G1 X120.813 Y99.702 E15.86347
G1 X121.363 Y100.038 E15.88491
G1 X121.677 Y100.276 E15.89801
G1 X122.271 Y100.762 E15.92354
G1 X124.392 Y102.447 E16.01363
G1 X126.557 Y104.069 E16.10361
G1 X128.664 Y105.56 E16.18946
G1 X129.121 Y105.875 E16.20792
G1 X129.363 Y106.052 E16.21789
G1 X129.759 Y106.36 E16.23458
G1 X130.243 Y106.787 E16.25605
G1 X130.73 Y107.349 E16.28078
G1 X130.953 Y107.647 E16.29316
G1 X131.053 Y107.785 E16.29883
G1 X132.121 Y109.313 E16.36083
G1 X133.677 Y111.455 E16.44889
G1 X136.092 Y114.547 E16.57938
