;FLAVOR:Marlin
;TIME:364
;Filament used: 0.0579402m
;Layer height: 0.12
;MINX:98.365
;MINY:98.362
;MINZ:0.12
;MAXX:121.635
;MAXY:121.638
;MAXZ:9
;Generated with Cura_SteamEngine 4.2.1
M140 S50
M105
M190 S50
M104 S190
M105
M109 S190
M82 ;absolute extrusion mode
M201 X500.00 Y500.00 Z100.00 E5000.00 ;Setup machine max acceleration
M203 X500.00 Y500.00 Z10.00 E50.00 ;Setup machine max feedrate
M204 P500.00 R1000.00 T500.00 ;Setup Print/Retract/Travel acceleration
M205 X8.00 Y8.00 Z0.40 E5.00 ;Setup Jerk
M220 S100 ;Reset Feedrate
M221 S100 ;Reset Flowrate

G28 ;Home

G92 E0 ;Reset Extruder
G1 Z2.0 F3000 ;Move Z Axis up
G1 X10.1 Y20 Z0.28 F5000.0 ;Move to start position
G1 X10.1 Y200.0 Z0.28 F1500.0 E15 ;Draw the first line
G1 X10.4 Y200.0 Z0.28 F5000.0 ;Move to side a little
G1 X10.4 Y20 Z0.28 F1500.0 E30 ;Draw the second line
G92 E0 ;Reset Extruder
G1 Z2.0 F3000 ;Move Z Axis up

M141 S28
G92 E0
G92 E0
G1 F2700 E-5
;LAYER_COUNT:75
;LAYER:0
M107
G0 F6000 X101.813 Y101.728 Z0.12
;TYPE:SKIRT
G1 F2700 E0
G1 F1200 X102 Y101.547 E0.00571
G1 X102.408 Y101.178 E0.01779
G1 X102.582 Y101.031 E0.02279
G1 X103.045 Y100.667 E0.03572
G1 X103.247 Y100.52 E0.0412
G1 X103.731 Y100.194 E0.05401
G1 X103.946 Y100.06 E0.05957
G1 X104.42 Y99.787 E0.07158
G1 X104.628 Y99.676 E0.07676
G1 X105.122 Y99.433 E0.08884
G1 X105.34 Y99.335 E0.09409
G1 X105.904 Y99.106 E0.10745
G1 X106.144 Y99.019 E0.11305
G1 X106.673 Y98.848 E0.12526
G1 X106.91 Y98.78 E0.13067
G1 X107.459 Y98.643 E0.14309
G1 X107.689 Y98.594 E0.14825
G1 X108.243 Y98.496 E0.1606
G1 X108.497 Y98.46 E0.16624
G1 X109.034 Y98.402 E0.17809
G1 X109.262 Y98.385 E0.18311
G1 X109.867 Y98.362 E0.1964
G1 X110.133 Y98.362 E0.20224
G1 X110.723 Y98.383 E0.2152
G1 X110.943 Y98.399 E0.22004
G1 X111.491 Y98.458 E0.23214
G1 X111.746 Y98.494 E0.23779
G1 X112.311 Y98.594 E0.25039
G1 X112.54 Y98.643 E0.25553
G1 X113.021 Y98.761 E0.2664
G1 X113.258 Y98.827 E0.2718
G1 X113.876 Y99.027 E0.28606
G1 X114.116 Y99.115 E0.29167
G1 X114.582 Y99.302 E0.3027
G1 X114.801 Y99.398 E0.30794
G1 X115.365 Y99.672 E0.32171
G1 X115.573 Y99.783 E0.32688
G1 X116 Y100.027 E0.33768
G1 X116.215 Y100.159 E0.34322
G1 X116.767 Y100.53 E0.35782
G1 X116.969 Y100.678 E0.36332
G1 X117.39 Y101.008 E0.37506
G1 X117.564 Y101.154 E0.38004
G1 X117.961 Y101.51 E0.39175
G1 X118.149 Y101.69 E0.39746
G1 X118.586 Y102.142 E0.41126
G1 X118.739 Y102.313 E0.4163
G1 X119.075 Y102.713 E0.42777
G1 X119.236 Y102.918 E0.43349
G1 X119.585 Y103.398 E0.44652
G1 X119.713 Y103.588 E0.45155
G1 X120.009 Y104.062 E0.46381
G1 X120.131 Y104.273 E0.46916
G1 X120.408 Y104.795 E0.48214
G1 X120.521 Y105.028 E0.48782
G1 X120.734 Y105.506 E0.49931
G1 X120.827 Y105.734 E0.50471
G1 X121.029 Y106.284 E0.51758
G1 X121.104 Y106.514 E0.52289
G1 X121.256 Y107.039 E0.53488
G1 X121.312 Y107.26 E0.53989
G1 X121.439 Y107.855 E0.55324
G1 X121.484 Y108.112 E0.55897
G1 X121.564 Y108.686 E0.57169
G1 X121.589 Y108.93 E0.57708
G1 X121.625 Y109.448 E0.58848
G1 X121.634 Y109.683 E0.59364
G1 X121.635 Y110.271 E0.60655
G1 X121.627 Y110.507 E0.61173
G1 X121.59 Y111.061 E0.62392
G1 X121.565 Y111.305 E0.6293
G1 X121.49 Y111.849 E0.64136
G1 X121.446 Y112.106 E0.64708
G1 X121.322 Y112.698 E0.66036
G1 X121.267 Y112.919 E0.66536
G1 X121.113 Y113.457 E0.67764
G1 X121.038 Y113.689 E0.68299
G1 X120.849 Y114.214 E0.69524
G1 X120.758 Y114.441 E0.70061
G1 X120.521 Y114.975 E0.71344
G1 X120.41 Y115.203 E0.719
G1 X120.153 Y115.689 E0.73107
G1 X120.028 Y115.907 E0.73659
G1 X119.722 Y116.398 E0.74929
G1 X119.595 Y116.587 E0.75429
G1 X119.268 Y117.04 E0.76655
G1 X119.108 Y117.246 E0.77228
G1 X118.729 Y117.698 E0.78523
G1 X118.576 Y117.868 E0.79025
G1 X118.187 Y118.272 E0.80256
G1 X118 Y118.453 E0.80827
G1 X117.592 Y118.822 E0.82035
G1 X117.418 Y118.969 E0.82535
G1 X116.955 Y119.333 E0.83827
G1 X116.753 Y119.48 E0.84376
G1 X116.26 Y119.812 E0.85681
G1 X116.046 Y119.945 E0.86234
G1 X115.594 Y120.206 E0.87379
G1 X115.385 Y120.318 E0.879
G1 X114.878 Y120.567 E0.8914
G1 X114.66 Y120.665 E0.89665
G1 X114.096 Y120.894 E0.91001
G1 X113.856 Y120.981 E0.91561
G1 X113.327 Y121.152 E0.92782
G1 X113.09 Y121.22 E0.93323
G1 X112.541 Y121.357 E0.94565
G1 X112.311 Y121.406 E0.95081
G1 X111.757 Y121.504 E0.96316
G1 X111.503 Y121.54 E0.96879
G1 X110.966 Y121.598 E0.98065
G1 X110.738 Y121.615 E0.98567
G1 X110.133 Y121.638 E0.99896
G1 X109.867 Y121.638 E1.0048
G1 X109.277 Y121.617 E1.01776
G1 X109.057 Y121.601 E1.0226
G1 X108.509 Y121.542 E1.0347
G1 X108.254 Y121.506 E1.04035
G1 X107.689 Y121.406 E1.05295
G1 X107.46 Y121.357 E1.05809
G1 X106.979 Y121.239 E1.06896
G1 X106.742 Y121.173 E1.07436
G1 X106.124 Y120.973 E1.08862
G1 X105.884 Y120.885 E1.09423
G1 X105.389 Y120.686 E1.10594
G1 X105.17 Y120.589 E1.1112
G1 X104.636 Y120.328 E1.12425
G1 X104.426 Y120.216 E1.12947
G1 X104.002 Y119.973 E1.1402
G1 X103.79 Y119.843 E1.14566
G1 X103.244 Y119.477 E1.16009
G1 X103.04 Y119.328 E1.16563
G1 X102.609 Y118.991 E1.17764
G1 X102.435 Y118.845 E1.18263
G1 X102.038 Y118.489 E1.19434
G1 X101.85 Y118.309 E1.20005
G1 X101.413 Y117.857 E1.21385
G1 X101.26 Y117.686 E1.21889
G1 X100.924 Y117.286 E1.23035
G1 X100.763 Y117.081 E1.23608
G1 X100.409 Y116.593 E1.24931
G1 X100.282 Y116.404 E1.25431
G1 X99.999 Y115.951 E1.26603
G1 X99.873 Y115.734 E1.27154
G1 X99.574 Y115.17 E1.28556
G1 X99.465 Y114.943 E1.29108
G1 X99.266 Y114.494 E1.30186
G1 X99.173 Y114.266 E1.30727
G1 X98.978 Y113.736 E1.31967
G1 X98.902 Y113.505 E1.32501
G1 X98.735 Y112.927 E1.33821
G1 X98.68 Y112.706 E1.34321
G1 X98.561 Y112.144 E1.35582
G1 X98.516 Y111.887 E1.36155
G1 X98.436 Y111.313 E1.37427
G1 X98.411 Y111.069 E1.37966
G1 X98.375 Y110.552 E1.39103
G1 X98.366 Y110.318 E1.39617
G1 X98.365 Y109.729 E1.4091
G1 X98.373 Y109.493 E1.41429
G1 X98.41 Y108.939 E1.42647
G1 X98.435 Y108.695 E1.43186
G1 X98.509 Y108.157 E1.44378
G1 X98.553 Y107.899 E1.44952
G1 X98.686 Y107.268 E1.46368
G1 X98.742 Y107.047 E1.46869
G1 X98.881 Y106.563 E1.47974
G1 X98.955 Y106.332 E1.48506
G1 X99.151 Y105.786 E1.4978
G1 X99.242 Y105.559 E1.50317
G1 X99.48 Y105.023 E1.51604
G1 X99.594 Y104.789 E1.52175
G1 X99.857 Y104.294 E1.53406
G1 X99.979 Y104.082 E1.53943
G1 X100.278 Y103.602 E1.55184
G1 X100.405 Y103.413 E1.55684
G1 X100.732 Y102.96 E1.56911
G1 X100.892 Y102.754 E1.57483
G1 X101.271 Y102.302 E1.58778
G1 X101.424 Y102.132 E1.5928
G1 X101.813 Y101.728 E1.60511
G0 F6000 X102.119 Y102.044
G1 F1200 X102.306 Y101.863 E1.61082
G1 X102.692 Y101.514 E1.62225
G1 X102.866 Y101.367 E1.62725
G1 X103.304 Y101.023 E1.63947
G1 X103.506 Y100.876 E1.64496
G1 X103.964 Y100.567 E1.65709
G1 X104.179 Y100.433 E1.66265
G1 X104.627 Y100.175 E1.674
G1 X104.835 Y100.064 E1.67917
G1 X105.303 Y99.834 E1.69062
G1 X105.521 Y99.736 E1.69586
G1 X106.054 Y99.52 E1.70849
G1 X106.294 Y99.433 E1.71409
G1 X106.794 Y99.271 E1.72563
G1 X107.031 Y99.203 E1.73104
G1 X107.551 Y99.073 E1.74281
G1 X107.781 Y99.024 E1.74797
G1 X108.304 Y98.931 E1.75963
G1 X108.558 Y98.895 E1.76526
G1 X109.066 Y98.84 E1.77648
G1 X109.294 Y98.823 E1.7815
G1 X109.867 Y98.802 E1.79409
G1 X110.133 Y98.802 E1.79993
G1 X110.692 Y98.822 E1.8122
G1 X110.912 Y98.838 E1.81705
G1 X111.429 Y98.894 E1.82846
G1 X111.684 Y98.93 E1.83412
G1 X112.219 Y99.024 E1.84604
G1 X112.448 Y99.073 E1.85118
G1 X112.903 Y99.185 E1.86147
G1 X113.14 Y99.251 E1.86687
G1 X113.725 Y99.44 E1.88036
G1 X113.965 Y99.528 E1.88597
G1 X114.405 Y99.705 E1.89638
G1 X114.624 Y99.801 E1.90163
G1 X115.158 Y100.06 E1.91466
G1 X115.366 Y100.171 E1.91984
G1 X115.77 Y100.402 E1.93005
G1 X115.985 Y100.534 E1.93559
G1 X116.507 Y100.885 E1.9494
G1 X116.709 Y101.033 E1.9549
G1 X117.107 Y101.345 E1.966
G1 X117.281 Y101.491 E1.97098
G1 X117.657 Y101.828 E1.98207
G1 X117.845 Y102.008 E1.98778
G1 X118.258 Y102.436 E2.00084
G1 X118.411 Y102.607 E2.00587
G1 X118.729 Y102.985 E2.01672
G1 X118.89 Y103.19 E2.02244
G1 X119.22 Y103.644 E2.03476
G1 X119.348 Y103.834 E2.03979
G1 X119.628 Y104.282 E2.05139
G1 X119.75 Y104.493 E2.05674
G1 X120.012 Y104.987 E2.06901
G1 X120.125 Y105.22 E2.0747
G1 X120.327 Y105.672 E2.08556
G1 X120.42 Y105.9 E2.09097
G1 X120.611 Y106.421 E2.10315
G1 X120.686 Y106.651 E2.10846
G1 X120.829 Y107.147 E2.11979
G1 X120.885 Y107.368 E2.1248
G1 X121.006 Y107.931 E2.13744
G1 X121.051 Y108.188 E2.14317
G1 X121.126 Y108.731 E2.1552
G1 X121.151 Y108.975 E2.16058
G1 X121.185 Y109.465 E2.17137
G1 X121.194 Y109.7 E2.17653
G1 X121.196 Y110.256 E2.18873
G1 X121.188 Y110.492 E2.19392
G1 X121.152 Y111.016 E2.20545
G1 X121.127 Y111.26 E2.21083
G1 X121.057 Y111.774 E2.22222
G1 X121.013 Y112.031 E2.22794
G1 X120.895 Y112.592 E2.24053
G1 X120.84 Y112.813 E2.24553
G1 X120.695 Y113.322 E2.25714
G1 X120.62 Y113.554 E2.2625
G1 X120.44 Y114.05 E2.27408
G1 X120.349 Y114.277 E2.27945
G1 X120.125 Y114.782 E2.29157
G1 X120.014 Y115.01 E2.29714
G1 X119.771 Y115.47 E2.30856
G1 X119.646 Y115.688 E2.31408
G1 X119.357 Y116.153 E2.3261
G1 X119.23 Y116.342 E2.33109
G1 X118.92 Y116.77 E2.34269
G1 X118.76 Y116.976 E2.34842
G1 X118.402 Y117.404 E2.36067
G1 X118.249 Y117.574 E2.36569
G1 X117.881 Y117.956 E2.37733
G1 X117.694 Y118.137 E2.38305
G1 X117.308 Y118.486 E2.39447
G1 X117.134 Y118.633 E2.39947
G1 X116.696 Y118.977 E2.4117
G1 X116.494 Y119.124 E2.41718
G1 X116.027 Y119.438 E2.42953
G1 X115.813 Y119.571 E2.43506
G1 X115.386 Y119.818 E2.44589
G1 X115.177 Y119.93 E2.4511
G1 X114.697 Y120.166 E2.46284
G1 X114.479 Y120.264 E2.46809
G1 X113.946 Y120.48 E2.48071
G1 X113.706 Y120.567 E2.48631
G1 X113.206 Y120.729 E2.49785
G1 X112.969 Y120.797 E2.50326
G1 X112.449 Y120.927 E2.51503
G1 X112.219 Y120.976 E2.52019
G1 X111.696 Y121.069 E2.53185
G1 X111.442 Y121.105 E2.53749
G1 X110.934 Y121.16 E2.5487
G1 X110.706 Y121.177 E2.55372
G1 X110.133 Y121.198 E2.56631
G1 X109.867 Y121.198 E2.57215
G1 X109.308 Y121.178 E2.58443
G1 X109.088 Y121.162 E2.58927
G1 X108.571 Y121.106 E2.60068
G1 X108.316 Y121.07 E2.60634
G1 X107.781 Y120.976 E2.61826
G1 X107.552 Y120.927 E2.6234
G1 X107.097 Y120.815 E2.63369
G1 X106.86 Y120.749 E2.63909
G1 X106.275 Y120.56 E2.65258
G1 X106.035 Y120.472 E2.65819
G1 X105.568 Y120.283 E2.66925
G1 X105.349 Y120.186 E2.67451
G1 X104.843 Y119.94 E2.68686
G1 X104.633 Y119.828 E2.69209
G1 X104.232 Y119.598 E2.70223
G1 X104.02 Y119.468 E2.70769
G1 X103.503 Y119.122 E2.72135
G1 X103.299 Y118.973 E2.72689
G1 X102.892 Y118.654 E2.73825
G1 X102.718 Y118.508 E2.74323
G1 X102.342 Y118.171 E2.75432
G1 X102.154 Y117.991 E2.76003
G1 X101.741 Y117.563 E2.77309
G1 X101.588 Y117.392 E2.77812
G1 X101.27 Y117.014 E2.78897
G1 X101.109 Y116.809 E2.79469
G1 X100.774 Y116.348 E2.8072
G1 X100.647 Y116.159 E2.8122
G1 X100.379 Y115.73 E2.8233
G1 X100.253 Y115.513 E2.82881
G1 X99.971 Y114.98 E2.84205
G1 X99.862 Y114.753 E2.84757
G1 X99.673 Y114.328 E2.85778
G1 X99.58 Y114.1 E2.86319
G1 X99.396 Y113.598 E2.87493
G1 X99.32 Y113.367 E2.88026
G1 X99.162 Y112.821 E2.89274
G1 X99.107 Y112.6 E2.89774
G1 X98.994 Y112.068 E2.90968
G1 X98.949 Y111.811 E2.91541
G1 X98.874 Y111.268 E2.92744
G1 X98.849 Y111.024 E2.93282
G1 X98.815 Y110.535 E2.94358
G1 X98.806 Y110.301 E2.94873
G1 X98.804 Y109.744 E2.96095
G1 X98.812 Y109.508 E2.96614
G1 X98.848 Y108.984 E2.97767
G1 X98.873 Y108.74 E2.98305
G1 X98.943 Y108.231 E2.99433
G1 X98.987 Y107.973 E3.00007
G1 X99.113 Y107.376 E3.01347
G1 X99.169 Y107.155 E3.01847
G1 X99.3 Y106.697 E3.02893
G1 X99.374 Y106.466 E3.03425
G1 X99.56 Y105.95 E3.04629
G1 X99.651 Y105.723 E3.05166
G1 X99.876 Y105.216 E3.06384
G1 X99.99 Y104.982 E3.06955
G1 X100.238 Y104.513 E3.0812
G1 X100.36 Y104.301 E3.08657
G1 X100.643 Y103.847 E3.09831
G1 X100.77 Y103.658 E3.10331
G1 X101.08 Y103.23 E3.11491
G1 X101.24 Y103.024 E3.12064
G1 X101.598 Y102.596 E3.13289
G1 X101.751 Y102.426 E3.13791
G1 X102.119 Y102.044 E3.14955
G0 F6000 X102.425 Y102.36
G1 F1200 X102.612 Y102.179 E3.15526
G1 X102.976 Y101.85 E3.16603
G1 X103.15 Y101.703 E3.17103
G1 X103.563 Y101.379 E3.18256
G1 X103.765 Y101.232 E3.18804
G1 X104.197 Y100.941 E3.19948
G1 X104.412 Y100.807 E3.20504
G1 X104.834 Y100.563 E3.21574
G1 X105.042 Y100.452 E3.22091
G1 X105.483 Y100.235 E3.2317
G1 X105.701 Y100.137 E3.23695
G1 X106.204 Y99.934 E3.24886
G1 X106.444 Y99.847 E3.25446
G1 X106.916 Y99.694 E3.26535
G1 X107.153 Y99.626 E3.27076
G1 X107.642 Y99.503 E3.28183
G1 X107.872 Y99.454 E3.28699
G1 X108.366 Y99.367 E3.29801
G1 X108.62 Y99.331 E3.30364
G1 X109.099 Y99.279 E3.31421
G1 X109.327 Y99.262 E3.31923
G1 X109.867 Y99.242 E3.33109
G1 X110.133 Y99.242 E3.33693
G1 X110.66 Y99.261 E3.34851
G1 X110.88 Y99.277 E3.35335
G1 X111.368 Y99.329 E3.36413
G1 X111.623 Y99.365 E3.36978
G1 X112.127 Y99.455 E3.38102
G1 X112.356 Y99.504 E3.38616
G1 X112.785 Y99.609 E3.39585
G1 X113.022 Y99.675 E3.40125
G1 X113.573 Y99.853 E3.41396
G1 X113.813 Y99.941 E3.41958
G1 X114.229 Y100.108 E3.42942
G1 X114.448 Y100.204 E3.43467
G1 X114.951 Y100.448 E3.44694
G1 X115.159 Y100.559 E3.45211
G1 X115.54 Y100.777 E3.46175
G1 X115.755 Y100.909 E3.46729
G1 X116.247 Y101.24 E3.4803
G1 X116.449 Y101.388 E3.4858
G1 X116.825 Y101.682 E3.49628
G1 X116.999 Y101.828 E3.50126
G1 X117.353 Y102.146 E3.51171
G1 X117.541 Y102.326 E3.51742
G1 X117.93 Y102.729 E3.52972
G1 X118.083 Y102.9 E3.53476
G1 X118.383 Y103.257 E3.54499
G1 X118.544 Y103.462 E3.55071
G1 X118.855 Y103.89 E3.56233
G1 X118.983 Y104.08 E3.56736
G1 X119.247 Y104.502 E3.57828
G1 X119.369 Y104.713 E3.58363
G1 X119.616 Y105.179 E3.59521
G1 X119.729 Y105.412 E3.6009
G1 X119.919 Y105.838 E3.61114
G1 X120.012 Y106.066 E3.61654
G1 X120.192 Y106.557 E3.62802
G1 X120.267 Y106.787 E3.63333
G1 X120.403 Y107.255 E3.64403
G1 X120.459 Y107.476 E3.64903
G1 X120.572 Y108.007 E3.66095
G1 X120.617 Y108.264 E3.66668
G1 X120.688 Y108.776 E3.67803
G1 X120.713 Y109.02 E3.68341
G1 X120.746 Y109.482 E3.69358
G1 X120.755 Y109.717 E3.69874
G1 X120.756 Y110.241 E3.71024
G1 X120.748 Y110.477 E3.71543
G1 X120.714 Y110.971 E3.7263
G1 X120.689 Y111.215 E3.73168
G1 X120.623 Y111.7 E3.74243
G1 X120.579 Y111.957 E3.74815
G1 X120.468 Y112.485 E3.75999
G1 X120.413 Y112.706 E3.76499
G1 X120.276 Y113.186 E3.77595
G1 X120.201 Y113.418 E3.7813
G1 X120.032 Y113.886 E3.79222
G1 X119.941 Y114.113 E3.79759
G1 X119.73 Y114.59 E3.80904
G1 X119.619 Y114.818 E3.81461
G1 X119.389 Y115.251 E3.82537
G1 X119.264 Y115.469 E3.83089
G1 X118.992 Y115.907 E3.84221
G1 X118.865 Y116.096 E3.84721
G1 X118.573 Y116.5 E3.85815
G1 X118.413 Y116.706 E3.86387
G1 X118.075 Y117.11 E3.87544
G1 X117.922 Y117.28 E3.88046
G1 X117.575 Y117.64 E3.89143
G1 X117.388 Y117.821 E3.89715
G1 X117.024 Y118.15 E3.90792
G1 X116.85 Y118.297 E3.91292
G1 X116.437 Y118.621 E3.92444
G1 X116.235 Y118.768 E3.92992
G1 X115.795 Y119.064 E3.94156
G1 X115.581 Y119.197 E3.9471
G1 X115.178 Y119.43 E3.95731
G1 X114.969 Y119.542 E3.96252
G1 X114.517 Y119.765 E3.97358
G1 X114.299 Y119.863 E3.97883
G1 X113.796 Y120.066 E3.99074
G1 X113.556 Y120.153 E3.99634
G1 X113.084 Y120.306 E4.00723
G1 X112.847 Y120.374 E4.01265
G1 X112.358 Y120.497 E4.02371
G1 X112.128 Y120.546 E4.02888
G1 X111.634 Y120.633 E4.03989
G1 X111.38 Y120.669 E4.04552
G1 X110.901 Y120.721 E4.0561
G1 X110.673 Y120.738 E4.06111
G1 X110.133 Y120.758 E4.07298
G1 X109.867 Y120.758 E4.07882
G1 X109.34 Y120.739 E4.09039
G1 X109.12 Y120.723 E4.09523
G1 X108.632 Y120.671 E4.10601
G1 X108.377 Y120.635 E4.11166
G1 X107.873 Y120.545 E4.1229
G1 X107.644 Y120.496 E4.12804
G1 X107.215 Y120.391 E4.13774
G1 X106.978 Y120.325 E4.14314
G1 X106.427 Y120.147 E4.15585
G1 X106.187 Y120.059 E4.16146
G1 X105.746 Y119.881 E4.1719
G1 X105.527 Y119.784 E4.17716
G1 X105.051 Y119.552 E4.18878
G1 X104.841 Y119.44 E4.194
G1 X104.462 Y119.223 E4.20359
G1 X104.25 Y119.093 E4.20905
G1 X103.763 Y118.767 E4.22191
G1 X103.559 Y118.618 E4.22746
G1 X103.174 Y118.317 E4.23819
G1 X103 Y118.171 E4.24317
G1 X102.646 Y117.853 E4.25362
G1 X102.458 Y117.673 E4.25933
G1 X102.069 Y117.27 E4.27163
G1 X101.916 Y117.099 E4.27667
G1 X101.616 Y116.742 E4.2869
G1 X101.455 Y116.537 E4.29262
G1 X101.139 Y116.102 E4.30443
G1 X101.012 Y115.913 E4.30942
G1 X100.76 Y115.51 E4.31986
G1 X100.634 Y115.293 E4.32537
G1 X100.367 Y114.79 E4.33787
G1 X100.258 Y114.563 E4.3434
G1 X100.081 Y114.162 E4.35302
G1 X99.988 Y113.934 E4.35842
G1 X99.814 Y113.461 E4.36949
