;FLAVOR:Marlin
;TIME:21570
;Filament used: 17.7883m
;Layer height: 0.2
;MINX:76.779
;MINY:28.415
;MINZ:0.2
;MAXX:168.579
;MAXY:209.115
;MAXZ:31.6
;Generated with Cura_SteamEngine 4.3.0
M140 S50
M105
M190 S50
M104 S200
M105
M109 S200
M82 ;absolute extrusion mode
M201 X500.00 Y500.00 Z100.00 E5000.00 ;Setup machine max acceleration
M203 X500.00 Y500.00 Z10.00 E50.00 ;Setup machine max feedrate
M204 P500.00 R1000.00 T500.00 ;Setup Print/Retract/Travel acceleration
M205 X8.00 Y8.00 Z0.40 E5.00 ;Setup Jerk
M220 S100 ;Reset Feedrate
M221 S100 ;Reset Flowrate

G28 ;Home

G92 E0 ;Reset Extruder
G1 Z2.0 F3000 ;Move Z Axis up
G1 X10.1 Y20 Z0.28 F5000.0 ;Move to start position
G1 X10.1 Y200.0 Z0.28 F1500.0 E15 ;Draw the first line
G1 X10.4 Y200.0 Z0.28 F5000.0 ;Move to side a little
G1 X10.4 Y20 Z0.28 F1500.0 E30 ;Draw the second line
G92 E0 ;Reset Extruder
G1 Z2.0 F3000 ;Move Z Axis up

G92 E0
G92 E0
G1 F2700 E-5
;LAYER_COUNT:158
;LAYER:0
M107
G0 F6000 X77.41 Y33.141 Z0.2
;TYPE:SKIRT
G1 F2700 E0
G1 F1200 X77.758 Y32.432 E0.02627
G1 X78.176 Y31.761 E0.05256
G1 X78.659 Y31.137 E0.07881
G1 X79.202 Y30.564 E0.10506
G1 X79.801 Y30.049 E0.13134
G1 X80.449 Y29.598 E0.1576
G1 X81.14 Y29.214 E0.18389
G1 X81.865 Y28.902 E0.21014
G1 X82.618 Y28.665 E0.2364
G1 X83.392 Y28.506 E0.26268
G1 X84.177 Y28.425 E0.28893
G1 X84.579 Y28.415 E0.3023
G1 X160.779 Y28.415 E2.83672
G1 X161.568 Y28.455 E2.863
G1 X162.348 Y28.574 E2.88924
G1 X163.113 Y28.772 E2.91552
G1 X163.853 Y29.046 E2.94177
G1 X164.562 Y29.394 E2.96804
G1 X165.233 Y29.812 E2.99433
G1 X165.857 Y30.295 E3.02058
G1 X166.43 Y30.838 E3.04683
G1 X166.945 Y31.437 E3.07311
G1 X167.396 Y32.085 E3.09937
G1 X167.78 Y32.776 E3.12566
G1 X168.092 Y33.501 E3.15191
G1 X168.329 Y34.254 E3.17817
G1 X168.488 Y35.028 E3.20445
G1 X168.569 Y35.813 E3.2307
G1 X168.579 Y36.215 E3.24407
G1 X168.579 Y201.315 E8.73532
G1 X168.539 Y202.104 E8.7616
G1 X168.42 Y202.884 E8.78784
G1 X168.222 Y203.649 E8.81412
G1 X167.948 Y204.389 E8.84037
G1 X167.6 Y205.098 E8.86664
G1 X167.182 Y205.769 E8.89293
G1 X166.699 Y206.393 E8.91917
G1 X166.156 Y206.966 E8.94543
G1 X165.557 Y207.481 E8.9717
G1 X164.909 Y207.932 E8.99796
G1 X164.218 Y208.316 E9.02426
G1 X163.493 Y208.628 E9.05051
G1 X162.74 Y208.865 E9.07676
G1 X161.966 Y209.024 E9.10305
G1 X161.181 Y209.105 E9.12929
G1 X160.779 Y209.115 E9.14267
G1 X84.579 Y209.115 E11.67709
G1 X83.79 Y209.075 E11.70337
G1 X83.01 Y208.956 E11.72961
G1 X82.245 Y208.758 E11.75589
G1 X81.505 Y208.484 E11.78214
G1 X80.796 Y208.136 E11.80841
G1 X80.125 Y207.718 E11.8347
G1 X79.501 Y207.235 E11.86094
G1 X78.928 Y206.692 E11.8872
G1 X78.413 Y206.093 E11.91347
G1 X77.962 Y205.445 E11.93973
G1 X77.578 Y204.754 E11.96603
G1 X77.266 Y204.029 E11.99228
G1 X77.029 Y203.276 E12.01853
G1 X76.87 Y202.502 E12.04482
G1 X76.789 Y201.717 E12.07106
G1 X76.779 Y201.315 E12.08444
G1 X76.779 Y36.215 E17.57569
G1 X76.819 Y35.426 E17.60196
G1 X76.938 Y34.646 E17.62821
G1 X77.136 Y33.881 E17.65449
G1 X77.41 Y33.141 E17.68073
G0 F6000 X77.81 Y33.225
G1 F1200 X78.157 Y32.539 E17.7063
G1 X78.573 Y31.892 E17.73189
G1 X79.054 Y31.292 E17.75746
G1 X79.595 Y30.745 E17.78305
G1 X80.19 Y30.257 E17.80865
G1 X80.832 Y29.834 E17.83422
G1 X81.515 Y29.479 E17.85982
G1 X82.23 Y29.198 E17.88537
G1 X82.972 Y28.992 E17.91098
G1 X83.73 Y28.864 E17.93655
G1 X84.579 Y28.815 E17.96484
G1 X160.779 Y28.815 E20.49926
G1 X161.547 Y28.855 E20.52484
G1 X162.307 Y28.974 E20.55042
G1 X163.05 Y29.172 E20.576
G1 X163.769 Y29.446 E20.60159
G1 X164.455 Y29.793 E20.62716
G1 X165.102 Y30.209 E20.65274
G1 X165.702 Y30.69 E20.67832
G1 X166.249 Y31.231 E20.70391
G1 X166.737 Y31.826 E20.7295
G1 X167.16 Y32.468 E20.75507
G1 X167.515 Y33.151 E20.78068
G1 X167.796 Y33.866 E20.80623
G1 X168.002 Y34.608 E20.83184
G1 X168.13 Y35.366 E20.85741
G1 X168.179 Y36.215 E20.88569
G1 X168.179 Y201.315 E26.37694
G1 X168.139 Y202.083 E26.40252
G1 X168.02 Y202.843 E26.4281
G1 X167.822 Y203.586 E26.45368
G1 X167.548 Y204.305 E26.47927
G1 X167.201 Y204.991 E26.50484
G1 X166.785 Y205.638 E26.53042
G1 X166.304 Y206.238 E26.556
G1 X165.763 Y206.785 E26.58159
G1 X165.168 Y207.273 E26.60718
G1 X164.526 Y207.696 E26.63276
G1 X163.843 Y208.051 E26.65836
G1 X163.128 Y208.332 E26.68391
G1 X162.386 Y208.538 E26.70952
G1 X161.628 Y208.666 E26.73509
G1 X160.779 Y208.715 E26.76337
G1 X84.579 Y208.715 E29.2978
G1 X83.811 Y208.675 E29.32338
G1 X83.051 Y208.556 E29.34896
G1 X82.308 Y208.358 E29.37454
G1 X81.589 Y208.084 E29.40013
G1 X80.903 Y207.737 E29.4257
G1 X80.256 Y207.321 E29.45128
G1 X79.656 Y206.84 E29.47686
G1 X79.109 Y206.299 E29.50245
G1 X78.621 Y205.704 E29.52804
G1 X78.198 Y205.062 E29.55361
G1 X77.843 Y204.379 E29.57921
G1 X77.562 Y203.664 E29.60477
G1 X77.356 Y202.922 E29.63038
G1 X77.228 Y202.164 E29.65595
G1 X77.179 Y201.315 E29.68423
G1 X77.179 Y36.215 E35.17548
G1 X77.219 Y35.447 E35.20106
G1 X77.338 Y34.687 E35.22664
G1 X77.536 Y33.944 E35.25222
G1 X77.81 Y33.225 E35.27781
G0 F6000 X78.209 Y33.312
G1 F1200 X78.556 Y32.649 E35.3027
G1 X78.971 Y32.026 E35.3276
G1 X79.45 Y31.452 E35.35246
G1 X79.987 Y30.931 E35.37735
G1 X80.577 Y30.472 E35.40221
G1 X81.213 Y30.077 E35.42711
G1 X81.887 Y29.753 E35.45198
G1 X82.592 Y29.503 E35.47686
G1 X83.32 Y29.329 E35.50176
G1 X84.062 Y29.234 E35.52664
G1 X84.579 Y29.215 E35.54385
G1 X160.779 Y29.215 E38.07827
G1 X161.526 Y29.255 E38.10315
G1 X162.264 Y29.374 E38.12801
G1 X162.986 Y29.572 E38.15291
G1 X163.682 Y29.845 E38.17778
G1 X164.345 Y30.192 E38.20267
G1 X164.968 Y30.607 E38.22756
G1 X165.542 Y31.086 E38.25243
G1 X166.063 Y31.623 E38.27732
G1 X166.522 Y32.213 E38.30218
G1 X166.917 Y32.849 E38.32708
G1 X167.241 Y33.523 E38.35195
G1 X167.491 Y34.228 E38.37683
G1 X167.665 Y34.956 E38.40173
G1 X167.76 Y35.698 E38.42661
G1 X167.779 Y36.215 E38.44381
G1 X167.779 Y201.315 E43.93506
G1 X167.739 Y202.062 E43.95994
G1 X167.62 Y202.8 E43.98481
G1 X167.422 Y203.522 E44.00971
G1 X167.149 Y204.218 E44.03457
G1 X166.802 Y204.881 E44.05946
G1 X166.387 Y205.504 E44.08436
G1 X165.908 Y206.078 E44.10923
G1 X165.371 Y206.599 E44.13411
G1 X164.781 Y207.058 E44.15897
G1 X164.145 Y207.453 E44.18387
G1 X163.471 Y207.777 E44.20875
G1 X162.766 Y208.027 E44.23363
G1 X162.038 Y208.201 E44.25852
G1 X161.296 Y208.296 E44.2834
G1 X160.779 Y208.315 E44.30061
G1 X84.579 Y208.315 E46.83503
G1 X83.832 Y208.275 E46.85991
G1 X83.094 Y208.156 E46.88478
G1 X82.372 Y207.958 E46.90968
G1 X81.676 Y207.685 E46.93454
G1 X81.013 Y207.338 E46.95943
G1 X80.39 Y206.923 E46.98433
G1 X79.816 Y206.444 E47.00919
G1 X79.295 Y205.907 E47.03408
G1 X78.836 Y205.317 E47.05894
G1 X78.441 Y204.681 E47.08384
G1 X78.117 Y204.007 E47.10872
G1 X77.867 Y203.302 E47.1336
G1 X77.693 Y202.574 E47.15849
G1 X77.598 Y201.832 E47.18337
G1 X77.579 Y201.315 E47.20058
G1 X77.579 Y36.215 E52.69183
G1 X77.619 Y35.468 E52.71671
G1 X77.738 Y34.73 E52.74157
G1 X77.936 Y34.008 E52.76647
G1 X78.209 Y33.312 E52.79134
G0 F6000 X78.609 Y33.401
G1 F1200 X78.954 Y32.762 E52.81549
G1 X79.368 Y32.165 E52.83965
G1 X79.844 Y31.617 E52.8638
G1 X80.378 Y31.124 E52.88797
G1 X80.963 Y30.694 E52.91212
G1 X81.592 Y30.33 E52.93629
G1 X82.257 Y30.037 E52.96046
G1 X82.95 Y29.819 E52.98462
G1 X83.662 Y29.679 E53.00876
G1 X84.579 Y29.615 E53.03933
G1 X160.779 Y29.615 E55.57375
G1 X161.504 Y29.655 E55.5979
G1 X162.221 Y29.774 E55.62208
G1 X162.92 Y29.972 E55.64624
G1 X163.593 Y30.245 E55.67039
G1 X164.232 Y30.59 E55.69455
G1 X164.829 Y31.004 E55.71871
G1 X165.377 Y31.48 E55.74285
G1 X165.87 Y32.014 E55.76703
G1 X166.3 Y32.599 E55.79117
G1 X166.664 Y33.228 E55.81535
G1 X166.957 Y33.893 E55.83951
G1 X167.175 Y34.586 E55.86368
G1 X167.315 Y35.298 E55.88781
G1 X167.379 Y36.215 E55.91839
G1 X167.379 Y201.315 E61.40963
G1 X167.339 Y202.04 E61.43378
G1 X167.22 Y202.757 E61.45796
G1 X167.022 Y203.456 E61.48212
G1 X166.749 Y204.129 E61.50628
G1 X166.404 Y204.768 E61.53043
G1 X165.99 Y205.365 E61.55459
G1 X165.514 Y205.913 E61.57874
G1 X164.98 Y206.406 E61.60291
G1 X164.395 Y206.836 E61.62706
G1 X163.766 Y207.2 E61.65123
G1 X163.101 Y207.493 E61.6754
G1 X162.408 Y207.711 E61.69956
G1 X161.696 Y207.851 E61.7237
G1 X160.779 Y207.915 E61.75427
G1 X84.579 Y207.915 E64.28869
G1 X83.854 Y207.875 E64.31284
G1 X83.137 Y207.756 E64.33702
G1 X82.438 Y207.558 E64.36118
G1 X81.765 Y207.285 E64.38533
G1 X81.126 Y206.94 E64.40949
G1 X80.529 Y206.526 E64.43365
G1 X79.981 Y206.05 E64.45779
G1 X79.488 Y205.516 E64.48197
G1 X79.058 Y204.931 E64.50611
G1 X78.694 Y204.302 E64.53029
G1 X78.401 Y203.637 E64.55446
G1 X78.183 Y202.944 E64.57862
G1 X78.043 Y202.232 E64.60275
G1 X77.979 Y201.315 E64.63333
G1 X77.979 Y36.215 E70.12457
G1 X78.019 Y35.49 E70.14873
G1 X78.138 Y34.773 E70.1729
G1 X78.336 Y34.074 E70.19706
G1 X78.609 Y33.401 E70.22122
G0 F6000 X79.008 Y33.494
G1 F1200 X79.353 Y32.88 E70.24464
G1 X79.764 Y32.309 E70.26804
G1 X80.238 Y31.788 E70.29147
G1 X80.768 Y31.324 E70.3149
G1 X81.347 Y30.924 E70.3383
G1 X81.968 Y30.592 E70.36173
G1 X82.622 Y30.332 E70.38513
G1 X83.302 Y30.148 E70.40856
G1 X83.998 Y30.042 E70.43198
G1 X84.579 Y30.015 E70.45132
G1 X160.779 Y30.015 E72.98575
G1 X161.482 Y30.055 E73.00917
G1 X162.176 Y30.174 E73.03259
G1 X162.851 Y30.372 E73.05598
G1 X163.5 Y30.644 E73.07939
G1 X164.114 Y30.989 E73.10281
G1 X164.685 Y31.4 E73.12621
G1 X165.206 Y31.874 E73.14964
G1 X165.67 Y32.404 E73.17307
G1 X166.07 Y32.983 E73.19647
G1 X166.402 Y33.604 E73.2199
G1 X166.662 Y34.258 E73.2433
G1 X166.846 Y34.938 E73.26673
G1 X166.952 Y35.634 E73.29015
G1 X166.979 Y36.215 E73.30949
G1 X166.979 Y201.315 E78.80074
G1 X166.939 Y202.018 E78.82416
G1 X166.82 Y202.712 E78.84758
G1 X166.622 Y203.387 E78.87098
G1 X166.35 Y204.036 E78.89438
G1 X166.005 Y204.65 E78.91781
G1 X165.594 Y205.221 E78.94121
G1 X165.12 Y205.742 E78.96463
G1 X164.59 Y206.206 E78.98806
G1 X164.011 Y206.606 E79.01147
G1 X163.39 Y206.938 E79.03489
G1 X162.736 Y207.198 E79.0583
G1 X162.056 Y207.382 E79.08173
G1 X161.36 Y207.488 E79.10515
G1 X160.779 Y207.515 E79.12449
G1 X84.579 Y207.515 E81.65891
G1 X83.876 Y207.475 E81.68233
G1 X83.182 Y207.356 E81.70575
G1 X82.507 Y207.158 E81.72915
G1 X81.858 Y206.886 E81.75255
G1 X81.244 Y206.541 E81.77598
G1 X80.673 Y206.13 E81.79938
G1 X80.152 Y205.656 E81.8228
G1 X79.688 Y205.126 E81.84623
G1 X79.288 Y204.547 E81.86964
G1 X78.956 Y203.926 E81.89306
G1 X78.696 Y203.272 E81.91647
G1 X78.512 Y202.592 E81.9399
G1 X78.406 Y201.896 E81.96331
G1 X78.379 Y201.315 E81.98266
G1 X78.379 Y36.215 E87.47391
G1 X78.419 Y35.512 E87.49733
G1 X78.538 Y34.818 E87.52075
G1 X78.736 Y34.143 E87.54414
G1 X79.008 Y33.494 E87.56755
G0 F6000 X79.135 Y34.213
G1 F1200 X79.407 Y33.589 E87.59019
G1 X79.751 Y33.001 E87.61285
G1 X80.161 Y32.457 E87.6355
G1 X80.632 Y31.966 E87.65813
G1 X81.157 Y31.532 E87.68079
G1 X81.729 Y31.163 E87.70343
G1 X82.341 Y30.864 E87.72608
G1 X82.983 Y30.639 E87.74871
G1 X83.648 Y30.49 E87.77138
G1 X84.579 Y30.415 E87.80244
G1 X160.779 Y30.415 E90.33686
G1 X161.459 Y30.455 E90.35952
G1 X162.129 Y30.574 E90.38215
G1 X162.781 Y30.771 E90.40481
G1 X163.405 Y31.043 E90.42745
G1 X163.993 Y31.387 E90.45011
G1 X164.537 Y31.797 E90.47276
G1 X165.028 Y32.268 E90.49539
G1 X165.462 Y32.793 E90.51805
G1 X165.831 Y33.365 E90.54069
G1 X166.13 Y33.977 E90.56334
G1 X166.355 Y34.619 E90.58597
G1 X166.504 Y35.284 E90.60863
G1 X166.579 Y36.215 E90.6397
G1 X166.579 Y201.315 E96.13095
G1 X166.539 Y201.995 E96.1536
G1 X166.42 Y202.665 E96.17624
G1 X166.223 Y203.317 E96.19889
G1 X165.951 Y203.941 E96.22153
G1 X165.607 Y204.529 E96.24419
G1 X165.197 Y205.073 E96.26685
G1 X164.726 Y205.564 E96.28948
G1 X164.201 Y205.998 E96.31213
G1 X163.629 Y206.367 E96.33477
G1 X163.017 Y206.666 E96.35743
G1 X162.375 Y206.891 E96.38005
G1 X161.71 Y207.04 E96.40272
G1 X160.779 Y207.115 E96.43378
G1 X84.579 Y207.115 E98.96821
G1 X83.899 Y207.075 E98.99086
G1 X83.229 Y206.956 E99.0135
G1 X82.577 Y206.759 E99.03615
G1 X81.953 Y206.487 E99.05879
G1 X81.365 Y206.143 E99.08145
G1 X80.821 Y205.733 E99.10411
G1 X80.33 Y205.262 E99.12673
G1 X79.896 Y204.737 E99.14939
G1 X79.527 Y204.165 E99.17203
G1 X79.228 Y203.553 E99.19468
G1 X79.003 Y202.911 E99.21731
G1 X78.854 Y202.246 E99.23998
G1 X78.779 Y201.315 E99.27104
G1 X78.779 Y36.215 E104.76229
G1 X78.819 Y35.535 E104.78495
G1 X78.938 Y34.865 E104.80758
G1 X79.135 Y34.213 E104.83023
G0 F6000 X79.535 Y34.286
G1 F1200 X79.807 Y33.688 E104.85208
G1 X80.149 Y33.127 E104.87394
G1 X80.557 Y32.612 E104.89579
G1 X81.024 Y32.15 E104.91764
G1 X81.544 Y31.749 E104.93948
G1 X82.108 Y31.413 E104.96132
G1 X82.71 Y31.149 E104.98318
G1 X83.339 Y30.959 E105.00503
G1 X83.986 Y30.848 E105.02687
G1 X84.579 Y30.815 E105.04662
G1 X160.779 Y30.815 E107.58104
G1 X161.435 Y30.855 E107.6029
G1 X162.081 Y30.974 E107.62475
G1 X162.708 Y31.171 E107.64661
G1 X163.306 Y31.443 E107.66846
G1 X163.867 Y31.785 E107.69031
G1 X164.382 Y32.193 E107.71216
G1 X164.844 Y32.66 E107.73401
G1 X165.245 Y33.18 E107.75585
G1 X165.581 Y33.744 E107.77769
G1 X165.845 Y34.346 E107.79955
G1 X166.035 Y34.975 E107.82141
G1 X166.146 Y35.622 E107.84324
G1 X166.179 Y36.215 E107.86299
G1 X166.179 Y201.315 E113.35424
G1 X166.139 Y201.971 E113.3761
G1 X166.02 Y202.617 E113.39795
G1 X165.823 Y203.244 E113.41981
G1 X165.551 Y203.842 E113.44166
G1 X165.209 Y204.403 E113.46351
G1 X164.801 Y204.918 E113.48536
G1 X164.334 Y205.38 E113.50721
G1 X163.814 Y205.781 E113.52905
G1 X163.25 Y206.117 E113.55089
G1 X162.648 Y206.381 E113.57275
G1 X162.019 Y206.571 E113.59461
G1 X161.372 Y206.682 E113.61644
G1 X160.779 Y206.715 E113.63619
G1 X84.579 Y206.715 E116.17062
G1 X83.923 Y206.675 E116.19248
G1 X83.277 Y206.556 E116.21432
G1 X82.65 Y206.359 E116.23618
G1 X82.052 Y206.087 E116.25803
G1 X81.491 Y205.745 E116.27989
G1 X80.976 Y205.337 E116.30174
G1 X80.514 Y204.87 E116.32359
G1 X80.113 Y204.35 E116.34543
G1 X79.777 Y203.786 E116.36726
G1 X79.513 Y203.184 E116.38913
G1 X79.323 Y202.555 E116.41098
G1 X79.212 Y201.908 E116.43282
G1 X79.179 Y201.315 E116.45257
G1 X79.179 Y36.215 E121.94382
G1 X79.219 Y35.559 E121.96568
G1 X79.338 Y34.913 E121.98752
G1 X79.535 Y34.286 E122.00938
G0 F6000 X79.935 Y34.363
G1 F1200 X80.206 Y33.791 E122.03044
G1 X80.546 Y33.259 E122.05143
G1 X80.952 Y32.774 E122.07247
G1 X81.415 Y32.344 E122.09349
G1 X81.929 Y31.975 E122.11453
G1 X82.485 Y31.675 E122.13555
G1 X83.074 Y31.447 E122.15655
G1 X83.688 Y31.295 E122.17759
G1 X84.579 Y31.215 E122.20734
G1 X160.779 Y31.215 E124.74177
G1 X161.41 Y31.255 E124.7628
G1 X162.031 Y31.374 E124.78383
G1 X162.631 Y31.571 E124.80483
G1 X163.203 Y31.842 E124.82588
G1 X163.735 Y32.182 E124.84688
G1 X164.22 Y32.588 E124.86792
G1 X164.65 Y33.051 E124.88894
G1 X165.019 Y33.565 E124.90998
G1 X165.319 Y34.121 E124.93099
G1 X165.547 Y34.71 E124.952
G1 X165.699 Y35.324 E124.97304
G1 X165.779 Y36.215 E125.00279
G1 X165.779 Y201.315 E130.49404
G1 X165.739 Y201.946 E130.51507
G1 X165.62 Y202.567 E130.5361
G1 X165.423 Y203.167 E130.5571
G1 X165.152 Y203.739 E130.57816
G1 X164.812 Y204.271 E130.59916
G1 X164.406 Y204.756 E130.62019
G1 X163.943 Y205.186 E130.64121
G1 X163.429 Y205.555 E130.66225
G1 X162.873 Y205.855 E130.68327
G1 X162.284 Y206.083 E130.70427
G1 X161.67 Y206.235 E130.72531
G1 X160.779 Y206.315 E130.75507
G1 X84.579 Y206.315 E133.28949
G1 X83.948 Y206.275 E133.31052
G1 X83.327 Y206.156 E133.33155
G1 X82.727 Y205.959 E133.35255
G1 X82.155 Y205.688 E133.3736
G1 X81.623 Y205.348 E133.3946
G1 X81.138 Y204.942 E133.41564
G1 X80.708 Y204.479 E133.43666
G1 X80.339 Y203.965 E133.4577
G1 X80.039 Y203.409 E133.47871
G1 X79.811 Y202.82 E133.49972
G1 X79.659 Y202.206 E133.52076
G1 X79.579 Y201.315 E133.55051
G1 X79.579 Y36.215 E139.04176
G1 X79.619 Y35.584 E139.06279
G1 X79.738 Y34.963 E139.08382
G1 X79.935 Y34.363 E139.10483
G0 F6000 X80.334 Y34.442
G1 F1200 X80.605 Y33.899 E139.12501
G1 X80.944 Y33.396 E139.14518
G1 X81.346 Y32.943 E139.16533
G1 X81.804 Y32.546 E139.18549
G1 X82.311 Y32.213 E139.20566
G1 X82.857 Y31.949 E139.22583
G1 X83.433 Y31.76 E139.246
G1 X84.029 Y31.648 E139.26617
G1 X84.579 Y31.615 E139.28449
G1 X160.779 Y31.615 E141.81892
G1 X161.384 Y31.655 E141.83908
G1 X161.978 Y31.774 E141.85923
G1 X162.552 Y31.97 E141.8794
