;FLAVOR:Marlin
;TIME:31591
;Filament used: 34.9194m
;Layer height: 0.28
;MINX:34.279
;MINY:25.188
;MINZ:0.28
;MAXX:194.279
;MAXY:196.943
;MAXZ:46.2
;Generated with Cura_SteamEngine 4.4.0
M140 S60
M105
M190 S60
M104 S195
M105
M109 S195
M82 ;absolute extrusion mode
M201 X500.00 Y500.00 Z100.00 E5000.00 ;Setup machine max acceleration
M203 X500.00 Y500.00 Z10.00 E50.00 ;Setup machine max feedrate
M204 P500.00 R1000.00 T500.00 ;Setup Print/Retract/Travel acceleration
M205 X8.00 Y8.00 Z0.40 E5.00 ;Setup Jerk
M220 S100 ;Reset Feedrate
M221 S100 ;Reset Flowrate

G28 ;Home

G92 E0 ;Reset Extruder
G1 Z2.0 F3000 ;Move Z Axis up
G1 X10.1 Y20 Z0.28 F5000.0 ;Move to start position
G1 X10.1 Y200.0 Z0.28 F1500.0 E15 ;Draw the first line
G1 X10.4 Y200.0 Z0.28 F5000.0 ;Move to side a little
G1 X10.4 Y20 Z0.28 F1500.0 E30 ;Draw the second line
G92 E0 ;Reset Extruder
G1 Z2.0 F3000 ;Move Z Axis up

G92 E0
G92 E0
G1 F2700 E-3
;LAYER_COUNT:165
;LAYER:0
M107
G0 F6000 X34.902 Y27.301 Z0.28
;TYPE:SKIRT
G1 F2700 E0
G1 F1200 X35.392 Y26.698 E0.03618
G1 X35.509 Y26.581 E0.04388
G1 X35.926 Y26.221 E0.06954
G1 X36.39 Y25.924 E0.09519
G1 X36.893 Y25.698 E0.12087
G1 X37.423 Y25.547 E0.14653
G1 X38.196 Y25.468 E0.18271
G1 X147.498 Y25.469 E5.27227
G1 X172.497 Y25.468 E6.43633
G1 X172.664 Y25.397 E6.44478
G1 X173.196 Y25.256 E6.4704
G1 X173.896 Y25.191 E6.50314
G1 X190.361 Y25.188 E7.26982
G1 X190.911 Y25.228 E7.2955
G1 X191.449 Y25.347 E7.32115
G1 X191.964 Y25.542 E7.3468
G1 X192.446 Y25.81 E7.37248
G1 X193.049 Y26.301 E7.40868
G1 X193.166 Y26.418 E7.41639
G1 X193.526 Y26.835 E7.44204
G1 X193.823 Y27.299 E7.46769
G1 X194.049 Y27.802 E7.49337
G1 X194.2 Y28.332 E7.51903
G1 X194.279 Y29.105 E7.55521
G1 X194.279 Y30.221 E7.60718
G1 X194.239 Y30.771 E7.63286
G1 X194.231 Y30.809 E7.63467
G1 X194.279 Y31.283 E7.65685
G1 X194.279 Y190.846 E15.08677
G1 X194.239 Y191.396 E15.11245
G1 X194.238 Y191.401 E15.11269
G1 X194.26 Y191.525 E15.11855
G1 X194.279 Y191.909 E15.13645
G1 X194.279 Y193.026 E15.18847
G1 X194.239 Y193.576 E15.21414
G1 X194.12 Y194.114 E15.2398
G1 X193.924 Y194.629 E15.26546
G1 X193.656 Y195.11 E15.2911
G1 X193.166 Y195.713 E15.32728
G1 X193.049 Y195.83 E15.33498
G1 X192.632 Y196.19 E15.36064
G1 X192.168 Y196.487 E15.38629
G1 X191.665 Y196.713 E15.41197
G1 X191.135 Y196.864 E15.43763
G1 X190.362 Y196.943 E15.47381
G1 X44.369 Y196.942 E22.27185
G1 X38.196 Y196.943 E22.55929
G1 X37.646 Y196.903 E22.58497
G1 X37.108 Y196.784 E22.61063
G1 X36.593 Y196.588 E22.63629
G1 X36.112 Y196.32 E22.66193
G1 X35.509 Y195.83 E22.69811
G1 X35.392 Y195.713 E22.70581
G1 X35.032 Y195.296 E22.73146
G1 X34.735 Y194.832 E22.75712
G1 X34.509 Y194.329 E22.78279
G1 X34.358 Y193.799 E22.80846
G1 X34.279 Y193.026 E22.84464
G1 X34.279 Y191.91 E22.8966
G1 X34.319 Y191.36 E22.92228
G1 X34.328 Y191.322 E22.9241
G1 X34.279 Y190.847 E22.94633
G1 X34.279 Y31.284 E30.37626
G1 X34.319 Y30.734 E30.40193
G1 X34.32 Y30.73 E30.40213
G1 X34.298 Y30.606 E30.40799
G1 X34.279 Y30.222 E30.42589
G1 X34.279 Y29.385 E30.46487
G1 X34.319 Y28.835 E30.49054
G1 X34.438 Y28.297 E30.5162
G1 X34.634 Y27.782 E30.54186
G1 X34.902 Y27.301 E30.5675
G0 F6000 X35.299 Y27.427
G1 F1200 X35.675 Y26.981 E30.59466
G1 X35.792 Y26.864 E30.60237
G1 X36.188 Y26.525 E30.62664
G1 X36.63 Y26.25 E30.65088
G1 X37.11 Y26.046 E30.67517
G1 X37.615 Y25.918 E30.69942
G1 X38.196 Y25.868 E30.72658
G1 X147.498 Y25.869 E35.81614
G1 X172.577 Y25.868 E36.98392
G1 X172.874 Y25.749 E36.99882
G1 X173.381 Y25.63 E37.02307
G1 X173.896 Y25.591 E37.04712
G1 X190.361 Y25.588 E37.8138
G1 X190.881 Y25.628 E37.83808
G1 X191.388 Y25.747 E37.86233
G1 X191.872 Y25.942 E37.88663
G1 X192.32 Y26.208 E37.91089
G1 X192.766 Y26.584 E37.93805
G1 X192.883 Y26.701 E37.94576
G1 X193.222 Y27.097 E37.97003
G1 X193.497 Y27.539 E37.99427
G1 X193.701 Y28.019 E38.01856
G1 X193.829 Y28.524 E38.04281
G1 X193.879 Y29.105 E38.06997
G1 X193.879 Y30.221 E38.12193
G1 X193.839 Y30.741 E38.14622
G1 X193.834 Y30.762 E38.14722
G1 X193.879 Y31.283 E38.17157
G1 X193.879 Y190.846 E45.6015
G1 X193.839 Y191.366 E45.62578
G1 X193.834 Y191.389 E45.62688
G1 X193.85 Y191.468 E45.63063
G1 X193.879 Y191.909 E45.65121
G1 X193.879 Y193.026 E45.70322
G1 X193.839 Y193.546 E45.72751
G1 X193.72 Y194.053 E45.75176
G1 X193.525 Y194.536 E45.77601
G1 X193.259 Y194.984 E45.80027
G1 X192.883 Y195.43 E45.82743
G1 X192.766 Y195.547 E45.83514
G1 X192.37 Y195.886 E45.85941
G1 X191.928 Y196.161 E45.88365
G1 X191.448 Y196.365 E45.90794
G1 X190.943 Y196.493 E45.9322
G1 X190.362 Y196.543 E45.95935
G1 X44.369 Y196.542 E52.7574
G1 X38.196 Y196.543 E53.04484
G1 X37.676 Y196.503 E53.06912
G1 X37.169 Y196.384 E53.09337
G1 X36.686 Y196.189 E53.11762
G1 X36.238 Y195.923 E53.14189
G1 X35.792 Y195.547 E53.16905
G1 X35.675 Y195.43 E53.17675
G1 X35.336 Y195.034 E53.20103
G1 X35.061 Y194.592 E53.22527
G1 X34.857 Y194.112 E53.24955
G1 X34.729 Y193.607 E53.27381
G1 X34.679 Y193.026 E53.30096
G1 X34.679 Y191.91 E53.35293
G1 X34.719 Y191.39 E53.37721
G1 X34.724 Y191.369 E53.37822
G1 X34.679 Y190.847 E53.40262
G1 X34.679 Y31.284 E60.83254
G1 X34.719 Y30.764 E60.85682
G1 X34.724 Y30.741 E60.85792
G1 X34.708 Y30.663 E60.86163
G1 X34.679 Y30.222 E60.88221
G1 X34.679 Y29.385 E60.92118
G1 X34.719 Y28.865 E60.94546
G1 X34.838 Y28.358 E60.96971
G1 X35.033 Y27.875 E60.99397
G1 X35.299 Y27.427 E61.01823
G0 F6000 X35.697 Y27.561
G1 F1200 X35.958 Y27.264 E61.03664
G1 X36.075 Y27.147 E61.04435
G1 X36.448 Y26.83 E61.06714
G1 X36.868 Y26.578 E61.08995
G1 X37.323 Y26.398 E61.11273
G1 X37.801 Y26.294 E61.13551
G1 X38.196 Y26.268 E61.15394
G1 X147.498 Y26.269 E66.2435
G1 X172.642 Y26.268 E67.41431
G1 X173.08 Y26.104 E67.43609
G1 X173.56 Y26.01 E67.45886
G1 X173.896 Y25.991 E67.47453
G1 X190.361 Y25.988 E68.24121
G1 X190.849 Y26.028 E68.26401
G1 X191.324 Y26.146 E68.2868
G1 X191.773 Y26.341 E68.3096
G1 X192.185 Y26.606 E68.33241
G1 X192.483 Y26.867 E68.35085
G1 X192.6 Y26.984 E68.35856
G1 X192.917 Y27.357 E68.38135
G1 X193.169 Y27.777 E68.40416
G1 X193.349 Y28.232 E68.42694
G1 X193.453 Y28.71 E68.44972
G1 X193.479 Y29.105 E68.46815
G1 X193.479 Y30.221 E68.52012
G1 X193.439 Y30.709 E68.54292
G1 X193.426 Y30.762 E68.54546
G1 X193.453 Y30.888 E68.55146
G1 X193.479 Y31.283 E68.56989
G1 X193.479 Y190.846 E75.99981
G1 X193.439 Y191.334 E76.02261
G1 X193.427 Y191.381 E76.02487
G1 X193.443 Y191.447 E76.02804
G1 X193.479 Y191.909 E76.04961
G1 X193.479 Y193.026 E76.10163
G1 X193.439 Y193.514 E76.12442
G1 X193.32 Y193.989 E76.14723
G1 X193.126 Y194.438 E76.17
G1 X192.861 Y194.85 E76.19281
G1 X192.6 Y195.147 E76.21122
G1 X192.483 Y195.264 E76.21893
G1 X192.11 Y195.581 E76.24172
G1 X191.69 Y195.833 E76.26453
G1 X191.235 Y196.013 E76.28731
G1 X190.757 Y196.117 E76.31009
G1 X190.362 Y196.143 E76.32852
G1 X44.369 Y196.142 E83.12657
G1 X38.196 Y196.143 E83.41401
G1 X37.708 Y196.103 E83.43681
G1 X37.233 Y195.984 E83.45961
G1 X36.784 Y195.79 E83.48239
G1 X36.372 Y195.525 E83.5052
G1 X36.075 Y195.264 E83.52361
G1 X35.958 Y195.147 E83.53131
G1 X35.641 Y194.774 E83.55411
G1 X35.389 Y194.354 E83.57691
G1 X35.209 Y193.899 E83.5997
G1 X35.105 Y193.421 E83.62248
G1 X35.079 Y193.026 E83.64091
G1 X35.079 Y191.91 E83.69287
G1 X35.119 Y191.422 E83.71567
G1 X35.132 Y191.368 E83.71826
G1 X35.105 Y191.242 E83.72426
G1 X35.079 Y190.847 E83.74269
G1 X35.079 Y31.284 E91.17261
G1 X35.119 Y30.796 E91.19541
G1 X35.131 Y30.749 E91.19767
G1 X35.115 Y30.684 E91.20079
G1 X35.079 Y30.222 E91.22237
G1 X35.079 Y29.385 E91.26134
G1 X35.119 Y28.897 E91.28414
G1 X35.238 Y28.422 E91.30694
G1 X35.432 Y27.973 E91.32972
G1 X35.697 Y27.561 E91.35253
G0 F6000 X35.831 Y28.079
G1 F1200 X36.241 Y27.547 E91.3838
G1 X36.358 Y27.43 E91.39151
G1 X36.707 Y27.137 E91.41273
G1 X37.102 Y26.91 E91.43394
G1 X37.53 Y26.755 E91.45514
G1 X38.196 Y26.668 E91.48641
G1 X147.498 Y26.669 E96.57597
G1 X172.747 Y26.668 E97.75167
G1 X172.849 Y26.612 E97.75709
G1 X173.28 Y26.465 E97.77829
G1 X173.897 Y26.391 E97.80723
G1 X190.362 Y26.388 E98.57391
G1 X190.815 Y26.428 E98.59508
G1 X191.255 Y26.546 E98.6163
G1 X191.668 Y26.74 E98.63754
G1 X192.2 Y27.15 E98.66882
G1 X192.317 Y27.267 E98.67652
G1 X192.61 Y27.616 E98.69774
G1 X192.837 Y28.011 E98.71896
G1 X192.992 Y28.439 E98.74015
G1 X193.079 Y29.105 E98.77143
G1 X193.079 Y30.221 E98.82339
G1 X193.039 Y30.675 E98.84461
G1 X193.012 Y30.774 E98.84939
G1 X193.079 Y31.283 E98.8733
G1 X193.079 Y190.846 E106.30322
G1 X193.039 Y191.3 E106.32444
G1 X193.018 Y191.379 E106.32825
G1 X193.04 Y191.463 E106.33229
G1 X193.079 Y191.909 E106.35314
G1 X193.079 Y193.026 E106.40515
G1 X193.039 Y193.48 E106.42637
G1 X192.921 Y193.92 E106.44758
G1 X192.727 Y194.332 E106.46879
G1 X192.317 Y194.864 E106.50006
G1 X192.2 Y194.981 E106.50777
G1 X191.851 Y195.274 E106.52899
G1 X191.456 Y195.501 E106.5502
G1 X191.028 Y195.656 E106.5714
G1 X190.362 Y195.743 E106.60267
G1 X44.369 Y195.742 E113.40072
G1 X38.196 Y195.743 E113.68816
G1 X37.742 Y195.703 E113.70938
G1 X37.302 Y195.585 E113.73059
G1 X36.89 Y195.391 E113.7518
G1 X36.358 Y194.981 E113.78307
G1 X36.241 Y194.864 E113.79078
G1 X35.948 Y194.515 E113.812
G1 X35.721 Y194.12 E113.83321
G1 X35.566 Y193.692 E113.85441
G1 X35.479 Y193.026 E113.88568
G1 X35.479 Y191.91 E113.93765
G1 X35.519 Y191.456 E113.95887
G1 X35.546 Y191.357 E113.96365
G1 X35.479 Y190.847 E113.9876
G1 X35.479 Y31.284 E121.41752
G1 X35.519 Y30.83 E121.43874
G1 X35.54 Y30.751 E121.44255
G1 X35.518 Y30.668 E121.44655
G1 X35.479 Y30.222 E121.4674
G1 X35.479 Y29.385 E121.50637
G1 X35.519 Y28.931 E121.52759
G1 X35.637 Y28.491 E121.5488
G1 X35.831 Y28.079 E121.57001
G0 F6000 X36.23 Y28.194
G1 F1200 X36.523 Y27.829 E121.5918
G1 X36.64 Y27.712 E121.59951
G1 X36.964 Y27.446 E121.61903
G1 X37.331 Y27.245 E121.63851
G1 X37.731 Y27.118 E121.65805
G1 X38.196 Y27.068 E121.67983
G1 X147.498 Y27.069 E126.76939
G1 X172.848 Y27.068 E127.94979
G1 X173.072 Y26.952 E127.96154
G1 X173.474 Y26.832 E127.98107
G1 X173.897 Y26.791 E128.00086
G1 X190.362 Y26.788 E128.76754
G1 X190.779 Y26.828 E128.78705
G1 X191.181 Y26.946 E128.80656
G1 X191.553 Y27.138 E128.82605
G1 X191.918 Y27.432 E128.84787
G1 X192.035 Y27.549 E128.85558
G1 X192.301 Y27.873 E128.8751
G1 X192.502 Y28.24 E128.89458
G1 X192.629 Y28.64 E128.91412
G1 X192.679 Y29.105 E128.9359
G1 X192.679 Y30.221 E128.98787
G1 X192.639 Y30.638 E129.00737
G1 X192.607 Y30.748 E129.01271
G1 X192.629 Y30.818 E129.01612
G1 X192.679 Y31.283 E129.0379
G1 X192.679 Y190.846 E136.46782
G1 X192.639 Y191.263 E136.48733
G1 X192.605 Y191.378 E136.49291
G1 X192.644 Y191.516 E136.49959
G1 X192.679 Y191.909 E136.51796
G1 X192.679 Y193.026 E136.56998
G1 X192.639 Y193.443 E136.58948
G1 X192.521 Y193.845 E136.60899
G1 X192.328 Y194.217 E136.6285
G1 X192.035 Y194.582 E136.6503
G1 X191.918 Y194.699 E136.658
G1 X191.594 Y194.965 E136.67752
G1 X191.227 Y195.166 E136.69701
G1 X190.827 Y195.293 E136.71655
G1 X190.362 Y195.343 E136.73833
G1 X44.369 Y195.342 E143.53637
G1 X38.196 Y195.343 E143.82381
G1 X37.779 Y195.303 E143.84332
G1 X37.377 Y195.185 E143.86283
G1 X37.005 Y194.992 E143.88234
G1 X36.64 Y194.699 E143.90414
G1 X36.523 Y194.582 E143.91184
G1 X36.257 Y194.258 E143.93136
G1 X36.056 Y193.891 E143.95085
G1 X35.929 Y193.491 E143.97039
G1 X35.879 Y193.026 E143.99217
G1 X35.879 Y191.91 E144.04413
G1 X35.919 Y191.493 E144.06364
G1 X35.951 Y191.383 E144.06897
G1 X35.929 Y191.312 E144.07243
G1 X35.879 Y190.847 E144.09421
G1 X35.879 Y31.284 E151.52413
G1 X35.919 Y30.867 E151.54364
G1 X35.953 Y30.752 E151.54922
G1 X35.914 Y30.615 E151.55585
G1 X35.879 Y30.222 E151.57423
G1 X35.879 Y29.385 E151.6132
G1 X35.919 Y28.968 E151.63271
G1 X36.037 Y28.566 E151.65222
G1 X36.23 Y28.194 E151.67173
G0 F6000 X36.627 Y28.321
G1 F1200 X36.806 Y28.112 E151.68454
G1 X36.923 Y27.995 E151.69225
G1 X37.218 Y27.757 E151.7099
G1 X37.556 Y27.586 E151.72754
G1 X37.922 Y27.489 E151.74517
G1 X38.196 Y27.468 E151.75796
G1 X147.498 Y27.469 E156.84752
G1 X172.939 Y27.468 E158.03216
G1 X172.948 Y27.461 E158.03269
G1 X173.29 Y27.297 E158.05035
G1 X173.658 Y27.207 E158.06799
G1 X173.897 Y27.191 E158.07915
G1 X190.362 Y27.188 E158.84583
G1 X190.739 Y27.228 E158.86348
G1 X191.099 Y27.346 E158.88112
G1 X191.426 Y27.536 E158.89873
G1 X191.635 Y27.715 E158.91155
G1 X191.752 Y27.832 E158.91925
G1 X191.99 Y28.127 E158.9369
G1 X192.161 Y28.465 E158.95454
G1 X192.258 Y28.831 E158.97217
G1 X192.279 Y29.105 E158.98496
G1 X192.279 Y30.221 E159.03693
G1 X192.239 Y30.598 E159.05458
G1 X192.189 Y30.75 E159.06203
G1 X192.258 Y31.009 E159.07451
G1 X192.279 Y31.283 E159.08731
G1 X192.279 Y190.846 E166.51723
G1 X192.239 Y191.223 E166.53489
G1 X192.189 Y191.377 E166.54243
G1 X192.253 Y191.607 E166.55354
G1 X192.279 Y191.909 E166.56766
G1 X192.279 Y193.026 E166.61967
G1 X192.239 Y193.403 E166.63732
G1 X192.121 Y193.763 E166.65496
G1 X191.931 Y194.09 E166.67257
G1 X191.752 Y194.299 E166.68539
G1 X191.635 Y194.416 E166.69309
G1 X191.34 Y194.654 E166.71074
G1 X191.002 Y194.825 E166.72838
G1 X190.636 Y194.922 E166.74601
G1 X190.362 Y194.943 E166.75881
G1 X44.369 Y194.942 E173.55685
G1 X38.196 Y194.943 E173.84429
G1 X37.819 Y194.903 E173.86194
G1 X37.459 Y194.785 E173.87959
G1 X37.132 Y194.595 E173.8972
G1 X36.923 Y194.416 E173.91001
G1 X36.806 Y194.299 E173.91771
G1 X36.568 Y194.004 E173.93536
G1 X36.397 Y193.666 E173.953
G1 X36.3 Y193.3 E173.97063
G1 X36.279 Y193.026 E173.98343
G1 X36.279 Y191.91 E174.03539
G1 X36.319 Y191.533 E174.05305
G1 X36.369 Y191.381 E174.0605
G1 X36.3 Y191.121 E174.07302
G1 X36.279 Y190.847 E174.08582
G1 X36.279 Y31.284 E181.51574
G1 X36.319 Y30.907 E181.53339
G1 X36.369 Y30.754 E181.54089
G1 X36.305 Y30.524 E181.55201
G1 X36.279 Y30.222 E181.56612
G1 X36.279 Y29.385 E181.6051
G1 X36.319 Y29.008 E181.62275
G1 X36.437 Y28.648 E181.64039
G1 X36.627 Y28.321 E181.658
G0 F6000 X36.836 Y28.741
G1 F1200 X37.089 Y28.395 E181.67796
G1 X37.206 Y28.278 E181.68566
G1 X37.469 Y28.072 E181.70122
G1 X37.773 Y27.933 E181.71678
G1 X38.196 Y27.868 E181.73671
G1 X147.498 Y27.869 E186.82627
G1 X173.078 Y27.868 E188.01738
G1 X173.193 Y27.781 E188.0241
G1 X173.5 Y27.648 E188.03968
G1 X173.897 Y27.591 E188.05835
G1 X190.362 Y27.588 E188.82503
G1 X190.693 Y27.628 E188.84056
G1 X191.006 Y27.745 E188.85612
G1 X191.352 Y27.998 E188.87607
G1 X191.469 Y28.115 E188.88378
G1 X191.675 Y28.378 E188.89933
G1 X191.814 Y28.682 E188.9149
G1 X191.879 Y29.105 E188.93483
G1 X191.879 Y30.221 E188.98679
G1 X191.839 Y30.553 E189.00236
G1 X191.764 Y30.752 E189.01227
G1 X191.814 Y30.86 E189.01781
G1 X191.879 Y31.283 E189.03774
G1 X191.879 Y190.846 E196.46766
G1 X191.839 Y191.178 E196.48323
G1 X191.767 Y191.371 E196.49282
G1 X191.787 Y191.41 E196.49486
G1 X191.868 Y191.734 E196.51041
G1 X191.879 Y191.909 E196.51858
G1 X191.879 Y193.026 E196.57059
G1 X191.839 Y193.358 E196.58616
G1 X191.722 Y193.67 E196.60168
G1 X191.469 Y194.016 E196.62164
G1 X191.352 Y194.133 E196.62934
G1 X191.089 Y194.339 E196.6449
G1 X190.785 Y194.478 E196.66046
G1 X190.362 Y194.543 E196.68039
G1 X44.369 Y194.542 E203.47844
G1 X38.196 Y194.543 E203.76588
G1 X37.864 Y194.503 E203.78145
G1 X37.552 Y194.386 E203.79696
G1 X37.206 Y194.133 E203.81692
G1 X37.089 Y194.016 E203.82463
G1 X36.883 Y193.753 E203.84018
G1 X36.744 Y193.449 E203.85575
G1 X36.679 Y193.026 E203.87568
G1 X36.679 Y191.91 E203.92764
G1 X36.719 Y191.578 E203.94321
G1 X36.794 Y191.379 E203.95311
G1 X36.744 Y191.27 E203.9587
G1 X36.679 Y190.847 E203.97863
G1 X36.679 Y31.284 E211.40855
G1 X36.719 Y30.952 E211.42412
G1 X36.791 Y30.76 E211.43367
G1 X36.771 Y30.721 E211.43571
G1 X36.69 Y30.397 E211.45126
G1 X36.679 Y30.222 E211.45942
G1 X36.679 Y29.385 E211.4984
G1 X36.719 Y29.053 E211.51397
G1 X36.836 Y28.741 E211.52949
G0 F6000 X37.235 Y28.849
G1 F1200 X37.372 Y28.678 E211.53969
G1 X37.489 Y28.561 E211.54739
G1 X37.715 Y28.392 E211.56053
G1 X37.979 Y28.292 E211.57368
G1 X38.196 Y28.268 E211.58384
G1 X147.498 Y28.269 E216.6734
G1 X173.207 Y28.268 E217.87052
G1 X173.433 Y28.105 E217.8835
G1 X173.699 Y28.011 E217.89663
G1 X173.897 Y27.991 E217.9059
G1 X190.362 Y27.988 E218.67258
G1 X190.641 Y28.028 E218.6857
G1 X190.898 Y28.144 E218.69883
G1 X191.069 Y28.281 E218.70904
G1 X191.186 Y28.398 E218.71674
