;FLAVOR:Marlin
;TIME:6789
;Filament used: 5.76183m
;Layer height: 0.15
;Generated with Cura_SteamEngine 4.0.0
M140 S60
M105
M190 S60
M104 S200
M105
M109 S200
M82 ;absolute extrusion mode
; Ender 3 Custom Start G-code
G28 ; Home all axes
G92 E0 ; Reset Extruder
G1 Z2.0 F3000 ; Move Z Axis up little to prevent scratching of Heat Bed
G1 X0.1 Y20 Z0.3 F5000.0 ; Move to start position
G1 X0.1 Y200.0 Z0.3 F1500.0 E15 ; Draw the first line
G1 X0.4 Y200.0 Z0.3 F5000.0 ; Move to side a little
G1 X0.4 Y20 Z0.3 F1500.0 E30 ; Draw the second line
G92 E0 ; Reset Extruder
G1 Z2.0 F3000 ; Move Z Axis up little to prevent scratching of Heat Bed
; End of custom start GCode
G92 E0
G1 F2400 E-5
;LAYER_COUNT:100
;LAYER:0
M107
M204 S5000
M205 X30 Y30
G0 F3600 X108.543 Y107.047 Z0.2
M204 S500
M205 X20 Y20
;TYPE:SKIRT
G1 F2400 E0
G1 F1800 X109.17 Y106.529 E0.02705
G1 X109.542 Y106.253 E0.04246
G1 X110.2 Y105.815 E0.06875
G1 X110.898 Y105.446 E0.09501
G1 X111.63 Y105.149 E0.12128
G1 X111.97 Y105.05 E0.13306
G1 X112.111 Y104.958 E0.13866
G1 X112.813 Y104.596 E0.16493
G1 X113.548 Y104.307 E0.1912
G1 X114.344 Y104.085 E0.21868
G1 X114.799 Y103.984 E0.23418
G1 X115.577 Y103.852 E0.26043
G1 X116.365 Y103.8 E0.2867
G1 X117.154 Y103.827 E0.31295
G1 X117.489 Y103.873 E0.3242
G1 X117.623 Y103.851 E0.32872
G1 X118.411 Y103.802 E0.35498
G1 X119.2 Y103.832 E0.38124
G1 X120.101 Y103.966 E0.41154
G1 X120.556 Y104.061 E0.42699
G1 X121.32 Y104.261 E0.45326
G1 X122.06 Y104.538 E0.47954
G1 X122.768 Y104.887 E0.5058
G1 X123.031 Y105.052 E0.51612
G1 X123.256 Y105.114 E0.52388
G1 X123.992 Y105.4 E0.55015
G1 X124.695 Y105.758 E0.57639
G1 X125.332 Y106.167 E0.60156
G1 X125.708 Y106.435 E0.61692
G1 X126.327 Y106.926 E0.6432
G1 X126.894 Y107.476 E0.66947
G1 X126.965 Y107.561 E0.67316
G1 X130.641 Y102.415 E0.8835
G1 X135.596 Y94.098 E1.20549
G1 X139.855 Y85.383 E1.52812
G1 X143.372 Y76.369 E1.84994
G1 X146.138 Y67.079 E2.17233
G1 X148.127 Y57.591 E2.49476
G1 X149.323 Y47.995 E2.81639
G1 X149.734 Y38.101 E3.14575
G1 X149.806 Y37.314 E3.17204
G1 X149.958 Y36.539 E3.19831
G1 X150.187 Y35.784 E3.22455
G1 X150.492 Y35.055 E3.25083
G1 X150.869 Y34.361 E3.2771
G1 X151.314 Y33.709 E3.30335
G1 X151.822 Y33.105 E3.3296
G1 X152.134 Y32.788 E3.3444
G1 X152.25 Y32.677 E3.34974
G1 X152.848 Y32.161 E3.37601
G1 X153.494 Y31.708 E3.40225
G1 X154.184 Y31.322 E3.42855
G1 X154.908 Y31.008 E3.45479
G1 X155.661 Y30.769 E3.48107
G1 X156.434 Y30.607 E3.50734
G1 X157.219 Y30.525 E3.53359
G1 X157.643 Y30.513 E3.5477
G1 X169.888 Y30.513 E3.95497
G1 X170.677 Y30.553 E3.98124
G1 X171.457 Y30.672 E4.00749
G1 X171.971 Y30.805 E4.02515
G1 X172.335 Y30.703 E4.03772
G1 X173.113 Y30.569 E4.06398
G1 X174.051 Y30.513 E4.09523
G1 X186.292 Y30.517 E4.50237
G1 X187.08 Y30.557 E4.52861
G1 X187.861 Y30.677 E4.55489
G1 X188.625 Y30.875 E4.58114
G1 X189.366 Y31.149 E4.60742
G1 X190.075 Y31.497 E4.63369
G1 X190.478 Y31.748 E4.64948
G1 X190.494 Y31.754 E4.65005
G1 X191.225 Y32.053 E4.67631
G1 X191.922 Y32.425 E4.70259
G1 X192.577 Y32.865 E4.72884
G1 X193.185 Y33.368 E4.75508
G1 X193.739 Y33.931 E4.78135
G1 X194.4 Y34.787 E4.81732
G1 X194.468 Y34.889 E4.8214
G1 X194.872 Y35.568 E4.84768
G1 X195.206 Y36.284 E4.87396
G1 X195.465 Y37.029 E4.90019
G1 X195.648 Y37.798 E4.92648
G1 X195.752 Y38.58 E4.95272
G1 X195.778 Y39.255 E4.97519
G1 X195.776 Y39.66 E4.98866
G1 X195.732 Y40.448 E5.01491
G1 X195.7 Y40.649 E5.02168
G1 X195.735 Y40.965 E5.03225
G1 X195.747 Y41.579 E5.05268
G1 X195.739 Y41.985 E5.06618
G1 X195.684 Y42.772 E5.09242
G1 X195.651 Y42.965 E5.09894
G1 X195.68 Y43.261 E5.10883
G1 X195.685 Y43.885 E5.12958
G1 X195.672 Y44.289 E5.14303
G1 X195.607 Y45.076 E5.16929
G1 X195.569 Y45.28 E5.17619
G1 X195.591 Y45.522 E5.18428
G1 X195.589 Y46.207 E5.20706
G1 X195.57 Y46.612 E5.22055
G1 X195.494 Y47.397 E5.24678
G1 X195.454 Y47.596 E5.25353
G1 X195.469 Y47.77 E5.25934
G1 X195.46 Y48.507 E5.28385
G1 X195.436 Y48.912 E5.29734
G1 X195.35 Y49.697 E5.32361
G1 X195.305 Y49.904 E5.33066
G1 X195.32 Y50.12 E5.33786
G1 X195.298 Y50.848 E5.36208
G1 X195.267 Y51.252 E5.37556
G1 X195.167 Y52.035 E5.40181
G1 X195.123 Y52.223 E5.40823
G1 X195.136 Y52.535 E5.41862
G1 X195.103 Y53.17 E5.43977
G1 X195.066 Y53.572 E5.4532
G1 X194.954 Y54.354 E5.47947
G1 X194.909 Y54.536 E5.48571
G1 X194.917 Y54.816 E5.49502
G1 X194.875 Y55.484 E5.51729
G1 X194.832 Y55.886 E5.53073
G1 X194.708 Y56.666 E5.557
G1 X194.663 Y56.837 E5.56288
G1 X194.667 Y57.126 E5.57249
G1 X194.613 Y57.807 E5.59522
G1 X194.563 Y58.211 E5.60876
G1 X194.426 Y58.989 E5.63503
G1 X194.384 Y59.138 E5.64018
G1 X194.384 Y59.432 E5.64996
G1 X194.319 Y60.122 E5.67301
G1 X194.263 Y60.523 E5.68648
G1 X194.114 Y61.298 E5.71272
G1 X194.072 Y61.44 E5.71765
G1 X194.071 Y61.647 E5.72453
G1 X193.995 Y62.389 E5.74934
G1 X193.935 Y62.788 E5.76276
G1 X193.778 Y63.562 E5.78903
G1 X193.727 Y63.727 E5.79477
G1 X193.723 Y63.948 E5.80213
G1 X193.636 Y64.685 E5.82681
G1 X193.57 Y65.084 E5.84026
G1 X193.402 Y65.856 E5.86654
G1 X193.348 Y66.021 E5.87231
G1 X193.339 Y66.27 E5.8806
G1 X193.246 Y66.967 E5.90399
G1 X193.174 Y67.368 E5.91754
G1 X192.996 Y68.138 E5.94382
G1 X192.938 Y68.307 E5.94977
G1 X192.925 Y68.56 E5.95819
G1 X192.822 Y69.254 E5.98153
G1 X192.744 Y69.654 E5.99508
G1 X192.554 Y70.42 E6.02133
G1 X192.494 Y70.587 E6.02723
G1 X192.474 Y70.876 E6.03687
G1 X192.365 Y71.531 E6.05895
G1 X192.282 Y71.927 E6.07241
G1 X192.081 Y72.691 E6.09869
G1 X192.022 Y72.847 E6.10423
G1 X192.008 Y73.046 E6.11087
G1 X191.877 Y73.8 E6.13632
G1 X191.788 Y74.196 E6.14982
G1 X191.576 Y74.957 E6.1761
G1 X191.515 Y75.112 E6.18164
G1 X191.499 Y75.304 E6.18804
G1 X191.356 Y76.063 E6.21373
G1 X191.262 Y76.455 E6.22714
G1 X191.039 Y77.212 E6.25339
G1 X190.975 Y77.37 E6.25906
G1 X190.947 Y77.626 E6.26762
G1 X190.808 Y78.301 E6.29055
G1 X190.709 Y78.693 E6.30399
G1 X190.477 Y79.448 E6.33026
G1 X190.403 Y79.624 E6.33661
G1 X190.367 Y79.903 E6.34597
G1 X190.221 Y80.558 E6.36829
G1 X190.116 Y80.948 E6.38172
G1 X189.872 Y81.699 E6.40799
G1 X189.798 Y81.867 E6.41409
G1 X189.747 Y82.208 E6.42556
G1 X189.61 Y82.775 E6.44496
G1 X189.501 Y83.162 E6.45833
G1 X189.249 Y83.91 E6.48459
G1 X189.162 Y84.101 E6.49157
G1 X189.116 Y84.391 E6.50133
G1 X188.957 Y85.015 E6.52275
G1 X188.841 Y85.403 E6.53622
G1 X188.577 Y86.147 E6.56248
G1 X188.497 Y86.316 E6.5687
G1 X188.452 Y86.581 E6.57764
G1 X188.285 Y87.209 E6.59925
G1 X188.165 Y87.595 E6.61269
G1 X187.893 Y88.336 E6.63895
G1 X187.797 Y88.533 E6.64624
G1 X187.741 Y88.829 E6.65626
G1 X187.573 Y89.422 E6.67676
G1 X187.447 Y89.807 E6.69023
G1 X187.164 Y90.544 E6.71649
G1 X187.07 Y90.73 E6.72342
G1 X186.993 Y91.091 E6.7357
G1 X186.822 Y91.649 E6.75511
G1 X186.689 Y92.032 E6.76859
G1 X186.393 Y92.764 E6.79485
G1 X186.309 Y92.924 E6.80086
G1 X186.244 Y93.22 E6.81094
G1 X186.051 Y93.83 E6.83222
G1 X185.913 Y94.211 E6.8457
G1 X185.607 Y94.939 E6.87197
G1 X185.518 Y95.102 E6.87814
G1 X185.465 Y95.337 E6.88616
G1 X185.245 Y96.009 E6.90967
G1 X185.101 Y96.389 E6.92319
G1 X184.784 Y97.112 E6.94945
G1 X184.694 Y97.271 E6.95552
G1 X184.631 Y97.531 E6.96442
G1 X184.407 Y98.181 E6.98729
G1 X184.259 Y98.555 E7.00067
G1 X183.931 Y99.274 E7.02695
G1 X183.844 Y99.423 E7.03269
G1 X183.787 Y99.649 E7.04044
G1 X183.543 Y100.328 E7.06444
G1 X183.389 Y100.702 E7.07789
G1 X183.052 Y101.416 E7.10415
G1 X182.96 Y101.569 E7.11009
G1 X182.896 Y101.805 E7.11822
G1 X182.636 Y102.494 E7.14272
G1 X182.476 Y102.864 E7.15612
G1 X182.127 Y103.572 E7.18238
G1 X182.045 Y103.702 E7.18749
G1 X181.978 Y103.936 E7.19559
G1 X181.725 Y104.584 E7.21872
G1 X181.561 Y104.954 E7.23218
G1 X181.205 Y105.659 E7.25845
G1 X181.097 Y105.828 E7.26512
G1 X181.011 Y106.107 E7.27483
G1 X180.771 Y106.691 E7.29583
G1 X180.603 Y107.057 E7.30923
G1 X180.238 Y107.757 E7.33548
G1 X180.121 Y107.934 E7.34254
G1 X180.039 Y108.191 E7.35151
G1 X179.775 Y108.807 E7.3738
G1 X179.6 Y109.172 E7.38727
G1 X179.223 Y109.866 E7.41354
G1 X179.12 Y110.017 E7.41962
G1 X179.026 Y110.295 E7.42938
G1 X178.747 Y110.919 E7.45211
G1 X178.566 Y111.28 E7.46554
G1 X178.176 Y111.967 E7.49182
G1 X178.085 Y112.096 E7.49707
G1 X178.006 Y112.323 E7.50506
G1 X177.715 Y112.958 E7.52829
G1 X177.53 Y113.318 E7.54176
G1 X177.134 Y114.001 E7.56801
G1 X177.019 Y114.16 E7.57454
G1 X176.885 Y114.509 E7.58698
G1 X176.645 Y115.003 E7.60524
G1 X176.457 Y115.358 E7.6186
G1 X176.053 Y116.037 E7.64488
G1 X175.926 Y116.207 E7.65194
G1 X175.833 Y116.451 E7.66062
G1 X175.532 Y117.058 E7.68316
G1 X175.337 Y117.412 E7.6966
G1 X174.921 Y118.084 E7.72289
G1 X174.81 Y118.229 E7.72896
G1 X174.726 Y118.442 E7.73658
G1 X174.385 Y119.108 E7.76146
G1 X174.184 Y119.458 E7.77489
G1 X173.757 Y120.122 E7.80114
G1 X173.655 Y120.25 E7.80659
G1 X173.537 Y120.53 E7.81669
G1 X173.225 Y121.113 E7.83869
G1 X173.02 Y121.459 E7.85206
G1 X172.583 Y122.117 E7.87834
G1 X172.48 Y122.243 E7.88375
G1 X172.38 Y122.475 E7.89215
G1 X172.051 Y123.075 E7.91491
G1 X171.84 Y123.423 E7.92845
G1 X171.397 Y124.077 E7.95472
G1 X171.27 Y124.228 E7.96128
G1 X171.161 Y124.471 E7.97014
G1 X170.826 Y125.061 E7.99271
G1 X170.61 Y125.405 E8.00622
G1 X170.156 Y126.051 E8.03248
G1 X170.035 Y126.191 E8.03863
G1 X169.915 Y126.447 E8.04804
G1 X169.584 Y127.008 E8.0697
G1 X169.363 Y127.35 E8.08324
G1 X168.902 Y127.991 E8.1095
G1 X168.77 Y128.14 E8.11612
G1 X168.64 Y128.405 E8.12594
G1 X168.297 Y128.966 E8.14781
G1 X168.071 Y129.303 E8.16131
G1 X167.599 Y129.936 E8.18757
G1 X167.481 Y130.065 E8.19339
G1 X167.337 Y130.347 E8.20392
G1 X167.002 Y130.878 E8.2248
G1 X166.774 Y131.209 E8.23817
G1 X166.293 Y131.836 E8.26445
G1 X166.164 Y131.973 E8.27071
G1 X166.04 Y132.211 E8.27964
G1 X165.66 Y132.798 E8.30289
G1 X165.425 Y133.127 E8.31634
G1 X164.934 Y133.745 E8.34259
G1 X164.819 Y133.864 E8.3481
G1 X164.684 Y134.112 E8.35749
G1 X164.312 Y134.669 E8.37977
G1 X164.073 Y134.995 E8.39321
G1 X163.574 Y135.607 E8.41947
G1 X163.448 Y135.733 E8.4254
G1 X163.333 Y135.942 E8.43334
G1 X162.921 Y136.542 E8.45754
G1 X162.677 Y136.864 E8.47098
G1 X162.169 Y137.468 E8.49723
G1 X162.051 Y137.582 E8.50269
G1 X161.924 Y137.804 E8.51119
G1 X161.519 Y138.376 E8.5345
G1 X161.27 Y138.696 E8.54799
G1 X160.754 Y139.294 E8.57426
G1 X160.624 Y139.417 E8.58021
G1 X160.487 Y139.647 E8.58912
G1 X160.101 Y140.177 E8.61092
G1 X159.849 Y140.494 E8.62439
G1 X159.327 Y141.086 E8.65065
G1 X159.174 Y141.227 E8.65757
G1 X159.019 Y141.478 E8.66738
G1 X158.635 Y141.988 E8.68861
G1 X158.379 Y142.3 E8.70203
G1 X157.848 Y142.884 E8.72829
G1 X157.696 Y143.02 E8.73507
G1 X157.534 Y143.273 E8.74506
G1 X157.138 Y143.781 E8.76649
G1 X156.876 Y144.09 E8.77996
G1 X156.336 Y144.666 E8.80622
G1 X156.199 Y144.785 E8.81226
G1 X156.062 Y144.995 E8.8206
G1 X155.638 Y145.528 E8.84325
G1 X155.374 Y145.832 E8.85664
G1 X154.827 Y146.402 E8.88292
G1 X154.674 Y146.532 E8.88959
G1 X154.531 Y146.744 E8.8981
G1 X154.075 Y147.298 E8.92196
G1 X153.804 Y147.598 E8.93541
G1 X153.246 Y148.156 E8.96166
G1 X153.119 Y148.26 E8.96712
G1 X152.944 Y148.508 E8.97721
G1 X152.531 Y148.994 E8.99842
G1 X152.256 Y149.292 E9.01191
G1 X151.692 Y149.844 E9.03816
G1 X151.548 Y149.959 E9.04429
G1 X151.409 Y150.154 E9.05225
G1 X150.948 Y150.686 E9.07567
G1 X150.67 Y150.979 E9.0891
G1 X150.099 Y151.523 E9.11533
G1 X149.95 Y151.639 E9.12161
G1 X149.798 Y151.845 E9.13013
G1 X149.33 Y152.368 E9.15347
G1 X149.049 Y152.655 E9.16683
G1 X148.469 Y153.19 E9.19307
G1 X148.322 Y153.301 E9.1992
G1 X148.14 Y153.538 E9.20914
G1 X147.687 Y154.026 E9.23128
G1 X147.402 Y154.308 E9.24462
G1 X146.813 Y154.834 E9.27088
G1 X146.682 Y154.929 E9.27627
G1 X146.508 Y155.151 E9.28565
G1 X146.024 Y155.659 E9.30899
G1 X145.732 Y155.939 E9.32244
G1 X145.135 Y156.456 E9.34871
G1 X145.007 Y156.546 E9.35391
G1 X144.86 Y156.729 E9.36172
G1 X144.367 Y157.236 E9.38524
G1 X144.07 Y157.515 E9.39879
G1 X143.468 Y158.026 E9.42506
G1 X143.317 Y158.13 E9.43115
G1 X143.137 Y158.346 E9.44051
G1 X142.675 Y158.806 E9.46219
G1 X142.377 Y159.079 E9.47563
G1 X141.768 Y159.583 E9.50192
G1 X141.606 Y159.691 E9.5084
G1 X141.454 Y159.871 E9.51624
G1 X140.922 Y160.387 E9.54089
G1 X140.619 Y160.654 E9.55432
G1 X140.001 Y161.146 E9.58059
G1 X139.873 Y161.228 E9.58565
G1 X139.75 Y161.371 E9.59192
G1 X139.181 Y161.911 E9.61801
G1 X138.872 Y162.176 E9.63155
G1 X138.247 Y162.659 E9.65782
G1 X138.11 Y162.744 E9.66319
G1 X137.958 Y162.914 E9.67077
G1 X137.425 Y163.404 E9.69485
G1 X137.113 Y163.665 E9.70838
G1 X136.482 Y164.14 E9.73465
G1 X136.327 Y164.234 E9.74068
G1 X136.122 Y164.452 E9.75063
G1 X135.623 Y164.893 E9.77278
G1 X135.308 Y165.148 E9.78626
G1 X134.67 Y165.613 E9.81252
G1 X134.532 Y165.693 E9.81782
G1 X134.356 Y165.878 E9.82632
G1 X133.792 Y166.363 E9.85106
G1 X133.473 Y166.612 E9.86452
G1 X132.827 Y167.065 E9.89076
G1 X132.712 Y167.13 E9.89515
G1 X132.569 Y167.277 E9.90197
G1 X132.007 Y167.754 E9.92649
G1 X131.686 Y168.001 E9.93996
G1 X131.036 Y168.45 E9.96624
G1 X130.876 Y168.538 E9.97231
G1 X130.72 Y168.694 E9.97965
G1 X130.136 Y169.172 E10.00475
G1 X129.811 Y169.413 E10.01821
G1 X129.154 Y169.851 E10.04447
G1 X129.007 Y169.928 E10.04999
G1 X128.85 Y170.081 E10.05728
G1 X128.273 Y170.541 E10.08182
G1 X127.946 Y170.777 E10.09524
G1 X127.283 Y171.206 E10.1215
G1 X127.123 Y171.288 E10.12748
G1 X126.916 Y171.48 E10.13687
G1 X126.368 Y171.899 E10.15982
G1 X126.038 Y172.129 E10.1732
G1 X125.368 Y172.547 E10.19946
G1 X125.224 Y172.618 E10.2048
G1 X125.029 Y172.795 E10.21356
G1 X124.467 Y173.213 E10.23686
G1 X124.132 Y173.44 E10.25031
G1 X123.457 Y173.85 E10.27658
G1 X123.305 Y173.922 E10.28218
G1 X123.084 Y174.115 E10.29193
G1 X122.567 Y174.489 E10.31316
G1 X122.229 Y174.713 E10.32664
G1 X121.549 Y175.115 E10.35292
G1 X121.374 Y175.196 E10.35933
G1 X121.16 Y175.379 E10.3687
G1 X120.586 Y175.78 E10.39199
G1 X120.244 Y175.997 E10.40546
G1 X119.557 Y176.386 E10.43172
G1 X119.415 Y176.448 E10.43687
G1 X119.203 Y176.624 E10.44603
G1 X118.622 Y177.019 E10.4694
G1 X118.277 Y177.231 E10.48287
G1 X117.584 Y177.609 E10.50912
G1 X117.45 Y177.665 E10.51395
G1 X117.318 Y177.775 E10.51967
G1 X116.669 Y178.211 E10.54567
G1 X116.321 Y178.42 E10.55918
G1 X115.624 Y178.792 E10.58545
G1 X115.446 Y178.865 E10.59185
G1 X115.204 Y179.052 E10.60202
G1 X114.701 Y179.374 E10.62189
G1 X114.354 Y179.578 E10.63528
G1 X113.654 Y179.943 E10.66153
G1 X113.446 Y180.026 E10.66898
G1 X113.241 Y180.182 E10.67755
G1 X112.671 Y180.538 E10.6999
G1 X112.319 Y180.737 E10.71335
G1 X111.612 Y181.09 E10.73963
G1 X111.425 Y181.161 E10.74629
G1 X111.214 Y181.317 E10.75501
G1 X110.609 Y181.681 E10.7785
G1 X110.254 Y181.873 E10.79192
G1 X109.541 Y182.213 E10.81819
G1 X109.388 Y182.268 E10.8236
G1 X109.17 Y182.424 E10.83252
G1 X108.554 Y182.782 E10.85621
G1 X108.195 Y182.969 E10.86968
G1 X107.477 Y183.298 E10.89595
G1 X107.331 Y183.348 E10.90108
G1 X107.135 Y183.485 E10.90903
G1 X106.539 Y183.823 E10.93182
G1 X106.179 Y184.007 E10.94527
G1 X105.458 Y184.331 E10.97156
G1 X105.254 Y184.399 E10.97871
G1 X104.981 Y184.579 E10.98959
G1 X104.454 Y184.864 E11.00951
G1 X104.09 Y185.043 E11.02301
G1 X103.365 Y185.356 E11.04927
G1 X103.179 Y185.415 E11.05576
G1 X102.922 Y185.581 E11.06594
G1 X102.313 Y185.898 E11.08877
G1 X101.948 Y186.068 E11.10216
G1 X101.216 Y186.364 E11.12843
G1 X101.082 Y186.403 E11.13307
G1 X100.835 Y186.559 E11.14278
G1 X100.222 Y186.869 E11.16563
G1 X99.856 Y187.034 E11.17898
G1 X99.12 Y187.321 E11.20526
G1 X98.977 Y187.361 E11.2102
G1 X98.791 Y187.477 E11.21749
G1 X98.112 Y187.812 E11.24267
G1 X97.742 Y187.973 E11.25609
G1 X97.003 Y188.251 E11.28235
G1 X96.842 Y188.294 E11.2879
G1 X96.607 Y188.433 E11.29698
G1 X95.976 Y188.731 E11.32019
G1 X95.605 Y188.886 E11.33356
G1 X94.862 Y189.153 E11.35982
G1 X94.71 Y189.191 E11.36503
G1 X94.506 Y189.31 E11.37289
G1 X93.826 Y189.62 E11.39774
G1 X93.451 Y189.77 E11.41118
G1 X92.704 Y190.026 E11.43744
G1 X92.544 Y190.063 E11.4429
G1 X92.274 Y190.211 E11.45314
G1 X91.706 Y190.459 E11.47376
G1 X91.326 Y190.607 E11.48732
G1 X90.576 Y190.856 E11.5136
G1 X90.393 Y190.897 E11.51984
G1 X90.195 Y191.005 E11.52734
G1 X89.511 Y191.295 E11.55205
G1 X89.129 Y191.436 E11.5656
G1 X88.375 Y191.672 E11.59187
G1 X88.228 Y191.702 E11.59686
G1 X88.072 Y191.786 E11.60276
