;FLAVOR:Marlin
;TIME:11607
;Filament used: 12.0045m
;Layer height: 0.2
;MINX:95.22
;MINY:65.22
;MINZ:0.2
;MAXX:124.78
;MAXY:154.78
;MAXZ:35.4
;Generated with Cura_SteamEngine 4.2.1
M140 S50
M105
M190 S50
M104 S190
M105
M109 S190
M82 ;absolute extrusion mode
M201 X500.00 Y500.00 Z100.00 E5000.00 ;Setup machine max acceleration
M203 X500.00 Y500.00 Z10.00 E50.00 ;Setup machine max feedrate
M204 P500.00 R1000.00 T500.00 ;Setup Print/Retract/Travel acceleration
M205 X8.00 Y8.00 Z0.40 E5.00 ;Setup Jerk
M220 S100 ;Reset Feedrate
M221 S100 ;Reset Flowrate

G28 ;Home

G92 E0 ;Reset Extruder
G1 Z2.0 F3000 ;Move Z Axis up
G1 X10.1 Y20 Z0.28 F5000.0 ;Move to start position
G1 X10.1 Y200.0 Z0.28 F1500.0 E15 ;Draw the first line
G1 X10.4 Y200.0 Z0.28 F5000.0 ;Move to side a little
G1 X10.4 Y20 Z0.28 F1500.0 E30 ;Draw the second line
G92 E0 ;Reset Extruder
G1 Z2.0 F3000 ;Move Z Axis up

M141 S28
G92 E0
G92 E0
G1 F2700 E-5
;LAYER_COUNT:175
;LAYER:0
M107
;MESH:motor mount.stl
G0 F6000 X124.78 Y154.78 Z0.2
;TYPE:WALL-OUTER
G1 F2700 E0
G1 F1200 X95.22 Y154.78 E1.08149
G1 X95.22 Y65.22 E4.35814
G1 X124.768 Y65.22 E5.43919
G1 X124.78 Y65.612 E5.45354
G1 X124.78 Y154.78 E8.71585
G1 F2700 E3.71585
G1 F600 Z0.6
G0 F6000 X95.66 Y154.34 Z0.6
;TYPE:WALL-INNER
G1 F600 Z0.2
G1 F2700 E8.71585
G1 F1200 X95.66 Y65.66 E11.96031
G1 X124.34 Y65.66 E13.0096
G1 X124.34 Y154.34 E16.25406
G1 X95.66 Y154.34 E17.30335
G0 F6000 X96.1 Y153.9
G1 F1200 X96.1 Y66.1 E20.51562
G1 X123.9 Y66.1 E21.53271
G1 X123.9 Y153.9 E24.74498
G1 X96.1 Y153.9 E25.76207
G0 F6000 X96.53 Y153.47
;TYPE:SKIN
G1 F1200 X96.53 Y66.53 E28.94287
G1 X123.47 Y66.53 E29.9285
G1 X123.47 Y153.47 E33.1093
G1 X96.53 Y153.47 E34.09493
G0 F6000 X97.29 Y153.292
G1 F1200 X96.705 Y152.708 E34.12517
G0 F6000 X96.705 Y152.085
G1 F1200 X97.912 Y153.292 E34.18762
G0 F6000 X98.534 Y153.292
G1 F1200 X96.705 Y151.463 E34.28226
G0 F6000 X96.705 Y150.841
G1 F1200 X99.156 Y153.292 E34.40907
G0 F6000 X99.779 Y153.292
G1 F1200 X96.705 Y150.219 E34.5681
G0 F6000 X96.705 Y149.596
G1 F1200 X100.401 Y153.292 E34.75933
G0 F6000 X101.023 Y153.292
G1 F1200 X96.705 Y148.974 E34.98275
G0 F6000 X96.705 Y148.352
G1 F1200 X101.645 Y153.292 E35.23835
G0 F6000 X102.268 Y153.292
G1 F1200 X96.705 Y147.73 E35.52615
G0 F6000 X96.705 Y147.107
G1 F1200 X102.89 Y153.292 E35.84617
G0 F6000 X103.512 Y153.292
G1 F1200 X96.705 Y146.485 E36.19837
G0 F6000 X96.705 Y145.863
G1 F1200 X104.134 Y153.292 E36.58275
G0 F6000 X104.757 Y153.292
G1 F1200 X96.705 Y145.241 E36.99934
G0 F6000 X96.705 Y144.618
G1 F1200 X105.379 Y153.292 E37.44814
G0 F6000 X106.001 Y153.292
G1 F1200 X96.705 Y143.996 E37.92912
G0 F6000 X96.705 Y143.374
G1 F1200 X106.623 Y153.292 E38.44228
G0 F6000 X107.246 Y153.292
G1 F1200 X96.705 Y142.752 E38.98765
G0 F6000 X96.705 Y142.129
G1 F1200 X107.868 Y153.292 E39.56523
G0 F6000 X108.49 Y153.292
G1 F1200 X96.705 Y141.507 E40.175
G0 F6000 X96.705 Y140.885
G1 F1200 X109.112 Y153.292 E40.81694
G0 F6000 X109.735 Y153.292
G1 F1200 X96.705 Y140.263 E41.4911
G0 F6000 X96.705 Y139.64
G1 F1200 X110.357 Y153.292 E42.19746
G0 F6000 X110.979 Y153.292
G1 F1200 X96.705 Y139.018 E42.93601
G0 F6000 X96.705 Y138.396
G1 F1200 X111.601 Y153.292 E43.70674
G0 F6000 X112.224 Y153.292
G1 F1200 X96.705 Y137.774 E44.50967
G0 F6000 X96.705 Y137.151
G1 F1200 X112.846 Y153.292 E45.34482
G0 F6000 X113.468 Y153.292
G1 F1200 X96.705 Y136.529 E46.21215
G0 F6000 X96.705 Y135.907
G1 F1200 X114.09 Y153.292 E47.11166
G0 F6000 X114.713 Y153.292
G1 F1200 X96.705 Y135.285 E48.04338
G0 F6000 X96.705 Y134.662
G1 F1200 X115.335 Y153.292 E49.0073
G0 F6000 X115.957 Y153.292
G1 F1200 X96.705 Y134.04 E50.00342
G0 F6000 X96.705 Y133.418
G1 F1200 X116.579 Y153.292 E51.03171
G0 F6000 X117.202 Y153.292
G1 F1200 X96.705 Y132.796 E52.09221
G0 F6000 X96.705 Y132.173
G1 F1200 X117.824 Y153.292 E53.18492
G0 F6000 X118.446 Y153.292
G1 F1200 X96.705 Y131.551 E54.30981
G0 F6000 X96.705 Y130.929
G1 F1200 X119.069 Y153.292 E55.46691
G0 F6000 X119.691 Y153.292
G1 F1200 X96.705 Y130.307 E56.6562
G0 F6000 X96.705 Y129.684
G1 F1200 X120.313 Y153.292 E57.87769
G0 F6000 X120.935 Y153.292
G1 F1200 X96.705 Y129.062 E59.13137
G0 F6000 X96.705 Y128.44
G1 F1200 X121.558 Y153.292 E60.41725
G0 F6000 X122.18 Y153.292
G1 F1200 X96.705 Y127.818 E61.73532
G0 F6000 X96.705 Y127.195
G1 F1200 X122.802 Y153.292 E63.08559
G0 F6000 X123.293 Y153.162
G1 F1200 X96.705 Y126.573 E64.4613
G0 F6000 X96.705 Y125.951
G1 F1200 X123.293 Y152.539 E65.83698
G0 F6000 X123.293 Y151.917
G1 F1200 X96.705 Y125.329 E67.21266
G0 F6000 X96.705 Y124.706
G1 F1200 X123.293 Y151.295 E68.58836
G0 F6000 X123.293 Y150.673
G1 F1200 X96.705 Y124.084 E69.96407
G0 F6000 X96.705 Y123.462
G1 F1200 X123.293 Y150.05 E71.33975
G0 F6000 X123.293 Y149.428
G1 F1200 X96.705 Y122.84 E72.71543
G0 F6000 X96.705 Y122.217
G1 F1200 X123.293 Y148.806 E74.09113
G0 F6000 X123.293 Y148.184
G1 F1200 X96.705 Y121.595 E75.46684
G0 F6000 X96.705 Y120.973
G1 F1200 X123.293 Y147.561 E76.84252
G0 F6000 X123.293 Y146.939
G1 F1200 X96.705 Y120.35 E78.21823
G0 F6000 X96.705 Y119.728
G1 F1200 X123.293 Y146.317 E79.59393
G0 F6000 X123.293 Y145.695
G1 F1200 X96.705 Y119.106 E80.96964
G0 F6000 X96.705 Y118.484
G1 F1200 X123.293 Y145.072 E82.34532
G0 F6000 X123.293 Y144.45
G1 F1200 X96.705 Y117.861 E83.72102
G0 F6000 X96.705 Y117.239
G1 F1200 X123.293 Y143.828 E85.09673
G0 F6000 X123.293 Y143.206
G1 F1200 X96.705 Y116.617 E86.47243
G0 F6000 X96.705 Y115.995
G1 F1200 X123.293 Y142.583 E87.84811
G0 F6000 X123.293 Y141.961
G1 F1200 X96.705 Y115.372 E89.22382
G0 F6000 X96.705 Y114.75
G1 F1200 X123.293 Y141.339 E90.59953
G0 F6000 X123.293 Y140.717
G1 F1200 X96.705 Y114.128 E91.97523
G0 F6000 X96.705 Y113.506
G1 F1200 X123.293 Y140.094 E93.35091
G0 F6000 X123.293 Y139.472
G1 F1200 X96.705 Y112.883 E94.72662
G0 F6000 X96.705 Y112.261
G1 F1200 X123.293 Y138.85 E96.10232
G0 F6000 X123.293 Y138.228
G1 F1200 X96.705 Y111.639 E97.47803
G0 F6000 X96.705 Y111.017
G1 F1200 X123.293 Y137.605 E98.85371
G0 F6000 X123.293 Y136.983
G1 F1200 X96.705 Y110.394 E100.22941
G0 F6000 X96.705 Y109.772
G1 F1200 X123.293 Y136.361 E101.60512
G0 F6000 X123.293 Y135.739
G1 F1200 X96.705 Y109.15 E102.98082
G0 F6000 X96.705 Y108.528
G1 F1200 X123.293 Y135.116 E104.3565
G0 F6000 X123.293 Y134.494
G1 F1200 X96.705 Y107.905 E105.73221
G0 F6000 X96.705 Y107.283
G1 F1200 X123.293 Y133.872 E107.10792
G0 F6000 X123.293 Y133.25
G1 F1200 X96.705 Y106.661 E108.48362
G0 F6000 X96.705 Y106.039
G1 F1200 X123.293 Y132.627 E109.8593
G0 F6000 X123.293 Y132.005
G1 F1200 X96.705 Y105.416 E111.23501
G0 F6000 X96.705 Y104.794
G1 F1200 X123.293 Y131.383 E112.61071
G0 F6000 X123.293 Y130.761
G1 F1200 X96.705 Y104.172 E113.98642
G0 F6000 X96.705 Y103.55
G1 F1200 X123.293 Y130.138 E115.3621
G0 F6000 X123.293 Y129.516
G1 F1200 X96.705 Y102.927 E116.7378
G0 F6000 X96.705 Y102.305
G1 F1200 X123.293 Y128.894 E118.11351
G0 F6000 X123.293 Y128.271
G1 F1200 X96.705 Y101.683 E119.48919
G0 F6000 X96.705 Y101.061
G1 F1200 X123.293 Y127.649 E120.86487
G0 F6000 X123.293 Y127.027
G1 F1200 X96.705 Y100.438 E122.24057
G0 F6000 X96.705 Y99.816
G1 F1200 X123.293 Y126.405 E123.61628
G0 F6000 X123.293 Y125.782
G1 F1200 X96.705 Y99.194 E124.99196
G0 F6000 X96.705 Y98.572
G1 F1200 X123.293 Y125.16 E126.36764
G0 F6000 X123.293 Y124.538
G1 F1200 X96.705 Y97.949 E127.74335
G0 F6000 X96.705 Y97.327
G1 F1200 X123.293 Y123.916 E129.11905
G0 F6000 X123.293 Y123.293
G1 F1200 X96.705 Y96.705 E130.49473
G0 F6000 X96.705 Y96.083
G1 F1200 X123.293 Y122.671 E131.87041
G0 F6000 X123.293 Y122.049
G1 F1200 X96.705 Y95.46 E133.24612
G0 F6000 X96.705 Y94.838
G1 F1200 X123.293 Y121.427 E134.62182
G0 F6000 X123.293 Y120.804
G1 F1200 X96.705 Y94.216 E135.9975
G0 F6000 X96.705 Y93.594
G1 F1200 X123.293 Y120.182 E137.37318
G0 F6000 X123.293 Y119.56
G1 F1200 X96.705 Y92.971 E138.74889
G0 F6000 X96.705 Y92.349
G1 F1200 X123.293 Y118.938 E140.12459
G0 F6000 X123.293 Y118.315
G1 F1200 X96.705 Y91.727 E141.50027
G0 F6000 X96.705 Y91.105
G1 F1200 X123.293 Y117.693 E142.87595
G0 F6000 X123.293 Y117.071
G1 F1200 X96.705 Y90.482 E144.25166
G0 F6000 X96.705 Y89.86
G1 F1200 X123.293 Y116.449 E145.62736
G0 F6000 X123.293 Y115.826
G1 F1200 X96.705 Y89.238 E147.00304
G0 F6000 X96.705 Y88.616
G1 F1200 X123.293 Y115.204 E148.37872
G0 F6000 X123.293 Y114.582
G1 F1200 X96.705 Y87.993 E149.75443
G0 F6000 X96.705 Y87.371
G1 F1200 X123.293 Y113.96 E151.13014
G0 F6000 X123.293 Y113.337
G1 F1200 X96.705 Y86.749 E152.50581
G0 F6000 X96.705 Y86.127
G1 F1200 X123.293 Y112.715 E153.88149
G0 F6000 X123.293 Y112.093
G1 F1200 X96.705 Y85.504 E155.2572
G0 F6000 X96.705 Y84.882
G1 F1200 X123.293 Y111.471 E156.63291
G0 F6000 X123.293 Y110.848
G1 F1200 X96.705 Y84.26 E158.00859
G0 F6000 X96.705 Y83.638
G1 F1200 X123.293 Y110.226 E159.38427
G0 F6000 X123.293 Y109.604
G1 F1200 X96.705 Y83.015 E160.75997
G0 F6000 X96.705 Y82.393
G1 F1200 X123.293 Y108.982 E162.13568
G0 F6000 X123.293 Y108.359
G1 F1200 X96.705 Y81.771 E163.51136
G0 F6000 X96.705 Y81.148
G1 F1200 X123.293 Y107.737 E164.88706
G0 F6000 X123.293 Y107.115
G1 F1200 X96.705 Y80.526 E166.26277
G0 F6000 X96.705 Y79.904
G1 F1200 X123.293 Y106.493 E167.63847
G0 F6000 X123.293 Y105.87
G1 F1200 X96.705 Y79.282 E169.01415
G0 F6000 X96.705 Y78.659
G1 F1200 X123.293 Y105.248 E170.38986
G0 F6000 X123.293 Y104.626
G1 F1200 X96.705 Y78.037 E171.76557
G0 F6000 X96.705 Y77.415
G1 F1200 X123.293 Y104.004 E173.14127
G0 F6000 X123.293 Y103.381
G1 F1200 X96.705 Y76.793 E174.51695
G0 F6000 X96.705 Y76.17
G1 F1200 X123.293 Y102.759 E175.89266
G0 F6000 X123.293 Y102.137
G1 F1200 X96.705 Y75.548 E177.26836
G0 F6000 X96.705 Y74.926
G1 F1200 X123.293 Y101.515 E178.64407
G0 F6000 X123.293 Y100.892
G1 F1200 X96.705 Y74.304 E180.01975
G0 F6000 X96.705 Y73.681
G1 F1200 X123.293 Y100.27 E181.39545
G0 F6000 X123.293 Y99.648
G1 F1200 X96.705 Y73.059 E182.77116
G0 F6000 X96.705 Y72.437
G1 F1200 X123.293 Y99.026 E184.14686
G0 F6000 X123.293 Y98.403
G1 F1200 X96.705 Y71.815 E185.52254
G0 F6000 X96.705 Y71.192
G1 F1200 X123.293 Y97.781 E186.89825
G0 F6000 X123.293 Y97.159
G1 F1200 X96.705 Y70.57 E188.27396
G0 F6000 X96.705 Y69.948
G1 F1200 X123.293 Y96.537 E189.64966
G0 F6000 X123.293 Y95.914
G1 F1200 X96.705 Y69.326 E191.02534
G0 F6000 X96.705 Y68.703
G1 F1200 X123.293 Y95.292 E192.40105
G0 F6000 X123.293 Y94.67
G1 F1200 X96.705 Y68.081 E193.77675
G0 F6000 X96.705 Y67.459
G1 F1200 X123.293 Y94.048 E195.15246
G0 F6000 X123.293 Y93.425
G1 F1200 X96.705 Y66.837 E196.52814
G0 F6000 X97.196 Y66.706
G1 F1200 X123.293 Y92.803 E197.87841
G0 F6000 X123.293 Y92.181
G1 F1200 X97.819 Y66.706 E199.19648
G0 F6000 X98.441 Y66.706
G1 F1200 X123.293 Y91.559 E200.48236
G0 F6000 X123.293 Y90.936
G1 F1200 X99.063 Y66.706 E201.73604
G0 F6000 X99.685 Y66.706
G1 F1200 X123.293 Y90.314 E202.95753
G0 F6000 X123.293 Y89.692
G1 F1200 X100.308 Y66.706 E204.14682
G0 F6000 X100.93 Y66.706
G1 F1200 X123.293 Y89.069 E205.30389
G0 F6000 X123.293 Y88.447
G1 F1200 X101.552 Y66.706 E206.42878
G0 F6000 X102.174 Y66.706
G1 F1200 X123.293 Y87.825 E207.52149
G0 F6000 X123.293 Y87.203
G1 F1200 X102.797 Y66.706 E208.582
G0 F6000 X103.419 Y66.706
G1 F1200 X123.293 Y86.58 E209.61029
G0 F6000 X123.293 Y85.958
G1 F1200 X104.041 Y66.706 E210.6064
G0 F6000 X104.663 Y66.706
G1 F1200 X123.293 Y85.336 E211.57033
G0 F6000 X123.293 Y84.714
G1 F1200 X105.286 Y66.706 E212.50205
G0 F6000 X105.908 Y66.706
G1 F1200 X123.293 Y84.091 E213.40156
G0 F6000 X123.293 Y83.469
G1 F1200 X106.53 Y66.706 E214.26889
G0 F6000 X107.152 Y66.706
G1 F1200 X123.293 Y82.847 E215.10403
G0 F6000 X123.293 Y82.225
G1 F1200 X107.775 Y66.706 E215.90697
G0 F6000 X108.397 Y66.706
G1 F1200 X123.293 Y81.602 E216.6777
G0 F6000 X123.293 Y80.98
G1 F1200 X109.019 Y66.706 E217.41624
G0 F6000 X109.641 Y66.706
G1 F1200 X123.293 Y80.358 E218.12261
G0 F6000 X123.293 Y79.736
G1 F1200 X110.264 Y66.706 E218.79676
G0 F6000 X110.886 Y66.706
G1 F1200 X123.293 Y79.113 E219.43871
G0 F6000 X123.293 Y78.491
G1 F1200 X111.508 Y66.706 E220.04847
G0 F6000 X112.13 Y66.706
G1 F1200 X123.293 Y77.869 E220.62605
G0 F6000 X123.293 Y77.247
G1 F1200 X112.753 Y66.706 E221.17142
G0 F6000 X113.375 Y66.706
G1 F1200 X123.293 Y76.624 E221.68459
G0 F6000 X123.293 Y76.002
G1 F1200 X113.997 Y66.706 E222.16557
G0 F6000 X114.619 Y66.706
G1 F1200 X123.293 Y75.38 E222.61437
G0 F6000 X123.293 Y74.758
G1 F1200 X115.242 Y66.706 E223.03095
G0 F6000 X115.864 Y66.706
G1 F1200 X123.293 Y74.135 E223.41534
G0 F6000 X123.293 Y73.513
G1 F1200 X116.486 Y66.706 E223.76753
G0 F6000 X117.108 Y66.706
G1 F1200 X123.293 Y72.891 E224.08755
G0 F6000 X123.293 Y72.269
G1 F1200 X117.731 Y66.706 E224.37536
G0 F6000 X118.353 Y66.706
G1 F1200 X123.293 Y71.646 E224.63096
G0 F6000 X123.293 Y71.024
G1 F1200 X118.975 Y66.706 E224.85437
G0 F6000 X119.597 Y66.706
G1 F1200 X123.293 Y70.402 E225.04561
G0 F6000 X123.293 Y69.78
G1 F1200 X120.22 Y66.706 E225.20463
G0 F6000 X120.842 Y66.706
G1 F1200 X123.293 Y69.157 E225.33145
G0 F6000 X123.293 Y68.535
G1 F1200 X121.464 Y66.706 E225.42608
G0 F6000 X122.086 Y66.706
G1 F1200 X123.293 Y67.913 E225.48853
G0 F6000 X123.293 Y67.291
G1 F1200 X122.709 Y66.706 E225.51877
G1 F2700 E220.51877
G1 F600 Z0.6
;MESH:NONMESH
G0 F6000 X96.1 Y153.9 Z0.6
;TIME_ELAPSED:328.382233
;LAYER:1
M140 S50
M106 S85
;MESH:motor mount.stl
G0 F7500 X96.1 Y153.9 Z0.8
;TYPE:WALL-INNER
G1 F600 Z0.4
G1 F2700 E225.51877
G1 F1500 X96.1 Y66.1 E228.73104
G1 X123.9 Y66.1 E229.74813
G1 X123.9 Y153.9 E232.9604
G1 X96.1 Y153.9 E233.97749
G0 F7500 X95.66 Y154.34
G1 F1500 X95.66 Y65.66 E237.22195
G1 X124.34 Y65.66 E238.27124
G1 X124.34 Y154.34 E241.5157
G1 X95.66 Y154.34 E242.56499
G0 F7500 X95.22 Y154.78
;TYPE:WALL-OUTER
G1 F1500 X95.22 Y65.22 E245.84165
G1 X124.78 Y65.22 E246.92313
G1 X124.78 Y154.78 E250.19979
G1 X95.22 Y154.78 E251.28128
G1 F2700 E246.28128
G1 F600 Z0.8
G0 F7500 X96.53 Y153.47 Z0.8
;TYPE:SKIN
G1 F600 Z0.4
G1 F2700 E251.28128
G1 F1500 X96.53 Y66.53 E254.46208
G1 X123.47 Y66.53 E255.44771
G1 X123.47 Y153.47 E258.62851
G1 X96.53 Y153.47 E259.61414
G1 F2700 E254.61414
G1 F600 Z0.8
G0 F7500 X122.987 Y153.293 Z0.8
G1 F600 Z0.4
G1 F2700 E259.61414
G1 F1500 X123.293 Y152.987 E259.62997
G0 F7500 X123.293 Y152.365
G1 F1500 X122.364 Y153.293 E259.67801
G0 F7500 X121.742 Y153.293
G1 F1500 X123.293 Y151.742 E259.75826
G0 F7500 X123.293 Y151.12
G1 F1500 X121.12 Y153.293 E259.87069
G0 F7500 X120.498 Y153.293
G1 F1500 X123.293 Y150.498 E260.01531
G0 F7500 X123.293 Y149.876
G1 F1500 X119.875 Y153.293 E260.19213
G0 F7500 X119.253 Y153.293
G1 F1500 X123.293 Y149.253 E260.40116
G0 F7500 X123.293 Y148.631
G1 F1500 X118.631 Y153.293 E260.64238
G0 F7500 X118.009 Y153.293
G1 F1500 X123.293 Y148.009 E260.91578
G0 F7500 X123.293 Y147.387
G1 F1500 X117.386 Y153.293 E261.22138
G0 F7500 X116.764 Y153.293
G1 F1500 X123.293 Y146.764 E261.5592
G0 F7500 X123.293 Y146.142
G1 F1500 X116.142 Y153.293 E261.92919
G0 F7500 X115.52 Y153.293
G1 F1500 X123.293 Y145.52 E262.33137
G0 F7500 X123.293 Y144.898
G1 F1500 X114.897 Y153.293 E262.76576
G0 F7500 X114.275 Y153.293
G1 F1500 X123.293 Y144.275 E263.23236
G0 F7500 X123.293 Y143.653
G1 F1500 X113.653 Y153.293 E263.73114
G0 F7500 X113.031 Y153.293
G1 F1500 X123.293 Y143.031 E264.2621
G0 F7500 X123.293 Y142.409
G1 F1500 X112.408 Y153.293 E264.82527
G0 F7500 X111.786 Y153.293
G1 F1500 X123.293 Y141.786 E265.42065
G0 F7500 X123.293 Y141.164
G1 F1500 X111.164 Y153.293 E266.04821
G0 F7500 X110.542 Y153.293
G1 F1500 X123.293 Y140.542 E266.70796
G0 F7500 X123.293 Y139.92
G1 F1500 X109.919 Y153.293 E267.39991
G0 F7500 X109.297 Y153.293
G1 F1500 X123.293 Y139.297 E268.12407
G0 F7500 X123.293 Y138.675
G1 F1500 X108.675 Y153.293 E268.88042
G0 F7500 X108.052 Y153.293
G1 F1500 X123.293 Y138.053 E269.66897
G0 F7500 X123.293 Y137.431
G1 F1500 X107.43 Y153.293 E270.48971
G0 F7500 X106.808 Y153.293
G1 F1500 X123.293 Y136.808 E271.34265
G0 F7500 X123.293 Y136.186
G1 F1500 X106.186 Y153.293 E272.22778
G0 F7500 X105.563 Y153.293
G1 F1500 X123.293 Y135.564 E273.14511
G0 F7500 X123.293 Y134.942
G1 F1500 X104.941 Y153.293 E274.09463
G0 F7500 X104.319 Y153.293
G1 F1500 X123.293 Y134.319 E275.07636
