;FLAVOR:Marlin
;TIME:694
;Filament used: 0.205723m
;Layer height: 0.2
;MINX:106.222
;MINY:106.221
;MINZ:0.2
;MAXX:113.778
;MAXY:113.779
;MAXZ:18
;Generated with Cura_SteamEngine 4.2.1
M140 S50
M105
M190 S50
M104 S190
M105
M109 S190
M82 ;absolute extrusion mode
M201 X500.00 Y500.00 Z100.00 E5000.00 ;Setup machine max acceleration
M203 X500.00 Y500.00 Z10.00 E50.00 ;Setup machine max feedrate
M204 P500.00 R1000.00 T500.00 ;Setup Print/Retract/Travel acceleration
M205 X8.00 Y8.00 Z0.40 E5.00 ;Setup Jerk
M220 S100 ;Reset Feedrate
M221 S100 ;Reset Flowrate

G28 ;Home

G92 E0 ;Reset Extruder
G1 Z2.0 F3000 ;Move Z Axis up
G1 X10.1 Y20 Z0.28 F5000.0 ;Move to start position
G1 X10.1 Y200.0 Z0.28 F1500.0 E15 ;Draw the first line
G1 X10.4 Y200.0 Z0.28 F5000.0 ;Move to side a little
G1 X10.4 Y20 Z0.28 F1500.0 E30 ;Draw the second line
G92 E0 ;Reset Extruder
G1 Z2.0 F3000 ;Move Z Axis up

M141 S28
G92 E0
G92 E0
G1 F2700 E-5
;LAYER_COUNT:90
;LAYER:0
M107
G0 F6000 X109.761 Y109.743 Z0.2
;TYPE:SKIRT
G1 F2700 E0
G1 F700.9 X109.771 Y109.734 E0.00049
G1 X109.808 Y109.707 E0.00217
G1 X109.824 Y109.697 E0.00286
G1 X109.875 Y109.673 E0.00492
G1 X109.917 Y109.658 E0.00655
G1 X109.928 Y109.655 E0.00697
G1 X109.965 Y109.649 E0.00834
G1 X110.001 Y109.648 E0.00966
G1 X110.036 Y109.649 E0.01094
G1 X110.073 Y109.655 E0.01231
G1 X110.103 Y109.662 E0.01344
G1 X110.132 Y109.673 E0.01457
G1 X110.16 Y109.686 E0.0157
G1 X110.202 Y109.711 E0.01749
G1 X110.226 Y109.729 E0.01859
G1 X110.253 Y109.753 E0.01991
G1 X110.274 Y109.777 E0.02108
G1 X110.289 Y109.796 E0.02196
G1 X110.306 Y109.824 E0.02316
G1 X110.327 Y109.868 E0.02494
G1 X110.336 Y109.891 E0.02585
G1 X110.348 Y109.94 E0.02769
G1 X110.352 Y109.964 E0.02858
G1 X110.354 Y110 E0.0299
G1 X110.352 Y110.036 E0.03122
G1 X110.348 Y110.06 E0.03211
G1 X110.337 Y110.107 E0.03388
G1 X110.33 Y110.124 E0.03455
G1 X110.306 Y110.176 E0.03665
G1 X110.292 Y110.199 E0.03763
G1 X110.277 Y110.22 E0.03858
G1 X110.254 Y110.246 E0.03985
G1 X110.228 Y110.269 E0.04112
G1 X110.201 Y110.289 E0.04234
G1 X110.155 Y110.317 E0.04431
G1 X110.137 Y110.326 E0.04505
G1 X110.103 Y110.338 E0.04637
G1 X110.073 Y110.345 E0.0475
G1 X110.036 Y110.351 E0.04887
G1 X110.001 Y110.352 E0.05015
G1 X109.965 Y110.351 E0.05147
G1 X109.928 Y110.345 E0.05284
G1 X109.911 Y110.341 E0.05348
G1 X109.859 Y110.322 E0.0555
G1 X109.846 Y110.316 E0.05603
G1 X109.807 Y110.292 E0.0577
G1 X109.768 Y110.264 E0.05946
G1 X109.757 Y110.253 E0.06003
G1 X109.723 Y110.215 E0.06189
G1 X109.71 Y110.197 E0.06271
G1 X109.697 Y110.176 E0.06361
G1 X109.673 Y110.124 E0.0657
G1 X109.665 Y110.103 E0.06653
G1 X109.655 Y110.063 E0.06804
G1 X109.651 Y110.031 E0.06922
G1 X109.649 Y110 E0.07035
G1 X109.651 Y109.966 E0.0716
G1 X109.656 Y109.934 E0.07278
G1 X109.667 Y109.891 E0.07441
G1 X109.676 Y109.868 E0.07531
G1 X109.697 Y109.824 E0.07709
G1 X109.71 Y109.803 E0.078
G1 X109.723 Y109.785 E0.07881
G1 X109.761 Y109.743 E0.08088
G0 F6000 X109.444 Y109.436
G1 F700.9 X109.497 Y109.389 E0.08347
G1 X109.561 Y109.341 E0.0864
G1 X109.621 Y109.306 E0.08894
G1 X109.702 Y109.267 E0.09223
G1 X109.78 Y109.239 E0.09526
G1 X109.845 Y109.223 E0.09771
G1 X109.919 Y109.212 E0.10045
G1 X110.002 Y109.208 E0.10349
G1 X110.082 Y109.211 E0.10642
G1 X110.16 Y109.223 E0.10931
G1 X110.235 Y109.242 E0.11214
G1 X110.304 Y109.267 E0.11482
G1 X110.364 Y109.295 E0.11724
G1 X110.446 Y109.344 E0.12074
G1 X110.507 Y109.389 E0.12351
G1 X110.56 Y109.438 E0.12615
G1 X110.615 Y109.498 E0.12913
G1 X110.663 Y109.563 E0.13209
G1 X110.692 Y109.611 E0.13414
G1 X110.739 Y109.712 E0.13821
G1 X110.758 Y109.763 E0.14021
G1 X110.779 Y109.85 E0.14348
G1 X110.79 Y109.918 E0.146
G1 X110.794 Y110 E0.149
G1 X110.79 Y110.082 E0.15201
G1 X110.779 Y110.15 E0.15453
G1 X110.758 Y110.237 E0.1578
G1 X110.74 Y110.287 E0.15975
G1 X110.692 Y110.389 E0.16387
G1 X110.663 Y110.437 E0.16592
G1 X110.615 Y110.502 E0.16888
G1 X110.56 Y110.562 E0.17186
G1 X110.509 Y110.609 E0.17439
G1 X110.441 Y110.659 E0.17748
G1 X110.367 Y110.704 E0.18065
G1 X110.304 Y110.733 E0.18319
G1 X110.235 Y110.758 E0.18587
G1 X110.16 Y110.777 E0.1887
G1 X110.082 Y110.789 E0.19159
G1 X110.002 Y110.792 E0.19452
G1 X109.919 Y110.788 E0.19756
G1 X109.845 Y110.777 E0.2003
G1 X109.778 Y110.761 E0.20282
G1 X109.699 Y110.732 E0.2059
G1 X109.631 Y110.7 E0.20865
G1 X109.557 Y110.655 E0.21181
G1 X109.491 Y110.607 E0.2148
G1 X109.447 Y110.567 E0.21698
G1 X109.384 Y110.496 E0.22045
G1 X109.342 Y110.441 E0.22298
G1 X109.311 Y110.389 E0.2252
G1 X109.263 Y110.287 E0.22932
G1 X109.244 Y110.233 E0.23141
G1 X109.224 Y110.155 E0.23436
G1 X109.213 Y110.082 E0.23706
G1 X109.209 Y110 E0.24007
G1 X109.213 Y109.918 E0.24307
G1 X109.224 Y109.845 E0.24577
G1 X109.244 Y109.767 E0.24872
G1 X109.264 Y109.712 E0.25086
G1 X109.311 Y109.611 E0.25493
G1 X109.342 Y109.559 E0.25715
G1 X109.384 Y109.504 E0.25968
G1 X109.444 Y109.436 E0.263
G0 F6000 X109.137 Y109.12
G1 F700.9 X109.214 Y109.051 E0.26678
G1 X109.31 Y108.979 E0.27117
G1 X109.422 Y108.913 E0.27593
G1 X109.534 Y108.86 E0.28046
G1 X109.65 Y108.818 E0.28497
G1 X109.754 Y108.792 E0.2889
G1 X109.884 Y108.772 E0.29371
G1 X110.002 Y108.767 E0.29803
G1 X110.118 Y108.772 E0.30228
G1 X110.247 Y108.791 E0.30705
G1 X110.366 Y108.821 E0.31154
G1 X110.463 Y108.856 E0.31531
G1 X110.579 Y108.911 E0.32001
G1 X110.688 Y108.976 E0.32465
G1 X110.784 Y109.047 E0.32902
G1 X110.878 Y109.132 E0.33365
G1 X110.956 Y109.219 E0.33793
G1 X111.025 Y109.311 E0.34214
G1 X111.086 Y109.414 E0.34652
G1 X111.14 Y109.528 E0.35113
G1 X111.182 Y109.645 E0.35568
G1 X111.211 Y109.76 E0.36002
G1 X111.229 Y109.881 E0.36449
G1 X111.235 Y110 E0.36885
G1 X111.229 Y110.119 E0.37321
G1 X111.211 Y110.24 E0.37769
G1 X111.182 Y110.355 E0.38203
G1 X111.14 Y110.472 E0.38658
G1 X111.086 Y110.586 E0.39119
G1 X111.025 Y110.689 E0.39557
G1 X110.956 Y110.781 E0.39978
G1 X110.873 Y110.873 E0.40431
G1 X110.792 Y110.947 E0.40833
G1 X110.691 Y111.021 E0.41291
G1 X110.575 Y111.091 E0.41786
G1 X110.463 Y111.144 E0.4224
G1 X110.366 Y111.179 E0.42617
G1 X110.247 Y111.209 E0.43066
G1 X110.118 Y111.228 E0.43543
G1 X110.002 Y111.233 E0.43968
G1 X109.884 Y111.228 E0.444
G1 X109.754 Y111.208 E0.44881
G1 X109.652 Y111.183 E0.45265
G1 X109.524 Y111.137 E0.45763
G1 X109.427 Y111.091 E0.46156
G1 X109.315 Y111.023 E0.46635
G1 X109.208 Y110.944 E0.47122
G1 X109.139 Y110.882 E0.47461
G1 X109.046 Y110.778 E0.47972
G1 X108.976 Y110.684 E0.484
G1 X108.917 Y110.586 E0.48819
G1 X108.863 Y110.472 E0.4928
G1 X108.82 Y110.353 E0.49743
G1 X108.793 Y110.242 E0.50161
G1 X108.774 Y110.118 E0.5062
G1 X108.768 Y110 E0.51052
G1 X108.774 Y109.882 E0.51485
G1 X108.793 Y109.758 E0.51944
G1 X108.82 Y109.647 E0.52362
G1 X108.863 Y109.528 E0.52825
G1 X108.917 Y109.414 E0.53286
G1 X108.976 Y109.316 E0.53705
G1 X109.046 Y109.222 E0.54133
G1 X109.137 Y109.12 E0.54633
G0 F6000 X108.825 Y108.808
G1 F700.9 X108.933 Y108.711 E0.55165
G1 X109.07 Y108.609 E0.55789
G1 X109.205 Y108.529 E0.56364
G1 X109.362 Y108.455 E0.56999
G1 X109.529 Y108.394 E0.57649
G1 X109.664 Y108.36 E0.58158
G1 X109.838 Y108.334 E0.58802
G1 X110.002 Y108.327 E0.59403
G1 X110.165 Y108.334 E0.6
G1 X110.331 Y108.359 E0.60614
G1 X110.492 Y108.399 E0.61221
G1 X110.64 Y108.453 E0.61797
G1 X110.786 Y108.522 E0.62388
G1 X110.937 Y108.613 E0.63033
G1 X111.061 Y108.704 E0.63596
G1 X111.184 Y108.816 E0.64204
G1 X111.294 Y108.937 E0.64803
G1 X111.393 Y109.069 E0.65406
G1 X111.474 Y109.206 E0.65988
G1 X111.549 Y109.366 E0.66635
G1 X111.603 Y109.516 E0.67218
G1 X111.642 Y109.67 E0.67799
G1 X111.667 Y109.835 E0.6841
G1 X111.675 Y110 E0.69014
G1 X111.667 Y110.165 E0.69619
G1 X111.642 Y110.329 E0.70226
G1 X111.605 Y110.48 E0.70795
G1 X111.549 Y110.634 E0.71394
G1 X111.474 Y110.794 E0.72041
G1 X111.393 Y110.931 E0.72623
G1 X111.296 Y111.06 E0.73213
G1 X111.185 Y111.183 E0.73819
G1 X111.063 Y111.294 E0.74423
G1 X110.936 Y111.388 E0.75001
G1 X110.787 Y111.478 E0.75638
G1 X110.64 Y111.547 E0.76232
G1 X110.492 Y111.601 E0.76808
G1 X110.331 Y111.641 E0.77415
G1 X110.165 Y111.666 E0.78029
G1 X110.002 Y111.673 E0.78626
G1 X109.838 Y111.666 E0.79227
G1 X109.664 Y111.64 E0.79871
G1 X109.525 Y111.605 E0.80395
G1 X109.358 Y111.545 E0.81044
G1 X109.215 Y111.477 E0.81624
G1 X109.072 Y111.391 E0.82234
G1 X108.93 Y111.286 E0.8288
G1 X108.821 Y111.187 E0.83419
G1 X108.706 Y111.06 E0.84046
G1 X108.611 Y110.932 E0.84629
G1 X108.529 Y110.794 E0.85216
G1 X108.454 Y110.634 E0.85863
G1 X108.4 Y110.485 E0.86443
G1 X108.361 Y110.329 E0.87031
G1 X108.336 Y110.165 E0.87638
G1 X108.328 Y110 E0.88242
G1 X108.336 Y109.835 E0.88847
G1 X108.361 Y109.671 E0.89454
G1 X108.4 Y109.515 E0.90042
G1 X108.454 Y109.366 E0.90622
G1 X108.529 Y109.206 E0.91268
G1 X108.611 Y109.068 E0.91855
G1 X108.706 Y108.94 E0.92439
G1 X108.825 Y108.808 E0.93089
G1 F2700 E-4.06911
G1 F600 Z0.6
;MESH:Motor Couple.stl
G0 F6000 X109.929 Y113.779 Z0.6
;TYPE:WALL-OUTER
G1 F600 Z0.2
G1 F2700 E0.93089
G1 F700.9 X109.614 Y113.759 E0.94244
G1 X109.304 Y113.715 E0.95389
G1 X109.018 Y113.65 E0.96462
G1 X108.718 Y113.555 E0.97614
G1 X108.429 Y113.438 E0.98754
G1 X108.149 Y113.295 E0.99905
G1 X107.894 Y113.138 E1.01
G1 X107.652 Y112.96 E1.02099
G1 X107.405 Y112.747 E1.03293
G1 X107.198 Y112.535 E1.04377
G1 X106.993 Y112.289 E1.05548
G1 X106.824 Y112.048 E1.06625
G1 X106.666 Y111.777 E1.07773
G1 X106.528 Y111.491 E1.08935
G1 X106.422 Y111.215 E1.10016
G1 X106.332 Y110.907 E1.1119
G1 X106.272 Y110.614 E1.12284
G1 X106.235 Y110.314 E1.1339
G1 X106.222 Y110 E1.1454
G1 X106.235 Y109.683 E1.15701
G1 X106.272 Y109.386 E1.16796
G1 X106.332 Y109.093 E1.1789
G1 X106.422 Y108.785 E1.19064
G1 X106.528 Y108.509 E1.20146
G1 X106.666 Y108.223 E1.21308
G1 X106.824 Y107.952 E1.22455
G1 X106.993 Y107.711 E1.23532
G1 X107.198 Y107.465 E1.24704
G1 X107.405 Y107.253 E1.25788
G1 X107.652 Y107.04 E1.26981
G1 X107.894 Y106.862 E1.2808
G1 X108.149 Y106.705 E1.29176
G1 X108.429 Y106.562 E1.30326
G1 X108.718 Y106.445 E1.31467
G1 X109.019 Y106.35 E1.32622
G1 X109.304 Y106.285 E1.33691
G1 X109.614 Y106.241 E1.34837
G1 X109.929 Y106.221 E1.35991
G1 X110.231 Y106.227 E1.37096
G1 X110.546 Y106.26 E1.38255
G1 X110.842 Y106.314 E1.39356
G1 X111.136 Y106.394 E1.40471
G1 X111.436 Y106.503 E1.41639
G1 X111.704 Y106.625 E1.42716
G1 X111.977 Y106.779 E1.43863
G1 X112.243 Y106.957 E1.45034
G1 X112.476 Y107.143 E1.46124
G1 X112.708 Y107.361 E1.47289
G1 X112.907 Y107.582 E1.48377
G1 X113.094 Y107.825 E1.49499
G1 X113.261 Y108.086 E1.50633
G1 X113.408 Y108.361 E1.51773
G1 X113.53 Y108.645 E1.52904
G1 X113.63 Y108.938 E1.54037
G1 X113.702 Y109.226 E1.55123
G1 X113.754 Y109.541 E1.56291
G1 X113.778 Y109.837 E1.57378
G1 X113.778 Y110.163 E1.5857
G1 X113.754 Y110.459 E1.59657
G1 X113.702 Y110.771 E1.60814
G1 X113.63 Y111.062 E1.61911
G1 X113.53 Y111.355 E1.63044
G1 X113.408 Y111.639 E1.64174
G1 X113.261 Y111.914 E1.65315
G1 X113.094 Y112.175 E1.66449
G1 X112.907 Y112.418 E1.67571
G1 X112.708 Y112.639 E1.68659
G1 X112.476 Y112.857 E1.69824
G1 X112.243 Y113.043 E1.70914
G1 X111.977 Y113.221 E1.72085
G1 X111.704 Y113.375 E1.73232
G1 X111.436 Y113.497 E1.74309
G1 X111.136 Y113.606 E1.75477
G1 X110.842 Y113.686 E1.76592
G1 X110.546 Y113.74 E1.77693
G1 X110.231 Y113.773 E1.78851
G1 X109.929 Y113.779 E1.79957
G0 F6000 X110.002 Y112.995
G1 F700.9 X110.295 Y112.981 E1.8103
G1 X110.586 Y112.938 E1.82106
G1 X110.871 Y112.867 E1.83181
G1 X111.149 Y112.767 E1.84261
G1 X111.414 Y112.641 E1.85335
G1 X111.665 Y112.49 E1.86407
G1 X111.902 Y112.315 E1.87485
G1 X112.12 Y112.118 E1.8856
G1 X112.317 Y111.9 E1.89635
G1 X112.492 Y111.664 E1.90709
G1 X112.643 Y111.412 E1.91784
G1 X112.768 Y111.146 E1.9286
G1 X112.868 Y110.87 E1.93934
G1 X112.939 Y110.584 E1.95012
G1 X112.982 Y110.294 E1.96084
G1 X112.997 Y110 E1.97161
G1 X112.982 Y109.706 E1.98238
G1 X112.939 Y109.416 E1.99311
G1 X112.868 Y109.13 E2.00389
G1 X112.768 Y108.854 E2.01463
G1 X112.643 Y108.588 E2.02538
G1 X112.492 Y108.336 E2.03613
G1 X112.317 Y108.1 E2.04688
G1 X112.12 Y107.882 E2.05763
G1 X111.902 Y107.685 E2.06838
G1 X111.665 Y107.51 E2.07916
G1 X111.414 Y107.359 E2.08988
G1 X111.149 Y107.233 E2.10061
G1 X110.871 Y107.133 E2.11142
G1 X110.586 Y107.062 E2.12217
G1 X110.295 Y107.019 E2.13293
G1 X110.002 Y107.005 E2.14366
G1 X109.709 Y107.019 E2.15439
G1 X109.417 Y107.062 E2.16519
G1 X109.132 Y107.133 E2.17594
G1 X108.855 Y107.233 E2.18671
G1 X108.59 Y107.359 E2.19745
G1 X108.338 Y107.51 E2.2082
G1 X108.101 Y107.685 E2.21897
G1 X107.883 Y107.882 E2.22972
G1 X107.687 Y108.1 E2.24045
G1 X107.511 Y108.335 E2.25119
G1 X107.36 Y108.588 E2.26197
G1 X107.235 Y108.854 E2.27272
G1 X107.135 Y109.13 E2.28346
G1 X107.064 Y109.416 E2.29424
G1 X107.021 Y109.707 E2.30501
G1 X107.007 Y110 E2.31574
G1 X107.021 Y110.293 E2.32647
G1 X107.064 Y110.584 E2.33723
G1 X107.135 Y110.87 E2.34801
G1 X107.235 Y111.146 E2.35875
G1 X107.36 Y111.412 E2.36951
G1 X107.511 Y111.665 E2.38029
G1 X107.687 Y111.9 E2.39103
G1 X107.883 Y112.118 E2.40175
G1 X108.101 Y112.315 E2.4125
G1 X108.338 Y112.49 E2.42328
G1 X108.59 Y112.641 E2.43403
G1 X108.855 Y112.767 E2.44477
G1 X109.132 Y112.867 E2.45554
G1 X109.417 Y112.938 E2.46629
G1 X109.709 Y112.981 E2.47708
G1 X110.002 Y112.995 E2.48782
G0 F6000 X110.258 Y113.369
;TYPE:SKIN
G1 F700.9 X110.538 Y113.338 E2.49817
G1 X111.484 Y113.04 E2.5346
G1 X112.394 Y112.394 E2.5756
G1 X113.04 Y111.485 E2.61657
G1 X113.339 Y110.539 E2.65302
G1 X113.356 Y109.623 E2.68668
G1 X113.281 Y109.237 E2.70113
G0 F6000 X113.329 Y108.662
G1 F700.9 X111.338 Y106.671 E2.75263
G0 F6000 X110.762 Y106.717
G1 F700.9 X110.378 Y106.644 E2.76713
G1 X109.46 Y106.66 E2.80118
G1 X108.515 Y106.96 E2.83794
G1 X107.605 Y107.605 E2.87931
G1 X106.96 Y108.515 E2.92067
G1 X106.662 Y109.462 E2.95748
G1 X106.646 Y110.38 E2.99153
G1 X106.721 Y110.765 E3.00608
G0 F6000 X106.675 Y111.342
G1 F700.9 X108.655 Y113.322 E3.0573
G0 F6000 X109.234 Y113.279
G1 F700.9 X109.619 Y113.353 E3.07881
G1 X109.955 Y113.377 E3.09729
G0 F6000 X109.121 Y113.477
G1 F700.9 X108.382 Y112.738 E3.11641
G0 F6000 X108.004 Y112.982
G1 F700.9 X107.027 Y112.005 E3.14168
G0 F6000 X107.262 Y111.618
G1 F700.9 X106.522 Y110.878 E3.16083
G1 F2700 E-1.83917
G1 F600 Z0.6
G0 F6000 X110.877 Y106.522 Z0.6
G1 F600 Z0.2
G1 F2700 E3.16083
G1 F700.9 X111.61 Y107.254 E3.17978
G0 F6000 X112.006 Y107.028
G1 F700.9 X112.978 Y108 E3.20492
G0 F6000 X112.747 Y108.391
G1 F700.9 X113.478 Y109.122 E3.22383
G1 F2700 E-1.77617
G1 F600 Z0.6
;MESH:NONMESH
G0 F6000 X108.825 Y108.808 Z0.6
;TIME_ELAPSED:14.686418
;LAYER:1
M140 S50
M106 S85
G0 F7500 X108.825 Y108.808 Z0.8
;TYPE:SUPPORT
G1 F600 Z0.4
G1 F2700 E3.22383
G1 F600 X108.933 Y108.711 E3.22914
G1 X109.07 Y108.609 E3.23539
G1 X109.205 Y108.529 E3.24113
G1 X109.362 Y108.455 E3.24748
G1 X109.529 Y108.394 E3.25399
G1 X109.664 Y108.36 E3.25908
G1 X109.838 Y108.334 E3.26552
G1 X110.002 Y108.327 E3.27152
G1 X110.165 Y108.334 E3.27749
G1 X110.331 Y108.359 E3.28364
G1 X110.492 Y108.399 E3.2897
G1 X110.64 Y108.453 E3.29547
G1 X110.786 Y108.522 E3.30138
G1 X110.937 Y108.613 E3.30783
G1 X111.061 Y108.704 E3.31345
G1 X111.184 Y108.816 E3.31954
G1 X111.294 Y108.937 E3.32552
G1 X111.393 Y109.069 E3.33156
G1 X111.474 Y109.206 E3.33738
G1 X111.549 Y109.366 E3.34385
G1 X111.603 Y109.516 E3.34968
G1 X111.642 Y109.67 E3.35549
G1 X111.667 Y109.835 E3.3616
G1 X111.675 Y110 E3.36764
G1 X111.667 Y110.165 E3.37369
G1 X111.642 Y110.329 E3.37975
G1 X111.605 Y110.48 E3.38544
G1 X111.549 Y110.634 E3.39144
G1 X111.474 Y110.794 E3.3979
G1 X111.393 Y110.931 E3.40373
G1 X111.296 Y111.06 E3.40963
G1 X111.185 Y111.183 E3.41569
G1 X111.063 Y111.294 E3.42173
G1 X110.936 Y111.388 E3.42751
G1 X110.787 Y111.478 E3.43388
G1 X110.64 Y111.547 E3.43982
G1 X110.492 Y111.601 E3.44558
G1 X110.331 Y111.641 E3.45165
G1 X110.165 Y111.666 E3.45779
G1 X110.002 Y111.673 E3.46376
G1 X109.838 Y111.666 E3.46977
G1 X109.664 Y111.64 E3.4762
G1 X109.525 Y111.605 E3.48145
G1 X109.358 Y111.545 E3.48794
G1 X109.215 Y111.477 E3.49373
G1 X109.072 Y111.391 E3.49984
G1 X108.93 Y111.286 E3.5063
G1 X108.821 Y111.187 E3.51169
G1 X108.706 Y111.06 E3.51796
G1 X108.611 Y110.932 E3.52379
G1 X108.529 Y110.794 E3.52966
G1 X108.454 Y110.634 E3.53613
