;FLAVOR:Marlin
;TIME:2702
;Filament used: 1.65486m
;Layer height: 0.28
;MINX:88.209
;MINY:88.205
;MINZ:0.28
;MAXX:135.792
;MAXY:131.795
;MAXZ:22.96
;Generated with Cura_SteamEngine 4.4.0
M140 S60
M105
M190 S60
M104 S200
M105
M109 S200
M82 ;absolute extrusion mode
M201 X500.00 Y500.00 Z100.00 E5000.00 ;Setup machine max acceleration
M203 X500.00 Y500.00 Z10.00 E50.00 ;Setup machine max feedrate
M204 P500.00 R1000.00 T500.00 ;Setup Print/Retract/Travel acceleration
M205 X8.00 Y8.00 Z0.40 E5.00 ;Setup Jerk
M220 S100 ;Reset Feedrate
M221 S100 ;Reset Flowrate

G28 ;Home

G92 E0 ;Reset Extruder
G1 Z2.0 F3000 ;Move Z Axis up
G1 X10.1 Y20 Z0.28 F5000.0 ;Move to start position
G1 X10.1 Y200.0 Z0.28 F1500.0 E15 ;Draw the first line
G1 X10.4 Y200.0 Z0.28 F5000.0 ;Move to side a little
G1 X10.4 Y20 Z0.28 F1500.0 E30 ;Draw the second line
G92 E0 ;Reset Extruder
G1 Z2.0 F3000 ;Move Z Axis up

G92 E0
G92 E0
G1 F2700 E-5
;LAYER_COUNT:82
;LAYER:0
M107
G0 F6000 X114.212 Y103.469 Z0.28
;TYPE:SKIRT
G1 F2700 E0
G1 F1200 X114.413 Y103.614 E0.01154
G1 X114.643 Y103.824 E0.02604
G1 X116.114 Y105.276 E0.12229
G1 X116.478 Y105.69 E0.14796
G1 X116.777 Y106.153 E0.17362
G1 X116.997 Y106.635 E0.19829
G1 X117.027 Y106.548 E0.20258
G1 X117.278 Y106.057 E0.22825
G1 X117.597 Y105.608 E0.2539
G1 X117.824 Y105.357 E0.26966
G1 X119.276 Y103.886 E0.3659
G1 X119.69 Y103.522 E0.39157
G1 X120.153 Y103.223 E0.41724
G1 X120.654 Y102.994 E0.44289
G1 X120.972 Y102.891 E0.45845
G1 X121.911 Y102.633 E0.5038
G1 X121.596 Y102.432 E0.5212
G1 X121.184 Y102.13 E0.54498
G1 X120.773 Y101.783 E0.57003
G1 X120.41 Y101.432 E0.59354
G1 X120.058 Y101.044 E0.61793
G1 X119.746 Y100.651 E0.6413
G1 X119.435 Y100.201 E0.66677
G1 X119.174 Y99.764 E0.69047
G1 X119.001 Y99.424 E0.70824
G1 X118.85 Y99.724 E0.72388
G1 X118.578 Y100.185 E0.7488
G1 X118.294 Y100.601 E0.77225
G1 X117.965 Y101.02 E0.79706
G1 X117.624 Y101.398 E0.82076
G1 X117.237 Y101.774 E0.84589
G1 X116.841 Y102.109 E0.87004
G1 X116.413 Y102.424 E0.89479
G1 X115.997 Y102.691 E0.9178
G1 X115.533 Y102.947 E0.94248
G1 X115.071 Y103.163 E0.96623
G1 X114.568 Y103.358 E0.99135
G1 X114.212 Y103.469 E1.00871
G0 F6000 X113.995 Y103.119
G1 F1200 X113.475 Y103.245 E1.03363
G1 X113.061 Y103.317 E1.05319
G1 X113.345 Y103.417 E1.06721
G1 X113.804 Y103.663 E1.09146
G1 X114.362 Y104.108 E1.1247
G1 X115.833 Y105.56 E1.22094
G1 X116.175 Y105.954 E1.24523
G1 X116.453 Y106.395 E1.26951
G1 X116.723 Y107.078 E1.30371
G1 X117 Y108.083 E1.35225
G1 X117.237 Y107.17 E1.39617
G1 X117.407 Y106.677 E1.42045
G1 X117.65 Y106.216 E1.44472
G1 X118.108 Y105.638 E1.47906
G1 X119.56 Y104.167 E1.5753
G1 X119.954 Y103.825 E1.5996
G1 X120.395 Y103.547 E1.62387
G1 X121.078 Y103.277 E1.65807
G1 X122.988 Y102.752 E1.75031
G1 X122.669 Y102.605 E1.76666
G1 X122.266 Y102.385 E1.78804
G1 X121.81 Y102.095 E1.8132
G1 X121.442 Y101.824 E1.83448
G1 X121.031 Y101.477 E1.85953
G1 X120.706 Y101.164 E1.88054
G1 X120.354 Y100.776 E1.90494
G1 X120.075 Y100.424 E1.92585
G1 X119.764 Y99.974 E1.95132
G1 X119.53 Y99.582 E1.97258
G1 X119.293 Y99.116 E1.99692
G1 X119.113 Y98.693 E2.01833
G1 X119.002 Y98.375 E2.03401
G1 X118.918 Y98.62 E2.04607
G1 X118.711 Y99.112 E2.07093
G1 X118.505 Y99.521 E2.09225
G1 X118.233 Y99.982 E2.11718
G1 X117.979 Y100.354 E2.13815
G1 X117.65 Y100.773 E2.16296
G1 X117.345 Y101.112 E2.18419
G1 X116.958 Y101.488 E2.20931
G1 X116.604 Y101.787 E2.23089
G1 X116.176 Y102.102 E2.25564
G1 X115.803 Y102.341 E2.27626
G1 X115.339 Y102.597 E2.30094
G1 X114.926 Y102.79 E2.32217
G1 X114.423 Y102.985 E2.34729
G1 X113.995 Y103.119 E2.36817
G0 F6000 X113.9 Y102.731
G1 F1200 X113.38 Y102.857 E2.39309
G1 X112.99 Y102.924 E2.41151
G1 X112.461 Y102.98 E2.43628
G1 X112.055 Y102.996 E2.4552
G1 X111.519 Y102.98 E2.48017
G1 X111.12 Y102.941 E2.49884
G1 X110.593 Y102.854 E2.52371
G1 X110.199 Y102.761 E2.54256
G1 X109.686 Y102.603 E2.56756
G1 X109.315 Y102.461 E2.58605
G1 X108.837 Y102.241 E2.61056
G1 X108.481 Y102.047 E2.62943
G1 X108.025 Y101.757 E2.6546
G1 X107.7 Y101.518 E2.67338
G1 X107.289 Y101.171 E2.69843
G1 X107.002 Y100.895 E2.71697
G1 X106.65 Y100.507 E2.74136
G1 X106.404 Y100.197 E2.75979
G1 X106.093 Y99.747 E2.78526
G1 X105.887 Y99.401 E2.80401
G1 X105.65 Y98.935 E2.82836
G1 X105.491 Y98.562 E2.84724
G1 X105.313 Y98.051 E2.87243
G1 X105.208 Y97.67 E2.89084
G1 X105.101 Y97.151 E2.91551
G1 X105.046 Y96.753 E2.93422
G1 X105.009 Y96.22 E2.9591
G1 X105.008 Y95.828 E2.97735
G1 X105.041 Y95.291 E3.0024
G1 X105.093 Y94.889 E3.02128
G1 X105.197 Y94.367 E3.04606
G1 X105.301 Y93.981 E3.06468
G1 X105.475 Y93.473 E3.08968
G1 X105.637 Y93.09 E3.10904
G1 X105.875 Y92.62 E3.13358
G1 X106.072 Y92.286 E3.15163
G1 X106.378 Y91.837 E3.17693
G1 X106.627 Y91.519 E3.19574
G1 X106.978 Y91.129 E3.22017
G1 X107.266 Y90.85 E3.23884
G1 X107.678 Y90.5 E3.26402
G1 X108 Y90.261 E3.28269
G1 X108.452 Y89.971 E3.30769
G1 X108.801 Y89.778 E3.32626
G1 X109.278 Y89.555 E3.35078
G1 X109.659 Y89.408 E3.3698
G1 X110.171 Y89.249 E3.39476
G1 X110.551 Y89.158 E3.41296
G1 X111.079 Y89.067 E3.43791
G1 X111.471 Y89.025 E3.45626
G1 X112.005 Y89.004 E3.48115
G1 X112.416 Y89.016 E3.50029
G1 X112.946 Y89.068 E3.52509
G1 X113.342 Y89.134 E3.54379
G1 X113.863 Y89.257 E3.56871
G1 X114.247 Y89.375 E3.58742
G1 X114.751 Y89.568 E3.61255
G1 X115.111 Y89.735 E3.63103
G1 X115.578 Y89.989 E3.65578
G1 X115.916 Y90.202 E3.67438
G1 X116.344 Y90.515 E3.69907
G1 X116.655 Y90.777 E3.71801
G1 X117.041 Y91.149 E3.74297
G1 X117.31 Y91.445 E3.7616
G1 X117.643 Y91.865 E3.78655
G1 X117.869 Y92.193 E3.8051
G1 X118.142 Y92.651 E3.82993
G1 X118.323 Y93.006 E3.84848
G1 X118.532 Y93.494 E3.8732
G1 X118.666 Y93.877 E3.8921
G1 X118.809 Y94.395 E3.91712
G1 X118.889 Y94.788 E3.9358
G1 X118.961 Y95.316 E3.96061
G1 X118.989 Y95.704 E3.97872
G1 X118.992 Y96.238 E4.00359
G1 X118.966 Y96.646 E4.02262
G1 X118.896 Y97.178 E4.04761
G1 X118.819 Y97.565 E4.06598
G1 X118.681 Y98.079 E4.09077
G1 X118.549 Y98.464 E4.10972
G1 X118.342 Y98.956 E4.13457
G1 X118.161 Y99.317 E4.15338
G1 X117.889 Y99.778 E4.1783
G1 X117.665 Y100.107 E4.19683
G1 X117.336 Y100.526 E4.22164
G1 X117.067 Y100.825 E4.24037
G1 X116.68 Y101.201 E4.26549
G1 X116.367 Y101.465 E4.28456
G1 X115.939 Y101.78 E4.3093
G1 X115.61 Y101.991 E4.3275
G1 X115.146 Y102.247 E4.35218
G1 X114.781 Y102.417 E4.37093
G1 X114.278 Y102.612 E4.39605
G1 X113.9 Y102.731 E4.4145
G0 F6000 X113.806 Y102.342
G1 F1200 X113.286 Y102.468 E4.43942
G1 X112.948 Y102.527 E4.45539
G1 X112.419 Y102.583 E4.48016
G1 X112.067 Y102.596 E4.49656
G1 X111.531 Y102.58 E4.52153
G1 X111.186 Y102.546 E4.53768
G1 X110.659 Y102.459 E4.56255
G1 X110.317 Y102.379 E4.5789
G1 X109.804 Y102.221 E4.6039
G1 X109.482 Y102.098 E4.61995
G1 X109.004 Y101.878 E4.64445
G1 X108.696 Y101.71 E4.66079
G1 X108.24 Y101.42 E4.68595
G1 X107.958 Y101.213 E4.70224
G1 X107.547 Y100.866 E4.72729
G1 X107.298 Y100.626 E4.74339
G1 X106.946 Y100.238 E4.76778
G1 X106.733 Y99.969 E4.78376
G1 X106.422 Y99.519 E4.80923
G1 X106.244 Y99.22 E4.82543
G1 X106.007 Y98.754 E4.84978
G1 X105.869 Y98.43 E4.86618
G1 X105.691 Y97.919 E4.89137
G1 X105.6 Y97.589 E4.90731
G1 X105.493 Y97.07 E4.93199
G1 X105.445 Y96.725 E4.94821
G1 X105.408 Y96.192 E4.97309
G1 X105.407 Y95.853 E4.98887
G1 X105.44 Y95.316 E5.01392
G1 X105.485 Y94.967 E5.03031
G1 X105.589 Y94.445 E5.05509
G1 X105.679 Y94.11 E5.07124
G1 X105.853 Y93.602 E5.09625
G1 X105.993 Y93.27 E5.11303
G1 X106.231 Y92.8 E5.13756
G1 X106.403 Y92.511 E5.15322
G1 X106.709 Y92.062 E5.17852
G1 X106.924 Y91.787 E5.19477
G1 X107.275 Y91.397 E5.2192
G1 X107.525 Y91.154 E5.23544
G1 X107.937 Y90.804 E5.26061
G1 X108.216 Y90.598 E5.27676
G1 X108.668 Y90.308 E5.30177
G1 X108.971 Y90.141 E5.31788
G1 X109.448 Y89.918 E5.34239
G1 X109.778 Y89.79 E5.35888
G1 X110.29 Y89.631 E5.38384
G1 X110.619 Y89.552 E5.3996
G1 X111.147 Y89.461 E5.42454
G1 X111.487 Y89.425 E5.44046
G1 X112.021 Y89.404 E5.46535
G1 X112.377 Y89.414 E5.48193
G1 X112.907 Y89.466 E5.50673
G1 X113.25 Y89.524 E5.52293
G1 X113.771 Y89.647 E5.54785
G1 X114.104 Y89.749 E5.56407
G1 X114.608 Y89.942 E5.5892
G1 X114.92 Y90.086 E5.6052
G1 X115.387 Y90.34 E5.62996
G1 X115.68 Y90.525 E5.64609
G1 X116.108 Y90.838 E5.67078
G1 X116.377 Y91.065 E5.68717
G1 X116.763 Y91.437 E5.71213
G1 X116.996 Y91.694 E5.72829
G1 X117.329 Y92.114 E5.75324
G1 X117.525 Y92.398 E5.76931
G1 X117.798 Y92.856 E5.79414
G1 X117.955 Y93.163 E5.8102
G1 X118.164 Y93.651 E5.83492
G1 X118.28 Y93.983 E5.85129
G1 X118.423 Y94.501 E5.87631
G1 X118.493 Y94.842 E5.89252
G1 X118.565 Y95.37 E5.91734
G1 X118.589 Y95.706 E5.93302
G1 X118.592 Y96.24 E5.95789
G1 X118.57 Y96.594 E5.9744
G1 X118.5 Y97.126 E5.99939
G1 X118.433 Y97.461 E6.0153
G1 X118.295 Y97.975 E6.04008
G1 X118.181 Y98.309 E6.05651
G1 X117.974 Y98.801 E6.08137
G1 X117.816 Y99.114 E6.09769
G1 X117.544 Y99.575 E6.12262
G1 X117.35 Y99.86 E6.13867
G1 X117.021 Y100.279 E6.16348
G1 X116.788 Y100.538 E6.1797
G1 X116.401 Y100.914 E6.20482
G1 X116.13 Y101.143 E6.22135
G1 X115.702 Y101.458 E6.24609
G1 X115.417 Y101.641 E6.26186
G1 X114.953 Y101.897 E6.28654
G1 X114.637 Y102.044 E6.30277
G1 X114.134 Y102.239 E6.32789
G1 X113.806 Y102.342 E6.34389
G0 F6000 X113.712 Y101.953
G1 F1200 X113.192 Y102.079 E6.36881
G1 X112.906 Y102.129 E6.38233
G1 X112.377 Y102.185 E6.4071
G1 X112.079 Y102.196 E6.42098
G1 X111.543 Y102.18 E6.44595
G1 X111.251 Y102.152 E6.45961
G1 X110.724 Y102.065 E6.48448
G1 X110.434 Y101.997 E6.49835
G1 X109.921 Y101.839 E6.52335
G1 X109.649 Y101.734 E6.53692
G1 X109.171 Y101.514 E6.56143
G1 X108.91 Y101.372 E6.57526
G1 X108.454 Y101.082 E6.60043
G1 X108.216 Y100.907 E6.61418
G1 X107.805 Y100.56 E6.63923
G1 X107.595 Y100.357 E6.65283
G1 X107.243 Y99.969 E6.67722
G1 X107.062 Y99.742 E6.69074
G1 X106.751 Y99.292 E6.71621
G1 X106.6 Y99.038 E6.72997
G1 X106.363 Y98.572 E6.75432
G1 X106.246 Y98.299 E6.76815
G1 X106.068 Y97.788 E6.79334
G1 X105.991 Y97.508 E6.80686
G1 X105.884 Y96.989 E6.83154
G1 X105.844 Y96.697 E6.84526
G1 X105.807 Y96.164 E6.87014
G1 X105.806 Y95.877 E6.88351
G1 X105.839 Y95.34 E6.90856
G1 X105.877 Y95.045 E6.92241
G1 X105.981 Y94.523 E6.94719
G1 X106.058 Y94.24 E6.96085
G1 X106.232 Y93.732 E6.98585
G1 X106.35 Y93.451 E7.00004
G1 X106.588 Y92.981 E7.02457
G1 X106.733 Y92.736 E7.03783
G1 X107.039 Y92.287 E7.06313
G1 X107.222 Y92.054 E7.07693
G1 X107.573 Y91.664 E7.10136
G1 X107.784 Y91.459 E7.11506
G1 X108.196 Y91.109 E7.14023
G1 X108.432 Y90.934 E7.15391
G1 X108.884 Y90.644 E7.17892
G1 X109.14 Y90.503 E7.19253
G1 X109.617 Y90.28 E7.21705
G1 X109.897 Y90.172 E7.23102
G1 X110.409 Y90.013 E7.25598
G1 X110.687 Y89.946 E7.2693
G1 X111.215 Y89.855 E7.29425
G1 X111.503 Y89.825 E7.30773
G1 X112.037 Y89.804 E7.33262
G1 X112.338 Y89.813 E7.34664
G1 X112.868 Y89.865 E7.37143
G1 X113.158 Y89.913 E7.38512
G1 X113.679 Y90.036 E7.41005
G1 X113.961 Y90.122 E7.42378
G1 X114.465 Y90.315 E7.44891
G1 X114.729 Y90.437 E7.46245
G1 X115.196 Y90.691 E7.4872
G1 X115.444 Y90.848 E7.50087
G1 X115.872 Y91.161 E7.52556
G1 X116.1 Y91.353 E7.53944
G1 X116.486 Y91.725 E7.5644
G1 X116.683 Y91.942 E7.57805
G1 X117.016 Y92.362 E7.60301
G1 X117.182 Y92.603 E7.61663
G1 X117.455 Y93.061 E7.64146
G1 X117.587 Y93.321 E7.65504
G1 X117.796 Y93.809 E7.67976
G1 X117.895 Y94.09 E7.69363
G1 X118.038 Y94.608 E7.71865
G1 X118.097 Y94.896 E7.73234
G1 X118.169 Y95.424 E7.75716
G1 X118.189 Y95.709 E7.77046
G1 X118.192 Y96.243 E7.79533
G1 X118.173 Y96.542 E7.80928
G1 X118.103 Y97.074 E7.83426
G1 X118.047 Y97.357 E7.8477
G1 X117.909 Y97.871 E7.87248
G1 X117.812 Y98.154 E7.88641
G1 X117.605 Y98.646 E7.91126
G1 X117.472 Y98.911 E7.92507
G1 X117.2 Y99.372 E7.94999
G1 X117.035 Y99.613 E7.96359
G1 X116.706 Y100.032 E7.9884
G1 X116.509 Y100.251 E8.00212
G1 X116.122 Y100.627 E8.02724
G1 X115.893 Y100.821 E8.04122
G1 X115.465 Y101.136 E8.06596
G1 X115.224 Y101.29 E8.07928
G1 X114.76 Y101.546 E8.10395
G1 X114.492 Y101.671 E8.11772
G1 X113.989 Y101.866 E8.14284
G1 X113.712 Y101.953 E8.15636
G0 F6000 X113.618 Y101.564
G1 F1200 X113.098 Y101.69 E8.18128
G1 X112.863 Y101.731 E8.19239
G1 X112.334 Y101.787 E8.21716
G1 X112.091 Y101.796 E8.22848
G1 X111.555 Y101.78 E8.25345
G1 X111.316 Y101.757 E8.26463
G1 X110.789 Y101.67 E8.2895
G1 X110.552 Y101.614 E8.30084
G1 X110.039 Y101.456 E8.32583
G1 X109.816 Y101.371 E8.33695
G1 X109.338 Y101.151 E8.36145
G1 X109.125 Y101.035 E8.37274
G1 X108.669 Y100.745 E8.39791
G1 X108.474 Y100.601 E8.40919
G1 X108.063 Y100.254 E8.43424
G1 X107.891 Y100.088 E8.44537
G1 X107.539 Y99.7 E8.46976
G1 X107.391 Y99.514 E8.48083
G1 X107.08 Y99.064 E8.5063
G1 X106.957 Y98.857 E8.51752
G1 X106.72 Y98.391 E8.54186
G1 X106.624 Y98.167 E8.55321
G1 X106.446 Y97.656 E8.5784
G1 X106.383 Y97.427 E8.58946
G1 X106.276 Y96.908 E8.61414
G1 X106.243 Y96.67 E8.62533
G1 X106.206 Y96.137 E8.65021
G1 X106.205 Y95.902 E8.66115
G1 X106.238 Y95.365 E8.6862
G1 X106.27 Y95.123 E8.69757
G1 X106.374 Y94.601 E8.72235
G1 X106.436 Y94.37 E8.73349
G1 X106.61 Y93.862 E8.75849
G1 X106.707 Y93.632 E8.77012
G1 X106.945 Y93.162 E8.79465
G1 X107.064 Y92.961 E8.80552
G1 X107.37 Y92.512 E8.83082
G1 X107.519 Y92.322 E8.84207
G1 X107.87 Y91.932 E8.8665
G1 X108.043 Y91.764 E8.87773
G1 X108.455 Y91.414 E8.9029
G1 X108.648 Y91.271 E8.91409
G1 X109.1 Y90.981 E8.93909
G1 X109.31 Y90.865 E8.95026
G1 X109.787 Y90.642 E8.97478
G1 X110.015 Y90.554 E8.98616
G1 X110.527 Y90.395 E9.01113
G1 X110.755 Y90.34 E9.02205
G1 X111.283 Y90.249 E9.04699
G1 X111.518 Y90.224 E9.058
G1 X112.052 Y90.203 E9.08288
G1 X112.299 Y90.211 E9.09439
G1 X112.829 Y90.263 E9.11919
G1 X113.067 Y90.302 E9.13042
G1 X113.588 Y90.425 E9.15535
G1 X113.818 Y90.496 E9.16655
G1 X114.322 Y90.689 E9.19168
G1 X114.538 Y90.789 E9.20277
G1 X115.005 Y91.043 E9.22752
G1 X115.208 Y91.171 E9.2387
G1 X115.636 Y91.484 E9.26339
G1 X115.822 Y91.641 E9.27472
G1 X116.208 Y92.013 E9.29968
G1 X116.369 Y92.191 E9.31086
G1 X116.702 Y92.611 E9.33582
G1 X116.838 Y92.807 E9.34692
G1 X117.111 Y93.265 E9.37175
G1 X117.22 Y93.478 E9.38289
G1 X117.429 Y93.966 E9.40761
G1 X117.509 Y94.196 E9.41895
G1 X117.652 Y94.714 E9.44397
G1 X117.7 Y94.95 E9.45519
G1 X117.772 Y95.478 E9.48
G1 X117.789 Y95.711 E9.49088
G1 X117.792 Y96.245 E9.51575
G1 X117.777 Y96.49 E9.52718
G1 X117.707 Y97.022 E9.55216
G1 X117.66 Y97.254 E9.56318
G1 X117.522 Y97.768 E9.58797
G1 X117.443 Y97.999 E9.59933
G1 X117.236 Y98.491 E9.62419
G1 X117.127 Y98.708 E9.6355
G1 X116.855 Y99.169 E9.66042
G1 X116.721 Y99.366 E9.67151
G1 X116.392 Y99.785 E9.69632
G1 X116.23 Y99.964 E9.70756
G1 X115.843 Y100.34 E9.73269
G1 X115.656 Y100.499 E9.74412
G1 X115.228 Y100.814 E9.76886
G1 X115.031 Y100.94 E9.77975
G1 X114.567 Y101.196 E9.80443
G1 X114.348 Y101.298 E9.81568
G1 X113.845 Y101.493 E9.8408
G1 X113.618 Y101.564 E9.85187
G0 F6000 X113.524 Y101.176
G1 F1200 X113.004 Y101.302 E9.87679
G1 X112.821 Y101.333 E9.88543
G1 X112.292 Y101.389 E9.9102
G1 X112.103 Y101.396 E9.919
G1 X111.567 Y101.38 E9.94397
G1 X111.381 Y101.362 E9.95268
G1 X110.854 Y101.275 E9.97755
G1 X110.67 Y101.232 E9.98635
G1 X110.157 Y101.074 E10.01134
G1 X109.984 Y101.008 E10.01996
G1 X109.506 Y100.788 E10.04446
G1 X109.34 Y100.697 E10.05328
G1 X108.884 Y100.407 E10.07844
G1 X108.732 Y100.296 E10.08721
G1 X108.321 Y99.949 E10.11225
G1 X108.187 Y99.82 E10.12091
G1 X107.835 Y99.432 E10.14531
G1 X107.72 Y99.287 E10.15393
G1 X107.409 Y98.837 E10.1794
G1 X107.313 Y98.676 E10.18813
G1 X107.076 Y98.21 E10.21247
G1 X107.002 Y98.036 E10.22127
G1 X106.824 Y97.525 E10.24647
G1 X106.775 Y97.347 E10.25507
G1 X106.668 Y96.828 E10.27974
G1 X106.642 Y96.642 E10.28849
G1 X106.605 Y96.109 E10.31337
G1 X106.605 Y95.926 E10.32189
G1 X106.638 Y95.389 E10.34694
G1 X106.662 Y95.201 E10.35576
G1 X106.766 Y94.679 E10.38055
G1 X106.815 Y94.499 E10.38924
G1 X106.989 Y93.991 E10.41424
G1 X107.064 Y93.813 E10.42323
G1 X107.302 Y93.343 E10.44776
G1 X107.394 Y93.187 E10.4562
G1 X107.7 Y92.738 E10.4815
G1 X107.816 Y92.589 E10.49029
G1 X108.167 Y92.199 E10.51472
G1 X108.302 Y92.069 E10.52345
G1 X108.714 Y91.719 E10.54862
G1 X108.864 Y91.608 E10.55731
G1 X109.316 Y91.318 E10.58232
G1 X109.479 Y91.228 E10.59099
G1 X109.956 Y91.005 E10.61551
G1 X110.134 Y90.936 E10.6244
G1 X110.646 Y90.777 E10.64936
