;FLAVOR:Marlin
;TIME:4880
;Filament used: 1.62447m
;Layer height: 0.12
;MINX:52.563
;MINY:80.148
;MINZ:0.144
;MAXX:137.533
;MAXY:137.536
;MAXZ:5.634
;Generated with Cura_SteamEngine 4.4.0
M140 S60
M105
M190 S60
M104 S200
M105
M109 S200
M82 ;absolute extrusion mode
M201 X500.00 Y500.00 Z100.00 E5000.00 ;Setup machine max acceleration
M203 X500.00 Y500.00 Z10.00 E50.00 ;Setup machine max feedrate
M204 P500.00 R1000.00 T500.00 ;Setup Print/Retract/Travel acceleration
M205 X8.00 Y8.00 Z0.40 E5.00 ;Setup Jerk
M220 S100 ;Reset Feedrate
M221 S100 ;Reset Flowrate

G28 ;Home

G92 E0 ;Reset Extruder
G1 Z2.0 F3000 ;Move Z Axis up
G1 X10.1 Y20 Z0.28 F5000.0 ;Move to start position
G1 X10.1 Y200.0 Z0.28 F1500.0 E15 ;Draw the first line
G1 X10.4 Y200.0 Z0.28 F5000.0 ;Move to side a little
G1 X10.4 Y20 Z0.28 F1500.0 E30 ;Draw the second line
G92 E0 ;Reset Extruder
G1 Z2.0 F3000 ;Move Z Axis up

G92 E0
G92 E0
G1 F2700 E-5
;LAYER_COUNT:41
;LAYER:-6
M107
G0 F9000 X65.167 Y85.3 Z0.144
;TYPE:SUPPORT-INTERFACE
G1 F2700 E0
G1 F1125 X65.873 Y84.767 E0.04237
G1 X66.01 Y84.671 E0.05038
G1 X66.888 Y84.109 E0.10031
G1 X67.697 Y83.667 E0.14446
G1 X67.851 Y83.589 E0.15273
G1 X68.381 Y83.339 E0.1808
G1 X68.779 Y83.163 E0.20164
G1 X70.094 Y82.636 E0.26949
G1 X70.091 Y82.628 E0.2699
G1 X70.441 Y82.47 E0.28829
G1 X70.76 Y82.339 E0.30481
G1 X71.82 Y81.947 E0.35893
G1 X72.84 Y81.653 E0.40978
G1 X73.734 Y81.46 E0.45358
G1 X73.897 Y81.431 E0.46151
G1 X74.766 Y81.309 E0.50354
G1 X74.977 Y81.289 E0.51369
G1 X76.5 Y81.218 E0.58671
G1 X77.624 Y81.263 E0.64059
G1 X78.541 Y81.365 E0.68478
G1 X78.732 Y81.393 E0.69402
G1 X79.101 Y81.461 E0.712
G1 X79.766 Y81.54 E0.74407
G1 X80.446 Y81.535 E0.77664
G1 X80.923 Y81.479 E0.79964
G1 X81.806 Y81.336 E0.84248
G1 X81.972 Y81.315 E0.8505
G1 X82.901 Y81.233 E0.89516
G1 X83.838 Y81.21 E0.94005
G1 X84.035 Y81.212 E0.94949
G1 X84.902 Y81.254 E0.99106
G1 X85.111 Y81.271 E1.00111
G1 X85.974 Y81.376 E1.04274
G1 X86.139 Y81.403 E1.05075
G1 X87.032 Y81.578 E1.09434
G1 X87.174 Y81.611 E1.10132
G1 X88.07 Y81.856 E1.14581
G1 X88.211 Y81.9 E1.15288
G1 X89.063 Y82.198 E1.19611
G1 X89.465 Y82.356 E1.2168
G1 X90.567 Y82.823 E1.27412
G1 X91.095 Y83.026 E1.30122
G1 X91.468 Y83.182 E1.32058
G1 X92.294 Y83.558 E1.36405
G1 X92.451 Y83.636 E1.37244
G1 X93.243 Y84.069 E1.41567
G1 X93.395 Y84.159 E1.42413
G1 X94.207 Y84.685 E1.47047
G1 X94.783 Y85.03 E1.50263
G1 X95.408 Y85.305 E1.53533
G1 X96.063 Y85.499 E1.56805
G1 X96.737 Y85.608 E1.60075
G1 X97.419 Y85.632 E1.63344
G1 X98.1 Y85.569 E1.66619
G1 X98.764 Y85.422 E1.69876
G1 X99.272 Y85.246 E1.72451
G1 X100 Y84.952 E1.76212
G1 X99.998 Y84.945 E1.76246
G1 X100.343 Y84.789 E1.7806
G1 X100.669 Y84.655 E1.79748
G1 X101.575 Y84.316 E1.84381
G1 X101.722 Y84.266 E1.85125
G1 X102.594 Y84.01 E1.89477
G1 X102.751 Y83.971 E1.90252
G1 X104.033 Y83.709 E1.96519
G1 X104.972 Y83.594 E2.0105
G1 X105.164 Y83.578 E2.01973
G1 X106.053 Y83.534 E2.06236
G1 X106.224 Y83.531 E2.07055
G1 X107.277 Y83.56 E2.121
G1 X107.91 Y83.614 E2.15143
G1 X109.039 Y83.78 E2.20608
G1 X109.705 Y83.857 E2.23819
G1 X110.384 Y83.85 E2.27072
G1 X110.846 Y83.795 E2.293
G1 X111.715 Y83.654 E2.33516
G1 X111.873 Y83.634 E2.34279
G1 X112.803 Y83.552 E2.38751
G1 X113.74 Y83.529 E2.4324
G1 X113.937 Y83.531 E2.44183
G1 X114.804 Y83.573 E2.48341
G1 X115.013 Y83.59 E2.49345
G1 X115.876 Y83.695 E2.53509
G1 X116.041 Y83.722 E2.5431
G1 X117.077 Y83.93 E2.5937
G1 X117.973 Y84.174 E2.63818
G1 X118.106 Y84.217 E2.64488
G1 X118.952 Y84.512 E2.68779
G1 X119.322 Y84.656 E2.7068
G1 X120.464 Y85.14 E2.76621
G1 X120.983 Y85.339 E2.79283
G1 X121.37 Y85.501 E2.81292
G1 X122.183 Y85.871 E2.8557
G1 X122.371 Y85.965 E2.86577
G1 X123.145 Y86.388 E2.90802
G1 X123.29 Y86.474 E2.91609
G1 X124.167 Y87.043 E2.96616
G1 X124.605 Y87.363 E2.99214
G1 X125.464 Y88.068 E3.04536
G1 X126.138 Y88.705 E3.08978
G1 X126.272 Y88.844 E3.09903
G1 X127.28 Y89.993 E3.17223
G1 X128.104 Y91.108 E3.23864
G1 X128.116 Y91.102 E3.23928
G1 X128.277 Y91.305 E3.25169
G1 X128.763 Y91.779 E3.2842
G1 X129.116 Y92.058 E3.30575
G1 X129.841 Y92.583 E3.34862
G1 X129.974 Y92.687 E3.35671
G1 X130.873 Y93.452 E3.41325
G1 X131.665 Y94.24 E3.46676
G1 X132.265 Y94.926 E3.51041
G1 X132.381 Y95.069 E3.51923
G1 X132.914 Y95.775 E3.56159
G1 X133.01 Y95.912 E3.56961
G1 X133.515 Y96.693 E3.61415
G1 X133.571 Y96.789 E3.61947
G1 X134.02 Y97.61 E3.66429
G1 X134.089 Y97.748 E3.67168
G1 X134.383 Y98.375 E3.70485
G1 X134.518 Y98.682 E3.72091
G1 X134.917 Y99.682 E3.77248
G1 X135.012 Y99.903 E3.784
G1 X135.187 Y100.289 E3.8043
G1 X135.334 Y100.641 E3.82257
G1 X135.672 Y101.535 E3.86834
G1 X135.72 Y101.677 E3.87552
G1 X135.978 Y102.546 E3.91894
G1 X136.018 Y102.703 E3.9267
G1 X136.217 Y103.609 E3.97112
G1 X136.241 Y103.742 E3.9776
G1 X136.368 Y104.632 E4.02065
G1 X136.388 Y104.843 E4.0308
G1 X136.464 Y106.383 E4.10465
G1 X136.428 Y107.389 E4.15287
G1 X136.418 Y107.524 E4.15935
G1 X136.316 Y108.441 E4.20354
G1 X136.29 Y108.621 E4.21225
G1 X136.219 Y109 E4.23072
G1 X136.139 Y109.665 E4.2628
G1 X136.143 Y110.345 E4.29537
G1 X136.204 Y110.859 E4.32016
G1 X136.334 Y111.637 E4.35793
G1 X136.355 Y111.795 E4.36557
G1 X136.449 Y112.842 E4.41592
G1 X136.471 Y113.724 E4.45817
G1 X136.469 Y113.942 E4.46861
G1 X136.426 Y114.826 E4.511
G1 X136.411 Y115.008 E4.51975
G1 X136.302 Y115.9 E4.56279
G1 X136.279 Y116.045 E4.56982
G1 X136.104 Y116.935 E4.61326
G1 X136.064 Y117.102 E4.62149
G1 X135.784 Y118.106 E4.67141
G1 X135.48 Y118.971 E4.71532
G1 X135.351 Y119.304 E4.73243
G1 X134.86 Y120.464 E4.79275
G1 X134.656 Y120.996 E4.82004
G1 X134.504 Y121.361 E4.83898
G1 X134.129 Y122.183 E4.88225
G1 X134.042 Y122.358 E4.89161
G1 X133.619 Y123.133 E4.9339
G1 X133.53 Y123.284 E4.9423
G1 X132.957 Y124.167 E4.99271
G1 X132.645 Y124.595 E5.01808
G1 X131.932 Y125.464 E5.07191
G1 X131.3 Y126.133 E5.11599
G1 X131.162 Y126.266 E5.12517
G1 X130.007 Y127.28 E5.19878
G1 X128.892 Y128.105 E5.26522
G1 X128.898 Y128.116 E5.26582
G1 X128.695 Y128.277 E5.27822
G1 X128.221 Y128.763 E5.31074
G1 X127.942 Y129.116 E5.33229
G1 X127.417 Y129.841 E5.37516
G1 X127.313 Y129.974 E5.38325
G1 X126.548 Y130.873 E5.43978
G1 X125.76 Y131.665 E5.49329
G1 X125.074 Y132.265 E5.53694
G1 X124.931 Y132.381 E5.54576
G1 X124.225 Y132.914 E5.58813
G1 X124.088 Y133.01 E5.59614
G1 X123.21 Y133.572 E5.64607
G1 X122.405 Y134.012 E5.69001
G1 X122.251 Y134.09 E5.69828
G1 X121.723 Y134.339 E5.72624
G1 X121.319 Y134.518 E5.7474
G1 X120.004 Y135.045 E5.81525
G1 X120.007 Y135.053 E5.81566
G1 X119.657 Y135.211 E5.83405
G1 X119.338 Y135.342 E5.85057
G1 X118.278 Y135.734 E5.9047
G1 X117.258 Y136.028 E5.95554
G1 X116.364 Y136.221 E5.99934
G1 X116.201 Y136.25 E6.00727
G1 X115.332 Y136.372 E6.0493
G1 X115.121 Y136.392 E6.05945
G1 X113.598 Y136.463 E6.13247
G1 X112.474 Y136.418 E6.18635
G1 X111.39 Y136.293 E6.23861
G1 X110.99 Y136.218 E6.2581
G1 X110.325 Y136.14 E6.29017
G1 X109.645 Y136.145 E6.32274
G1 X109.145 Y136.204 E6.34685
G1 X108.351 Y136.336 E6.3854
G1 X108.205 Y136.355 E6.39246
G1 X107.172 Y136.448 E6.44213
G1 X106.248 Y136.471 E6.4864
G1 X106.058 Y136.469 E6.4955
G1 X105.163 Y136.425 E6.53842
G1 X104.992 Y136.411 E6.54664
G1 X104.092 Y136.301 E6.59006
G1 X103.955 Y136.279 E6.59671
G1 X103.065 Y136.104 E6.64015
G1 X102.898 Y136.064 E6.64837
G1 X101.888 Y135.781 E6.69861
G1 X101.023 Y135.478 E6.74251
G1 X100.662 Y135.337 E6.76107
G1 X99.536 Y134.86 E6.81964
G1 X99.007 Y134.657 E6.84678
G1 X98.63 Y134.499 E6.86635
G1 X97.811 Y134.126 E6.90946
G1 X97.629 Y134.035 E6.9192
G1 X96.855 Y133.612 E6.96145
G1 X96.703 Y133.522 E6.96991
G1 X95.879 Y132.988 E7.01693
G1 X95.302 Y132.645 E7.04908
G1 X94.677 Y132.371 E7.08177
G1 X94.021 Y132.179 E7.11451
G1 X93.347 Y132.071 E7.1472
G1 X92.665 Y132.048 E7.17988
G1 X91.985 Y132.113 E7.2126
G1 X91.322 Y132.262 E7.24514
G1 X90.848 Y132.425 E7.26915
G1 X90.29 Y132.651 E7.29798
G1 X89.717 Y132.908 E7.32806
G1 X89.379 Y133.047 E7.34557
G1 X88.496 Y133.375 E7.39068
G1 X88.322 Y133.432 E7.39945
G1 X87.485 Y133.675 E7.44119
G1 X87.287 Y133.725 E7.45097
G1 X86.46 Y133.902 E7.49148
G1 X86.246 Y133.94 E7.50189
G1 X85.377 Y134.059 E7.5439
G1 X85.204 Y134.076 E7.55222
G1 X83.696 Y134.144 E7.62452
G1 X82.572 Y134.099 E7.6784
G1 X81.655 Y133.997 E7.72259
G1 X81.464 Y133.969 E7.73183
G1 X81.095 Y133.901 E7.74981
G1 X80.43 Y133.822 E7.78188
G1 X79.75 Y133.827 E7.81445
G1 X79.273 Y133.883 E7.83745
G1 X78.405 Y134.024 E7.87957
G1 X78.216 Y134.048 E7.88869
G1 X77.27 Y134.129 E7.93417
G1 X76.345 Y134.152 E7.97848
G1 X76.155 Y134.15 E7.98758
G1 X75.26 Y134.106 E8.0305
G1 X75.089 Y134.092 E8.03872
G1 X74.189 Y133.982 E8.08214
G1 X74.052 Y133.96 E8.08879
G1 X73.162 Y133.785 E8.13223
G1 X72.995 Y133.745 E8.14046
G1 X72.121 Y133.505 E8.18387
G1 X71.973 Y133.459 E8.19129
G1 X71.174 Y133.181 E8.23181
G1 X70.793 Y133.033 E8.25138
G1 X69.583 Y132.518 E8.31437
G1 X69.581 Y132.52 E8.3145
G1 X69.107 Y132.339 E8.3388
G1 X68.728 Y132.18 E8.35849
G1 X67.913 Y131.809 E8.40138
G1 X67.727 Y131.716 E8.41134
G1 X66.953 Y131.293 E8.45358
G1 X66.808 Y131.207 E8.46166
G1 X65.922 Y130.632 E8.51224
G1 X65.487 Y130.313 E8.53808
G1 X64.634 Y129.613 E8.59093
G1 X63.947 Y128.964 E8.63619
G1 X63.841 Y128.856 E8.64344
G1 X63.127 Y128.069 E8.69433
G1 X62.691 Y127.523 E8.7278
G1 X62.189 Y126.827 E8.7689
G1 X61.763 Y126.31 E8.80098
G1 X61.268 Y125.845 E8.83351
G1 X60.839 Y125.523 E8.8592
G1 X60.126 Y124.996 E8.90167
G1 X59.997 Y124.894 E8.90954
G1 X59.198 Y124.203 E8.96014
G1 X58.415 Y123.421 E9.01314
G1 X57.808 Y122.725 E9.05737
G1 X57.702 Y122.594 E9.06544
G1 X57.174 Y121.894 E9.10743
G1 X57.067 Y121.74 E9.11642
G1 X56.578 Y120.98 E9.1597
G1 X56.507 Y120.86 E9.16638
G1 X56.002 Y119.923 E9.21736
G1 X55.726 Y119.334 E9.24851
G1 X55.573 Y118.985 E9.26676
G1 X55.131 Y117.885 E9.32354
G1 X54.858 Y117.267 E9.3559
G1 X54.733 Y116.964 E9.3716
G1 X54.397 Y116.06 E9.41779
G1 X54.349 Y115.913 E9.42519
G1 X54.097 Y115.049 E9.4683
G1 X54.06 Y114.899 E9.4757
G1 X53.801 Y113.607 E9.53881
G1 X53.691 Y112.707 E9.58224
G1 X53.674 Y112.506 E9.5919
G1 X53.631 Y111.626 E9.63409
G1 X53.628 Y111.46 E9.64205
G1 X53.657 Y110.413 E9.69221
G1 X53.747 Y109.485 E9.73687
G1 X53.899 Y108.528 E9.78328
G1 X53.963 Y107.861 E9.81537
G1 X53.94 Y107.184 E9.84781
G1 X53.891 Y106.808 E9.86597
G1 X53.764 Y106.046 E9.90297
G1 X53.743 Y105.886 E9.9107
G1 X53.649 Y104.831 E9.96143
G1 X53.627 Y103.938 E10.00421
G1 X53.629 Y103.738 E10.01379
G1 X53.672 Y102.854 E10.05618
G1 X53.687 Y102.672 E10.06493
G1 X53.796 Y101.78 E10.10797
G1 X53.819 Y101.635 E10.115
G1 X53.994 Y100.745 E10.15844
G1 X54.037 Y100.566 E10.16726
G1 X54.316 Y99.568 E10.21689
G1 X54.591 Y98.776 E10.25704
G1 X54.743 Y98.382 E10.27727
G1 X55.303 Y97.069 E10.34563
G1 X55.296 Y97.066 E10.346
G1 X55.433 Y96.71 E10.36427
G1 X55.566 Y96.386 E10.38104
G1 X55.957 Y95.518 E10.42664
G1 X56.027 Y95.376 E10.43422
G1 X56.455 Y94.585 E10.4773
G1 X56.535 Y94.45 E10.48481
G1 X57.1 Y93.572 E10.53482
G1 X57.461 Y93.075 E10.56424
G1 X58.165 Y92.217 E10.61739
G1 X58.802 Y91.543 E10.66181
G1 X58.935 Y91.415 E10.67065
G1 X60.049 Y90.431 E10.74184
G1 X60.1 Y90.394 E10.74486
G1 X61.205 Y89.577 E10.81068
G1 X61.199 Y89.566 E10.81128
G1 X61.386 Y89.419 E10.82267
G1 X61.863 Y88.935 E10.85522
G1 X62.158 Y88.564 E10.87792
G1 X62.685 Y87.835 E10.921
G1 X62.785 Y87.707 E10.92878
G1 X63.55 Y86.808 E10.98532
G1 X64.338 Y86.016 E11.03883
G1 X65.025 Y85.415 E11.08254
G1 X65.167 Y85.3 E11.09129
G0 F9000 X65.6 Y84.973
G1 F1125 X65.6 Y130.395 E13.26676
G0 F9000 X67.2 Y131.427
G1 F1125 X67.2 Y83.938 E15.54123
G0 F9000 X68.8 Y83.154
G1 F1125 X68.8 Y132.21 E17.89075
G0 F9000 X70.4 Y132.865
G1 F1125 X70.4 Y82.488 E20.30353
G0 F9000 X72 Y81.895
G1 F1125 X72 Y133.467 E22.77355
G0 F9000 X73.6 Y133.871
G1 F1125 X73.6 Y81.488 E25.28242
G0 F9000 X75.2 Y81.278
G1 F1125 X75.2 Y134.101 E27.81235
G0 F9000 X76.8 Y134.141
G1 F1125 X76.8 Y81.231 E30.34645
G0 F9000 X78.4 Y81.35
G1 F1125 X78.4 Y134.025 E32.8693
G0 F9000 X80 Y133.826
G1 F1125 X80 Y81.538 E35.37361
G0 F9000 X81.6 Y81.369
G1 F1125 X81.6 Y133.988 E37.89378
G0 F9000 X83.2 Y134.124
G1 F1125 X83.2 Y81.225 E40.42736
G0 F9000 X84.8 Y81.25
G1 F1125 X84.8 Y134.095 E42.95835
G0 F9000 X86.4 Y133.913
G1 F1125 X86.4 Y81.455 E45.4708
G0 F9000 X88 Y81.837
G1 F1125 X88 Y133.526 E47.94642
G0 F9000 X89.6 Y132.957
G1 F1125 X89.6 Y82.414 E50.36716
G0 F9000 X91.2 Y83.07
G1 F1125 X91.2 Y132.304 E52.7252
G0 F9000 X92.8 Y132.052
G1 F1125 X92.8 Y83.827 E55.03492
G0 F9000 X94.4 Y84.801
G1 F1125 X94.4 Y132.289 E57.30934
G0 F9000 X96 Y133.066
G1 F1125 X96 Y85.481 E59.5884
G0 F9000 X97.6 Y85.615
G1 F1125 X97.6 Y134.019 E61.90669
G0 F9000 X99.2 Y134.731
G1 F1125 X99.2 Y85.27 E64.27561
G0 F9000 X100.8 Y84.605
G1 F1125 X100.8 Y135.39 E66.70793
G0 F9000 X102.4 Y135.924
G1 F1125 X102.4 Y84.066 E69.19165
G0 F9000 X104 Y83.715
G1 F1125 X104 Y136.286 E71.70952
G0 F9000 X105.6 Y136.446
G1 F1125 X105.6 Y83.556 E74.24266
G0 F9000 X107.2 Y83.558
G1 F1125 X107.2 Y136.446 E76.77571
G0 F9000 X108.8 Y136.262
G1 F1125 X108.8 Y83.745 E79.29099
G0 F9000 X110.4 Y83.848
G1 F1125 X110.4 Y136.148 E81.79588
G0 F9000 X112 Y136.363
G1 F1125 X112 Y83.622 E84.32189
G0 F9000 X113.6 Y83.532
G1 F1125 X113.6 Y136.463 E86.857
G0 F9000 X115.2 Y136.385
G1 F1125 X115.2 Y83.613 E89.38449
G0 F9000 X116.8 Y83.875
G1 F1125 X116.8 Y136.127 E91.88708
G0 F9000 X118.4 Y135.689
G1 F1125 X118.4 Y84.32 E94.34738
G0 F9000 X120 Y84.944
G1 F1125 X120 Y135.057 E96.74752
G0 F9000 X121.6 Y134.394
G1 F1125 X121.6 Y85.606 E99.0842
G0 F9000 X123.2 Y86.421
G1 F1125 X123.2 Y133.578 E101.34277
G0 F9000 X124.8 Y132.48
G1 F1125 X124.8 Y87.524 E103.49592
G0 F9000 X126.4 Y88.99
G1 F1125 X126.4 Y131.022 E105.50902
G0 F9000 X128 Y129.043
G1 F1125 X128 Y90.968 E107.33261
G0 F9000 X129.6 Y92.409
G1 F1125 X129.6 Y127.582 E109.01721
G0 F9000 X131.2 Y126.23
G1 F1125 X131.2 Y93.778 E110.57148
G0 F9000 X132.8 Y95.624
G1 F1125 X132.8 Y124.383 E111.94888
G0 F9000 X134.4 Y121.589
G1 F1125 X134.4 Y98.414 E113.05884
G1 F2700 E108.05884
G0 F9000 X135.498 Y98.268
G0 X136.501 Y100.774
G0 X137.005 Y102.269
G0 X136 Y102.633
G1 F2700 E113.05884
G1 F1125 X136 Y117.332 E113.76284
G1 F2700 E108.76284
G0 F9000 X137.027 Y117.614
G0 X136.38 Y119.6
G0 X134.982 Y122.858
G0 X133.917 Y124.65
G0 X132.715 Y126.185
G0 X126.469 Y132.458
G0 X124.846 Y133.779
G0 X123.73 Y134.5
G0 X121.723 Y135.502
G0 X118.592 Y136.752
G0 X116.568 Y137.266
G0 X115.207 Y137.452
G0 X113.564 Y137.527
G0 X106.019 Y137.533
G0 X74.988 Y135.152
G0 X72.928 Y134.824
G0 X70.807 Y134.18
G0 X67.45 Y132.768
G0 X66.249 Y132.113
G0 X64.825 Y131.147
G0 X63.269 Y129.789
G0 X64 Y129.014
G1 F2700 E113.76284
G1 F1125 X64 Y86.355 E115.80598
G0 F9000 X62.4 Y88.229
G1 F1125 X62.4 Y127.119 E117.6686
G0 F9000 X60.8 Y125.494
G1 F1125 X60.8 Y89.876 E119.37451
G0 F9000 X59.2 Y91.18
G1 F1125 X59.2 Y124.204 E120.95618
G0 F9000 X57.6 Y122.458
G1 F1125 X57.6 Y92.905 E122.37161
G0 F9000 X56 Y95.43
G1 F1125 X56 Y119.918 E123.54445
G0 F9000 X54.4 Y116.068
G1 F1125 X54.4 Y99.326 E124.3463
G0 F300 X54.4 Y99.326 Z0.324
G0 F9000 X54.316 Y99.566
;TIME_ELAPSED:151.402091
;LAYER:-5
M140 S60
;TYPE:SUPPORT
G1 F1125 X54.59 Y98.775 E124.39642
G1 X54.686 Y98.526 E124.41239
G1 X89.251 Y133.092 E127.33893
G1 X89.379 Y133.045 E127.3471
G1 X89.717 Y132.907 E127.36895
G1 X90.244 Y132.67 E127.40355
G1 X55.104 Y97.531 E130.37869
G1 X55.302 Y97.068 E130.40883
G1 X55.296 Y97.065 E130.40924
G1 X55.432 Y96.709 E130.43205
G1 X55.509 Y96.521 E130.44421
G1 X91.266 Y132.279 E133.47167
G1 X91.322 Y132.26 E133.47522
G1 X91.985 Y132.112 E133.51588
G1 X92.467 Y132.065 E133.54488
G1 X55.944 Y95.542 E136.63715
G1 X55.956 Y95.516 E136.63887
G1 X56.027 Y95.375 E136.64832
G1 X56.435 Y94.619 E136.69975
G1 X93.988 Y132.172 E139.87923
G1 X94.021 Y132.178 E139.88124
G1 X94.677 Y132.37 E139.92216
G1 X95.301 Y132.644 E139.96296
G1 X95.878 Y132.987 E140.00315
G1 X96.703 Y133.52 E140.06195
G1 X96.822 Y133.592 E140.07027
G1 X56.982 Y93.752 E143.44339
G1 X57.1 Y93.571 E143.45632
G1 X57.461 Y93.074 E143.4931
G1 X57.577 Y92.932 E143.50408
G1 X99.483 Y134.838 E147.05211
G1 X99.536 Y134.859 E147.05552
G1 X100.662 Y135.335 E147.12871
G1 X101.022 Y135.477 E147.15188
