;FLAVOR:Marlin
;TIME:2351
;Filament used: 1.31132m
;Layer height: 0.2
;MINX:80.879
;MINY:91.5
;MINZ:0.2
;MAXX:139.121
;MAXY:128.5
;MAXZ:26
;Generated with Cura_SteamEngine 4.3.0
M140 S50
M105
M190 S50
M104 S200
M105
M109 S200
M82 ;absolute extrusion mode
M201 X500.00 Y500.00 Z100.00 E5000.00 ;Setup machine max acceleration
M203 X500.00 Y500.00 Z10.00 E50.00 ;Setup machine max feedrate
M204 P500.00 R1000.00 T500.00 ;Setup Print/Retract/Travel acceleration
M205 X8.00 Y8.00 Z0.40 E5.00 ;Setup Jerk
M220 S100 ;Reset Feedrate
M221 S100 ;Reset Flowrate

G28 ;Home

G92 E0 ;Reset Extruder
G1 Z2.0 F3000 ;Move Z Axis up
G1 X10.1 Y20 Z0.28 F5000.0 ;Move to start position
G1 X10.1 Y200.0 Z0.28 F1500.0 E15 ;Draw the first line
G1 X10.4 Y200.0 Z0.28 F5000.0 ;Move to side a little
G1 X10.4 Y20 Z0.28 F1500.0 E30 ;Draw the second line
G92 E0 ;Reset Extruder
G1 Z2.0 F3000 ;Move Z Axis up

G92 E0
G92 E0
G1 F2700 E-5
;LAYER_COUNT:130
;LAYER:0
M107
G0 F6000 X84.776 Y94.131 Z0.2
;TYPE:SKIRT
G1 F2700 E0
G1 F1200 X85.517 Y93.555 E0.03122
G1 X86.304 Y93.045 E0.06241
G1 X87.132 Y92.604 E0.09361
G1 X87.994 Y92.235 E0.1248
G1 X88.884 Y91.94 E0.15598
G1 X89.796 Y91.723 E0.18716
G1 X90.724 Y91.584 E0.21837
G1 X91.661 Y91.524 E0.2496
G1 X92.721 Y91.502 E0.28486
G1 X92.949 Y91.5 E0.29245
G1 X127.414 Y91.5 E1.43876
G1 X127.572 Y91.501 E1.44401
G1 X128.27 Y91.511 E1.46723
G1 X129.206 Y91.565 E1.49841
G1 X130.134 Y91.697 E1.52959
G1 X131.048 Y91.909 E1.5608
G1 X131.94 Y92.198 E1.59198
G1 X132.805 Y92.561 E1.62318
G1 X133.635 Y92.997 E1.65437
G1 X134.426 Y93.502 E1.68558
G1 X135.17 Y94.073 E1.71677
G1 X135.863 Y94.705 E1.74797
G1 X136.5 Y95.393 E1.77915
G1 X137.075 Y96.134 E1.81035
G1 X137.586 Y96.92 E1.84153
G1 X138.028 Y97.748 E1.87275
G1 X138.397 Y98.61 E1.90393
G1 X138.692 Y99.5 E1.93512
G1 X138.91 Y100.412 E1.96631
G1 X139.05 Y101.34 E1.99752
G1 X139.108 Y102.197 E2.02609
G1 X139.117 Y102.513 E2.03661
G1 X139.121 Y102.827 E2.04705
G1 X139.12 Y116.775 E2.51096
G1 X139.119 Y116.912 E2.51552
G1 X139.11 Y117.628 E2.53934
G1 X139.058 Y118.565 E2.57055
G1 X138.927 Y119.493 E2.60172
G1 X138.717 Y120.407 E2.63291
G1 X138.43 Y121.3 E2.66411
G1 X138.068 Y122.165 E2.6953
G1 X137.633 Y122.997 E2.72652
G1 X137.13 Y123.788 E2.7577
G1 X136.561 Y124.533 E2.78888
G1 X135.93 Y125.227 E2.82008
G1 X135.242 Y125.865 E2.85128
G1 X134.503 Y126.442 E2.88247
G1 X133.717 Y126.954 E2.91367
G1 X132.891 Y127.397 E2.94484
G1 X132.029 Y127.768 E2.97606
G1 X131.14 Y128.065 E3.00723
G1 X130.228 Y128.284 E3.03843
G1 X129.301 Y128.425 E3.06961
G1 X128.446 Y128.485 E3.09812
G1 X128.118 Y128.495 E3.10903
G1 X127.783 Y128.5 E3.12018
G1 X92.586 Y128.5 E4.29084
G1 X92.444 Y128.499 E4.29556
G1 X91.746 Y128.49 E4.31878
G1 X90.81 Y128.438 E4.34996
G1 X89.881 Y128.306 E4.38116
G1 X88.967 Y128.096 E4.41236
G1 X88.074 Y127.809 E4.44355
G1 X87.209 Y127.446 E4.47475
G1 X86.378 Y127.012 E4.50594
G1 X85.587 Y126.508 E4.53713
G1 X84.842 Y125.938 E4.56833
G1 X84.148 Y125.307 E4.59953
G1 X83.511 Y124.62 E4.63069
G1 X82.934 Y123.88 E4.6619
G1 X82.422 Y123.094 E4.6931
G1 X81.979 Y122.267 E4.7243
G1 X81.608 Y121.406 E4.75548
G1 X81.312 Y120.516 E4.78668
G1 X81.093 Y119.604 E4.81788
G1 X80.952 Y118.677 E4.84906
G1 X80.892 Y117.788 E4.8787
G1 X80.883 Y117.455 E4.88978
G1 X80.879 Y117.158 E4.89966
G1 X80.879 Y103.197 E5.364
G1 X80.88 Y103.034 E5.36942
G1 X80.89 Y102.359 E5.39188
G1 X80.944 Y101.423 E5.42306
G1 X81.077 Y100.494 E5.45427
G1 X81.29 Y99.581 E5.48546
G1 X81.579 Y98.689 E5.51664
G1 X81.943 Y97.824 E5.54785
G1 X82.379 Y96.994 E5.57904
G1 X82.884 Y96.204 E5.61022
G1 X83.455 Y95.46 E5.64142
G1 X84.087 Y94.767 E5.67261
G1 X84.776 Y94.131 E5.7038
G0 F6000 X85.165 Y94.328
G1 F1200 X85.901 Y93.775 E5.73442
G1 X86.683 Y93.289 E5.76504
G1 X87.504 Y92.872 E5.79567
G1 X88.358 Y92.528 E5.82629
G1 X89.238 Y92.259 E5.8569
G1 X90.139 Y92.068 E5.88753
G1 X91.052 Y91.955 E5.91813
G1 X91.669 Y91.924 E5.93867
G1 X92.729 Y91.902 E5.97394
G1 X92.949 Y91.9 E5.98126
G1 X127.414 Y91.9 E7.12757
G1 X127.566 Y91.901 E7.13262
G1 X128.264 Y91.911 E7.15584
G1 X129.183 Y91.964 E7.18646
G1 X130.094 Y92.097 E7.21708
G1 X130.99 Y92.308 E7.24769
G1 X131.864 Y92.596 E7.2783
G1 X132.711 Y92.959 E7.30895
G1 X133.522 Y93.394 E7.33956
G1 X134.292 Y93.898 E7.37017
G1 X135.016 Y94.467 E7.4008
G1 X135.688 Y95.097 E7.43143
G1 X136.303 Y95.782 E7.46205
G1 X136.856 Y96.518 E7.49267
G1 X137.343 Y97.299 E7.52328
G1 X137.76 Y98.12 E7.55391
G1 X138.105 Y98.974 E7.58454
G1 X138.374 Y99.854 E7.61515
G1 X138.566 Y100.755 E7.64579
G1 X138.679 Y101.668 E7.67639
G1 X138.708 Y102.208 E7.69437
G1 X138.717 Y102.524 E7.70489
G1 X138.721 Y102.827 E7.71497
G1 X138.72 Y116.775 E8.17888
G1 X138.719 Y116.907 E8.18327
G1 X138.71 Y117.623 E8.20709
G1 X138.659 Y118.542 E8.2377
G1 X138.528 Y119.454 E8.26834
G1 X138.318 Y120.35 E8.29895
G1 X138.031 Y121.225 E8.32958
G1 X137.67 Y122.072 E8.3602
G1 X137.236 Y122.884 E8.39083
G1 X136.734 Y123.655 E8.42143
G1 X136.166 Y124.38 E8.45206
G1 X135.538 Y125.053 E8.48268
G1 X134.854 Y125.669 E8.51329
G1 X134.118 Y126.223 E8.54393
G1 X133.338 Y126.712 E8.57455
G1 X132.518 Y127.13 E8.60516
G1 X131.665 Y127.477 E8.63579
G1 X130.785 Y127.747 E8.66641
G1 X129.885 Y127.941 E8.69703
G1 X128.971 Y128.055 E8.72766
G1 X128.434 Y128.085 E8.74555
G1 X128.106 Y128.095 E8.75647
G1 X127.783 Y128.1 E8.76721
G1 X92.586 Y128.1 E9.93787
G1 X92.449 Y128.099 E9.94242
G1 X91.751 Y128.09 E9.96564
G1 X90.832 Y128.038 E9.99626
G1 X89.921 Y127.907 E10.02687
G1 X89.025 Y127.697 E10.05748
G1 X88.15 Y127.41 E10.08811
G1 X87.303 Y127.048 E10.11874
G1 X86.491 Y126.614 E10.14936
G1 X85.72 Y126.112 E10.17997
G1 X84.995 Y125.544 E10.2106
G1 X84.322 Y124.915 E10.24124
G1 X83.707 Y124.231 E10.27183
G1 X83.153 Y123.496 E10.30244
G1 X82.665 Y122.715 E10.33307
G1 X82.246 Y121.895 E10.3637
G1 X81.9 Y121.042 E10.39432
G1 X81.63 Y120.162 E10.42493
G1 X81.437 Y119.261 E10.45558
G1 X81.323 Y118.348 E10.48618
G1 X81.292 Y117.777 E10.5052
G1 X81.283 Y117.444 E10.51628
G1 X81.279 Y117.158 E10.52579
G1 X81.279 Y103.197 E10.99014
G1 X81.28 Y103.04 E10.99536
G1 X81.29 Y102.365 E11.01781
G1 X81.344 Y101.446 E11.04843
G1 X81.477 Y100.535 E11.07905
G1 X81.689 Y99.639 E11.10968
G1 X81.977 Y98.765 E11.14028
G1 X82.341 Y97.919 E11.17092
G1 X82.776 Y97.108 E11.20153
G1 X83.28 Y96.337 E11.23216
G1 X83.849 Y95.614 E11.26276
G1 X84.479 Y94.942 E11.2934
G1 X85.165 Y94.328 E11.32402
G0 F6000 X85.553 Y94.529
G1 F1200 X86.284 Y94 E11.35403
G1 X87.06 Y93.537 E11.38409
G1 X87.874 Y93.146 E11.41412
G1 X88.719 Y92.827 E11.44416
G1 X89.589 Y92.585 E11.4742
G1 X90.477 Y92.42 E11.50424
G1 X91.677 Y92.324 E11.54428
G1 X92.737 Y92.302 E11.57954
G1 X92.949 Y92.3 E11.58659
G1 X127.414 Y92.3 E12.7329
G1 X127.56 Y92.301 E12.73776
G1 X128.258 Y92.311 E12.76098
G1 X129.16 Y92.364 E12.79103
G1 X130.053 Y92.496 E12.82105
G1 X130.931 Y92.707 E12.85109
G1 X131.787 Y92.995 E12.88113
G1 X132.614 Y93.357 E12.91115
G1 X133.406 Y93.792 E12.94121
G1 X134.157 Y94.294 E12.97125
G1 X134.86 Y94.861 E13.00129
G1 X135.51 Y95.488 E13.03133
G1 X136.102 Y96.17 E13.06137
G1 X136.632 Y96.901 E13.0914
G1 X137.094 Y97.677 E13.12143
G1 X137.487 Y98.49 E13.15147
G1 X137.805 Y99.335 E13.1815
G1 X138.048 Y100.205 E13.21154
G1 X138.213 Y101.093 E13.24158
G1 X138.308 Y102.22 E13.2792
G1 X138.317 Y102.536 E13.28971
G1 X138.321 Y102.827 E13.29939
G1 X138.32 Y116.775 E13.76331
G1 X138.319 Y116.902 E13.76753
G1 X138.31 Y117.618 E13.79135
G1 X138.259 Y118.52 E13.82139
G1 X138.128 Y119.413 E13.85141
G1 X137.919 Y120.292 E13.88146
G1 X137.632 Y121.148 E13.91149
G1 X137.271 Y121.976 E13.94154
G1 X136.839 Y122.769 E13.97157
G1 X136.338 Y123.52 E14.0016
G1 X135.772 Y124.224 E14.03164
G1 X135.146 Y124.876 E14.0617
G1 X134.465 Y125.469 E14.09174
G1 X133.735 Y126 E14.12176
G1 X132.96 Y126.464 E14.15181
G1 X132.147 Y126.857 E14.18184
G1 X131.303 Y127.178 E14.21187
G1 X130.433 Y127.422 E14.24193
G1 X129.546 Y127.589 E14.27195
G1 X128.422 Y127.685 E14.30947
G1 X128.094 Y127.695 E14.32038
G1 X127.783 Y127.7 E14.33073
G1 X92.586 Y127.7 E15.50138
G1 X92.454 Y127.699 E15.50577
G1 X91.756 Y127.69 E15.52899
G1 X90.855 Y127.639 E15.55901
G1 X89.961 Y127.507 E15.58906
G1 X89.083 Y127.298 E15.61908
G1 X88.226 Y127.011 E15.64914
G1 X87.399 Y126.65 E15.67915
G1 X86.606 Y126.217 E15.70921
G1 X85.855 Y125.716 E15.73923
G1 X85.151 Y125.15 E15.76928
G1 X84.5 Y124.524 E15.79931
G1 X83.907 Y123.843 E15.82935
G1 X83.377 Y123.112 E15.85938
G1 X82.913 Y122.337 E15.88942
G1 X82.519 Y121.524 E15.91947
G1 X82.199 Y120.68 E15.94949
G1 X81.955 Y119.81 E15.97955
G1 X81.789 Y118.922 E16.00959
G1 X81.692 Y117.767 E16.04814
G1 X81.683 Y117.434 E16.05922
G1 X81.679 Y117.158 E16.0684
G1 X81.679 Y103.197 E16.53275
G1 X81.68 Y103.046 E16.53777
G1 X81.69 Y102.371 E16.56022
G1 X81.743 Y101.469 E16.59028
G1 X81.876 Y100.576 E16.62031
G1 X82.088 Y99.698 E16.65035
G1 X82.376 Y98.842 E16.68039
G1 X82.739 Y98.015 E16.71042
G1 X83.173 Y97.223 E16.74046
G1 X83.676 Y96.473 E16.7705
G1 X84.243 Y95.771 E16.80051
G1 X84.87 Y95.121 E16.83055
G1 X85.553 Y94.529 E16.86061
G1 F2700 E11.86061
;MESH:L-Bracket.ipt
G0 F6000 X91.214 Y103.296
G0 X92.299 Y103.296
G0 X92.879 Y116.5
;TYPE:WALL-INNER
G1 F2700 E16.86061
G1 F1200 X92.879 Y103.5 E17.29299
G1 X126.922 Y103.5 E18.42527
G1 X127.121 Y103.5 E18.43189
G1 X127.121 Y103.699 E18.43617
G1 X127.12 Y116.5 E18.86193
G1 X92.879 Y116.5 E20.00079
G0 F6000 X92.479 Y116.9
G1 F1200 X92.479 Y103.1 E20.45978
G1 X127.322 Y103.1 E21.61867
G1 X127.521 Y103.1 E21.62528
G1 X127.521 Y103.299 E21.62957
G1 X127.52 Y116.9 E22.08194
G1 X92.479 Y116.9 E23.24741
G0 F6000 X92.079 Y117.3
;TYPE:WALL-OUTER
G1 F1200 X92.079 Y103.296 E23.71318
G1 X92.08 Y102.7 E23.733
G1 X127.921 Y102.7 E24.92508
G1 X127.92 Y117.3 E25.41068
G1 X92.079 Y117.3 E26.60276
G0 F6000 X92.349 Y117.03
G0 X92.989 Y116.11
G0 X93.269 Y116.11
;TYPE:SKIN
G1 F1200 X93.269 Y103.89 E27.00919
G1 X126.731 Y103.89 E28.12214
G1 X126.73 Y116.11 E28.52858
G1 X93.269 Y116.11 E29.6415
G0 F6000 X93.887 Y115.949
G1 F1200 X93.428 Y115.49 E29.66309
G0 F6000 X93.428 Y114.924
G1 F1200 X94.453 Y115.949 E29.7113
G0 F6000 X95.018 Y115.949
G1 F1200 X93.428 Y114.358 E29.78612
G0 F6000 X93.428 Y113.793
G1 F1200 X95.584 Y115.949 E29.88753
G0 F6000 X96.15 Y115.949
G1 F1200 X93.428 Y113.227 E30.01556
G0 F6000 X93.428 Y112.661
G1 F1200 X96.715 Y115.949 E30.1702
G0 F6000 X97.281 Y115.949
G1 F1200 X93.428 Y112.096 E30.35143
G0 F6000 X93.428 Y111.53
G1 F1200 X97.847 Y115.949 E30.55929
G0 F6000 X98.413 Y115.949
G1 F1200 X93.428 Y110.964 E30.79376
G0 F6000 X93.428 Y110.399
G1 F1200 X98.978 Y115.949 E31.05482
G0 F6000 X99.544 Y115.949
G1 F1200 X93.428 Y109.833 E31.3425
G0 F6000 X93.428 Y109.267
G1 F1200 X100.11 Y115.949 E31.6568
G0 F6000 X100.675 Y115.949
G1 F1200 X93.428 Y108.702 E31.99768
G0 F6000 X93.428 Y108.136
G1 F1200 X101.241 Y115.949 E32.36517
G0 F6000 X101.807 Y115.949
G1 F1200 X93.428 Y107.57 E32.7593
G0 F6000 X93.428 Y107.005
G1 F1200 X102.372 Y115.949 E33.18
G0 F6000 X102.938 Y115.949
G1 F1200 X93.428 Y106.439 E33.62732
G0 F6000 X93.428 Y105.873
G1 F1200 X103.504 Y115.949 E34.10126
G0 F6000 X104.069 Y115.949
G1 F1200 X93.428 Y105.307 E34.6018
G0 F6000 X93.428 Y104.742
G1 F1200 X104.635 Y115.949 E35.12895
G0 F6000 X105.201 Y115.949
G1 F1200 X93.428 Y104.176 E35.68271
G0 F6000 X93.867 Y104.05
G1 F1200 X105.766 Y115.949 E36.24241
G0 F6000 X106.332 Y115.949
G1 F1200 X94.433 Y104.05 E36.8021
G0 F6000 X94.999 Y104.05
G1 F1200 X106.898 Y115.949 E37.36179
G0 F6000 X107.463 Y115.949
G1 F1200 X95.564 Y104.05 E37.92148
G0 F6000 X96.13 Y104.05
G1 F1200 X108.029 Y115.949 E38.48118
G0 F6000 X108.595 Y115.949
G1 F1200 X96.696 Y104.05 E39.04087
G0 F6000 X97.261 Y104.05
G1 F1200 X109.161 Y115.949 E39.60058
G0 F6000 X109.726 Y115.949
G1 F1200 X97.827 Y104.05 E40.16028
G0 F6000 X98.393 Y104.05
G1 F1200 X110.292 Y115.949 E40.71997
G0 F6000 X110.858 Y115.949
G1 F1200 X98.958 Y104.05 E41.27968
G0 F6000 X99.524 Y104.05
G1 F1200 X111.423 Y115.949 E41.83938
G0 F6000 X111.989 Y115.949
G1 F1200 X100.09 Y104.05 E42.39907
G0 F6000 X100.655 Y104.05
G1 F1200 X112.555 Y115.949 E42.95879
G0 F6000 X113.12 Y115.949
G1 F1200 X101.221 Y104.05 E43.51848
G0 F6000 X101.787 Y104.05
G1 F1200 X113.686 Y115.949 E44.07817
G0 F6000 X114.252 Y115.949
G1 F1200 X102.352 Y104.05 E44.63789
G0 F6000 X102.918 Y104.05
G1 F1200 X114.817 Y115.949 E45.19758
G0 F6000 X115.383 Y115.949
G1 F1200 X103.484 Y104.05 E45.75727
G0 F6000 X104.05 Y104.05
G1 F1200 X115.949 Y115.949 E46.31696
G0 F6000 X116.514 Y115.949
G1 F1200 X104.615 Y104.05 E46.87666
G0 F6000 X105.181 Y104.05
G1 F1200 X117.08 Y115.949 E47.43635
G0 F6000 X117.646 Y115.949
G1 F1200 X105.747 Y104.05 E47.99604
G0 F6000 X106.312 Y104.05
G1 F1200 X118.211 Y115.949 E48.55573
G0 F6000 X118.777 Y115.949
G1 F1200 X106.878 Y104.05 E49.11543
G0 F6000 X107.444 Y104.05
G1 F1200 X119.343 Y115.949 E49.67512
G0 F6000 X119.909 Y115.949
G1 F1200 X108.009 Y104.05 E50.23484
G0 F6000 X108.575 Y104.05
G1 F1200 X120.474 Y115.949 E50.79453
G0 F6000 X121.04 Y115.949
G1 F1200 X109.141 Y104.05 E51.35422
G0 F6000 X109.706 Y104.05
G1 F1200 X121.606 Y115.949 E51.91394
G0 F6000 X122.171 Y115.949
G1 F1200 X110.272 Y104.05 E52.47363
G0 F6000 X110.838 Y104.05
G1 F1200 X122.737 Y115.949 E53.03332
G0 F6000 X123.303 Y115.949
G1 F1200 X111.403 Y104.05 E53.59304
G0 F6000 X111.969 Y104.05
G1 F1200 X123.868 Y115.949 E54.15273
G0 F6000 X124.434 Y115.949
G1 F1200 X112.535 Y104.05 E54.71242
G0 F6000 X113.101 Y104.05
G1 F1200 X125 Y115.949 E55.27211
G0 F6000 X125.565 Y115.949
G1 F1200 X113.666 Y104.05 E55.83181
G0 F6000 X114.232 Y104.05
G1 F1200 X126.131 Y115.949 E56.3915
G0 F6000 X126.569 Y115.821
G1 F1200 X114.798 Y104.05 E56.94517
G0 F6000 X115.363 Y104.05
G1 F1200 X126.569 Y115.256 E57.47227
G0 F6000 X126.569 Y114.69
G1 F1200 X115.929 Y104.05 E57.97274
G0 F6000 X116.495 Y104.05
G1 F1200 X126.569 Y114.124 E58.44659
G0 F6000 X126.569 Y113.559
G1 F1200 X117.06 Y104.05 E58.89386
G0 F6000 X117.626 Y104.05
G1 F1200 X126.569 Y112.993 E59.31452
G0 F6000 X126.569 Y112.427
G1 F1200 X118.192 Y104.05 E59.70854
G0 F6000 X118.757 Y104.05
G1 F1200 X126.569 Y111.862 E60.076
G0 F6000 X126.569 Y111.296
G1 F1200 X119.323 Y104.05 E60.41683
G0 F6000 X119.889 Y104.05
G1 F1200 X126.569 Y110.73 E60.73103
G0 F6000 X126.569 Y110.165
G1 F1200 X120.454 Y104.05 E61.01866
G0 F6000 X121.02 Y104.05
G1 F1200 X126.569 Y109.599 E61.27967
G0 F6000 X126.569 Y109.033
G1 F1200 X121.586 Y104.05 E61.51406
G0 F6000 X122.151 Y104.05
G1 F1200 X126.569 Y108.468 E61.72187
G0 F6000 X126.569 Y107.902
G1 F1200 X122.717 Y104.05 E61.90305
G0 F6000 X123.283 Y104.05
G1 F1200 X126.569 Y107.336 E62.05762
G0 F6000 X126.569 Y106.771
G1 F1200 X123.849 Y104.05 E62.18558
G0 F6000 X124.414 Y104.05
G1 F1200 X126.569 Y106.205 E62.28694
G0 F6000 X126.569 Y105.639
G1 F1200 X124.98 Y104.05 E62.36169
G0 F6000 X125.546 Y104.05
G1 F1200 X126.569 Y105.073 E62.4098
G0 F6000 X126.569 Y104.508
G1 F1200 X126.111 Y104.05 E62.43135
G0 F6000 X126.111 Y103.31
G1 F2700 E57.43135
;MESH:NONMESH
G0 F300 X126.111 Y103.31 Z0.4
G0 F6000 X93.061 Y103.682
G0 X92.45 Y116.5
;TIME_ELAPSED:106.529622
;LAYER:1
M140 S50
M106 S85
;TYPE:WALL-INNER
;MESH:L-Bracket.ipt
G1 F2700 E62.43135
G1 F1350 X92.45 Y104.877 E62.81793
G1 X92.451 Y103.5 E62.86373
G1 X127.351 Y103.5 E64.02451
G1 X127.55 Y103.5 E64.03113
G1 X127.55 Y103.699 E64.03541
G1 X127.549 Y116.5 E64.46117
G1 X92.45 Y116.5 E65.62857
G0 F7500 X92.05 Y116.9
G1 F1350 X92.05 Y104.877 E66.02846
G1 X92.051 Y103.1 E66.08756
G1 X127.751 Y103.1 E67.27495
G1 X127.95 Y103.1 E67.28157
G1 X127.95 Y103.299 E67.28585
G1 X127.949 Y116.9 E67.73822
G1 X92.05 Y116.9 E68.93222
G0 F7500 X91.65 Y117.3
;TYPE:WALL-OUTER
G1 F1350 X91.65 Y104.877 E69.34541
G1 X91.651 Y102.7 E69.41782
G1 X128.35 Y102.7 E70.63844
G1 X128.349 Y117.3 E71.12403
G1 X91.65 Y117.3 E72.34465
G0 F7500 X91.92 Y117.03
G0 X92.56 Y116.11
G0 X92.84 Y116.11
;TYPE:SKIN
G1 F1350 X92.84 Y104.877 E72.71826
G1 X92.841 Y103.89 E72.75109
G1 X127.16 Y103.89 E73.89254
G1 X127.159 Y116.11 E74.29898
G1 X92.84 Y116.11 E75.44043
G0 F7500 X92.56 Y116.11
G0 X92.561 Y104.421
G0 X93.001 Y104.422
G1 F1350 X93.374 Y104.049 E75.45798
G0 F7500 X93.94 Y104.049
