;FLAVOR:Marlin
;TIME:432
;Filament used: 0.0967918m
;Layer height: 0.1
;Generated with Cura_SteamEngine 4.0.0
M140 S60
M105
M190 S60
M104 S200
M105
M109 S200
M82 ;absolute extrusion mode
; Ender 3 Custom Start G-code
G28 ; Home all axes
G92 E0 ; Reset Extruder
G1 Z2.0 F3000 ; Move Z Axis up little to prevent scratching of Heat Bed
G1 X0.1 Y20 Z0.3 F5000.0 ; Move to start position
G1 X0.1 Y200.0 Z0.3 F1500.0 E15 ; Draw the first line
G1 X0.4 Y200.0 Z0.3 F5000.0 ; Move to side a little
G1 X0.4 Y20 Z0.3 F1500.0 E30 ; Draw the second line
G92 E0 ; Reset Extruder
G1 Z2.0 F3000 ; Move Z Axis up little to prevent scratching of Heat Bed
; End of custom start GCode
G92 E0
G1 F2400 E-5
;LAYER_COUNT:30
;LAYER:0
M107
M204 S5000
M205 X30 Y30
;MESH:EndCap_bot.stl(2)
G0 F3600 X109.749 Y106.123 Z0.2
M204 S500
M205 X20 Y20
;TYPE:WALL-INNER
G1 F2400 E0
G1 F1200 X109.91 Y106.162 E0.00551
G1 X110.088 Y106.231 E0.01186
G1 X110.23 Y106.307 E0.01722
G1 X110.382 Y106.416 E0.02344
G1 X110.514 Y106.537 E0.02939
G1 X110.624 Y106.668 E0.03508
G1 X110.718 Y106.816 E0.04091
G1 X110.803 Y106.992 E0.04741
G1 X110.828 Y107.06 E0.04982
G1 X110.872 Y107.233 E0.05576
G1 X110.896 Y107.414 E0.06183
G1 X110.886 Y107.681 E0.07072
G1 X110.854 Y107.85 E0.07644
G1 X110.799 Y108.017 E0.08229
G1 X110.721 Y108.18 E0.0883
G1 X110.623 Y108.334 E0.09437
G1 X110.577 Y108.393 E0.09686
G1 X110.446 Y108.53 E0.10316
G1 X110.31 Y108.64 E0.10898
G1 X110.165 Y108.731 E0.11468
G1 X109.999 Y108.806 E0.12073
G1 X109.826 Y108.86 E0.12676
G1 X109.577 Y108.898 E0.13514
G1 X109.388 Y108.894 E0.14143
G1 X109.21 Y108.869 E0.14741
G1 X109.041 Y108.822 E0.15324
G1 X108.881 Y108.755 E0.15901
G1 X108.661 Y108.62 E0.16759
G1 X108.517 Y108.494 E0.17396
G1 X108.4 Y108.365 E0.17975
G1 X108.296 Y108.213 E0.18588
G1 X108.217 Y108.06 E0.1916
G1 X108.187 Y107.985 E0.19429
G1 X108.135 Y107.808 E0.20043
G1 X108.108 Y107.635 E0.20625
G1 X108.102 Y107.452 E0.21234
G1 X108.119 Y107.279 E0.21812
G1 X108.157 Y107.106 E0.22401
G1 X108.218 Y106.939 E0.22993
G1 X108.299 Y106.783 E0.23577
G1 X108.445 Y106.579 E0.24412
G1 X108.636 Y106.398 E0.25287
G1 X108.805 Y106.285 E0.25963
G1 X108.955 Y106.212 E0.26518
G1 X109.205 Y106.131 E0.27392
G1 X109.387 Y106.106 E0.28003
G1 X109.562 Y106.103 E0.28585
G1 X109.749 Y106.123 E0.29211
M204 S5000
M205 X30 Y30
G0 F3600 X109.817 Y105.728
M204 S500
M205 X20 Y20
;TYPE:WALL-OUTER
G1 F1200 X110.027 Y105.779 E0.29929
G1 X110.253 Y105.866 E0.30735
G1 X110.445 Y105.969 E0.31459
G1 X110.633 Y106.103 E0.32227
G1 X110.803 Y106.259 E0.32995
G1 X110.95 Y106.435 E0.33757
G1 X111.069 Y106.621 E0.34492
G1 X111.172 Y106.836 E0.35285
G1 X111.208 Y106.935 E0.35635
G1 X111.267 Y107.165 E0.36425
G1 X111.295 Y107.379 E0.37143
G1 X111.299 Y107.493 E0.37522
G1 X111.283 Y107.734 E0.38325
G1 X111.242 Y107.95 E0.39057
G1 X111.171 Y108.165 E0.3981
G1 X111.069 Y108.379 E0.40598
G1 X110.952 Y108.563 E0.41323
G1 X110.88 Y108.655 E0.41712
G1 X110.719 Y108.824 E0.42488
G1 X110.544 Y108.966 E0.43238
G1 X110.351 Y109.086 E0.43994
G1 X110.143 Y109.18 E0.44753
G1 X109.923 Y109.249 E0.4552
G1 X109.691 Y109.29 E0.46303
G1 X109.593 Y109.298 E0.4663
G1 X109.356 Y109.294 E0.47419
G1 X109.132 Y109.262 E0.48171
G1 X108.905 Y109.199 E0.48955
G1 X108.703 Y109.114 E0.49684
G1 X108.505 Y108.999 E0.50445
G1 X108.414 Y108.936 E0.50814
G1 X108.237 Y108.781 E0.51596
G1 X108.083 Y108.61 E0.52362
G1 X107.953 Y108.421 E0.53124
G1 X107.852 Y108.225 E0.53858
G1 X107.809 Y108.117 E0.54244
G1 X107.745 Y107.9 E0.54997
G1 X107.709 Y107.668 E0.55778
G1 X107.701 Y107.442 E0.5653
G1 X107.723 Y107.216 E0.57285
G1 X107.773 Y106.993 E0.58045
G1 X107.852 Y106.775 E0.58817
G1 X107.954 Y106.579 E0.59551
G1 X108.09 Y106.381 E0.6035
G1 X108.149 Y106.309 E0.6066
G1 X108.33 Y106.132 E0.61502
G1 X108.399 Y106.075 E0.618
G1 X108.603 Y105.939 E0.62615
G1 X108.805 Y105.84 E0.63363
G1 X109.026 Y105.763 E0.64142
G1 X109.124 Y105.739 E0.64477
G1 X109.356 Y105.706 E0.65257
G1 X109.584 Y105.702 E0.66015
G1 X109.817 Y105.728 E0.66795
M204 S5000
M205 X30 Y30
G0 F3600 X110.011 Y105.775
G0 X109.798 Y106.536
M204 S500
M205 X20 Y20
;TYPE:SKIN
G1 F1200 X109.924 Y106.584 E0.67243
G1 X110.015 Y106.634 E0.67589
G1 X110.138 Y106.722 E0.68092
G1 X110.23 Y106.806 E0.68506
G1 X110.31 Y106.9 E0.68917
G1 X110.376 Y107.006 E0.69332
G1 X110.455 Y107.177 E0.69958
G1 X110.489 Y107.308 E0.70409
G1 X110.505 Y107.426 E0.70805
G1 X110.498 Y107.633 E0.71494
G1 X110.473 Y107.759 E0.71921
G1 X110.434 Y107.877 E0.72334
G1 X110.382 Y107.986 E0.72736
G1 X110.283 Y108.136 E0.73334
G1 X110.189 Y108.235 E0.73788
G1 X110.072 Y108.329 E0.74287
G1 X109.979 Y108.387 E0.74651
G1 X109.862 Y108.44 E0.75079
G1 X109.743 Y108.477 E0.75493
G1 X109.55 Y108.508 E0.76143
G1 X109.417 Y108.504 E0.76586
G1 X109.293 Y108.487 E0.77002
G1 X109.158 Y108.449 E0.77469
G1 X109.065 Y108.411 E0.77803
G1 X108.895 Y108.306 E0.78467
G1 X108.784 Y108.208 E0.7896
G1 X108.71 Y108.127 E0.79325
G1 X108.634 Y108.016 E0.79772
G1 X108.556 Y107.856 E0.80364
G1 X108.517 Y107.727 E0.80812
G1 X108.498 Y107.597 E0.81249
G1 X108.492 Y107.463 E0.81695
G1 X108.504 Y107.342 E0.821
G1 X108.532 Y107.215 E0.82532
G1 X108.576 Y107.096 E0.82954
G1 X108.633 Y106.988 E0.83361
G1 X108.739 Y106.837 E0.83974
G1 X108.884 Y106.7 E0.84638
G1 X108.994 Y106.627 E0.85077
G1 X109.104 Y106.574 E0.85483
G1 X109.294 Y106.512 E0.86148
G1 X109.414 Y106.496 E0.8655
G1 X109.544 Y106.493 E0.86983
G1 X109.685 Y106.509 E0.87455
G1 X109.798 Y106.536 E0.87841
M204 S5000
M205 X30 Y30
G0 F3600 X110.322 Y107.493
M204 S500
M205 X20 Y20
G1 F1200 X109.502 Y106.674 E0.91696
M204 S5000
M205 X30 Y30
G0 F3600 X109.062 Y106.799
M204 S500
M205 X20 Y20
G1 F1200 X110.199 Y107.936 E0.97044
M204 S5000
M205 X30 Y30
G0 F3600 X109.911 Y108.214
M204 S500
M205 X20 Y20
G1 F1200 X108.783 Y107.086 E1.0235
M204 S5000
M205 X30 Y30
G0 F3600 X108.675 Y107.543
M204 S500
M205 X20 Y20
G1 F1200 X109.455 Y108.324 E1.06021
G1 X109.525 Y108.394
M204 S5000
M205 X30 Y30
G1 F2400 E-3.93979
;MESH:EndCap.stl(4)
G0 F3600 X110.835 Y107.845
G0 X112.096 Y108.086
G0 X115.922 Y108.017
G0 X116.938 Y108.824
G0 X117.648 Y108.715
G0 X117.666 Y108.617
M204 S500
M205 X20 Y20
;TYPE:WALL-INNER
G1 F2400 E1.06021
G1 F1200 X117.781 Y108.646 E1.06415
G1 X117.881 Y108.686 E1.06774
G1 X117.982 Y108.742 E1.07158
G1 X118.074 Y108.809 E1.07536
G1 X118.151 Y108.881 E1.07887
G1 X118.235 Y108.981 E1.08321
G1 X118.28 Y109.054 E1.08606
G1 X118.339 Y109.177 E1.0906
G1 X118.37 Y109.273 E1.09396
G1 X118.392 Y109.388 E1.09785
G1 X118.399 Y109.5 E1.10158
G1 X118.392 Y109.612 E1.10532
G1 X118.37 Y109.727 E1.10921
G1 X118.339 Y109.823 E1.11257
G1 X118.28 Y109.946 E1.1171
G1 X118.235 Y110.019 E1.11996
G1 X118.151 Y110.119 E1.1243
G1 X118.074 Y110.191 E1.12781
G1 X117.982 Y110.258 E1.13159
G1 X117.881 Y110.314 E1.13543
G1 X117.781 Y110.354 E1.13901
G1 X117.666 Y110.383 E1.14296
G1 X117.556 Y110.397 E1.14665
G1 X117.444 Y110.397 E1.15037
G1 X117.334 Y110.383 E1.15406
G1 X117.219 Y110.354 E1.15801
G1 X117.119 Y110.314 E1.16159
G1 X117.018 Y110.258 E1.16543
G1 X116.926 Y110.191 E1.16921
G1 X116.849 Y110.119 E1.17272
G1 X116.765 Y110.019 E1.17706
G1 X116.72 Y109.946 E1.17992
G1 X116.661 Y109.823 E1.18445
G1 X116.63 Y109.727 E1.18781
G1 X116.608 Y109.612 E1.1917
G1 X116.601 Y109.5 E1.19544
G1 X116.608 Y109.388 E1.19917
G1 X116.63 Y109.273 E1.20306
G1 X116.661 Y109.177 E1.20642
G1 X116.72 Y109.054 E1.21095
G1 X116.765 Y108.981 E1.21381
G1 X116.849 Y108.881 E1.21815
G1 X116.926 Y108.809 E1.22166
G1 X117.018 Y108.742 E1.22544
G1 X117.119 Y108.686 E1.22928
G1 X117.219 Y108.646 E1.23287
G1 X117.334 Y108.617 E1.23681
G1 X117.444 Y108.603 E1.2405
G1 X117.556 Y108.603 E1.24422
G1 X117.666 Y108.617 E1.24791
M204 S5000
M205 X30 Y30
G0 F3600 X117.739 Y108.223
M204 S500
M205 X20 Y20
;TYPE:WALL-OUTER
G1 F1200 X117.902 Y108.264 E1.2535
G1 X118.054 Y108.325 E1.25895
G1 X118.198 Y108.404 E1.26441
G1 X118.326 Y108.497 E1.26967
G1 X118.447 Y108.61 E1.27518
G1 X118.555 Y108.74 E1.2808
G1 X118.635 Y108.867 E1.28579
G1 X118.71 Y109.026 E1.29164
G1 X118.758 Y109.172 E1.29675
G1 X118.789 Y109.337 E1.30234
G1 X118.799 Y109.5 E1.30777
G1 X118.789 Y109.663 E1.3132
G1 X118.758 Y109.828 E1.31878
G1 X118.71 Y109.974 E1.3239
G1 X118.635 Y110.133 E1.32974
G1 X118.555 Y110.26 E1.33474
G1 X118.447 Y110.39 E1.34036
G1 X118.326 Y110.503 E1.34586
G1 X118.198 Y110.596 E1.35113
G1 X118.054 Y110.675 E1.35659
G1 X117.902 Y110.736 E1.36204
G1 X117.739 Y110.777 E1.36763
G1 X117.585 Y110.797 E1.37279
G1 X117.415 Y110.797 E1.37845
G1 X117.261 Y110.777 E1.38361
G1 X117.098 Y110.736 E1.3892
G1 X116.946 Y110.675 E1.39465
G1 X116.802 Y110.596 E1.40011
G1 X116.674 Y110.503 E1.40537
G1 X116.553 Y110.39 E1.41088
G1 X116.445 Y110.26 E1.4165
G1 X116.365 Y110.133 E1.42149
G1 X116.29 Y109.974 E1.42734
G1 X116.242 Y109.828 E1.43245
G1 X116.211 Y109.663 E1.43804
G1 X116.201 Y109.5 E1.44347
G1 X116.211 Y109.337 E1.4489
G1 X116.242 Y109.172 E1.45448
G1 X116.29 Y109.026 E1.4596
G1 X116.365 Y108.867 E1.46544
G1 X116.445 Y108.74 E1.47043
G1 X116.553 Y108.61 E1.47606
G1 X116.674 Y108.497 E1.48156
G1 X116.802 Y108.404 E1.48682
G1 X116.946 Y108.325 E1.49229
G1 X117.098 Y108.264 E1.49774
G1 X117.261 Y108.223 E1.50333
G1 X117.415 Y108.203 E1.50849
G1 X117.585 Y108.203 E1.51414
G1 X117.739 Y108.223 E1.51931
M204 S5000
M205 X30 Y30
G0 F3600 X117.902 Y108.264
G0 X117.931 Y108.275
G0 X117.713 Y109.038
M204 S500
M205 X20 Y20
;TYPE:SKIN
G1 F1200 X117.821 Y109.108 E1.52359
G1 X117.919 Y109.211 E1.52832
G1 X117.974 Y109.317 E1.53229
G1 X118.003 Y109.431 E1.5362
G1 X118.003 Y109.569 E1.54079
G1 X117.974 Y109.683 E1.54471
G1 X117.919 Y109.789 E1.54868
G1 X117.821 Y109.892 E1.55341
G1 X117.713 Y109.962 E1.55769
G1 X117.586 Y110.001 E1.56211
G1 X117.461 Y110.007 E1.56627
G1 X117.338 Y109.981 E1.57045
G1 X117.229 Y109.929 E1.57447
G1 X117.131 Y109.847 E1.57872
G1 X117.081 Y109.789 E1.58126
G1 X117.026 Y109.683 E1.58523
G1 X116.997 Y109.569 E1.58915
G1 X116.997 Y109.431 E1.59374
G1 X117.026 Y109.317 E1.59765
G1 X117.081 Y109.211 E1.60162
G1 X117.179 Y109.108 E1.60635
G1 X117.287 Y109.038 E1.61063
G1 X117.414 Y108.999 E1.61505
G1 X117.539 Y108.993 E1.61921
G1 X117.586 Y108.999 E1.62079
G1 X117.713 Y109.038 E1.62521
M204 S5000
M205 X30 Y30
G0 F3600 X117.231 Y109.312
M204 S500
M205 X20 Y20
G1 F1200 X117.684 Y109.764 E1.64649
M204 S5000
M205 X30 Y30
G1 F2400 E-3.35351
;MESH:EndCap.stl(1)
G0 F3600 X117.555 Y110.378
G0 X117.555 Y111.662
G0 X117.555 Y115.338
G0 X117.555 Y116.622
G0 X117.648 Y116.715
G0 X117.666 Y116.617
M204 S500
M205 X20 Y20
;TYPE:WALL-INNER
G1 F2400 E1.64649
G1 F1200 X117.781 Y116.646 E1.65044
G1 X117.881 Y116.686 E1.65402
G1 X117.982 Y116.742 E1.65786
G1 X118.074 Y116.809 E1.66164
G1 X118.151 Y116.881 E1.66515
G1 X118.235 Y116.981 E1.66949
G1 X118.28 Y117.054 E1.67235
G1 X118.339 Y117.177 E1.67688
G1 X118.37 Y117.273 E1.68024
G1 X118.392 Y117.388 E1.68413
G1 X118.399 Y117.5 E1.68787
G1 X118.392 Y117.612 E1.6916
G1 X118.37 Y117.727 E1.69549
G1 X118.339 Y117.823 E1.69885
G1 X118.28 Y117.946 E1.70338
G1 X118.235 Y118.019 E1.70624
G1 X118.151 Y118.119 E1.71058
G1 X118.074 Y118.191 E1.71409
G1 X117.982 Y118.258 E1.71787
G1 X117.881 Y118.314 E1.72171
G1 X117.781 Y118.354 E1.7253
G1 X117.666 Y118.383 E1.72924
G1 X117.556 Y118.397 E1.73293
G1 X117.444 Y118.397 E1.73665
G1 X117.334 Y118.383 E1.74034
G1 X117.219 Y118.354 E1.74429
G1 X117.119 Y118.314 E1.74787
G1 X117.018 Y118.258 E1.75171
G1 X116.926 Y118.191 E1.7555
G1 X116.849 Y118.119 E1.759
G1 X116.765 Y118.019 E1.76335
G1 X116.72 Y117.946 E1.7662
G1 X116.661 Y117.823 E1.77073
G1 X116.63 Y117.727 E1.77409
G1 X116.608 Y117.612 E1.77798
G1 X116.601 Y117.5 E1.78172
G1 X116.608 Y117.388 E1.78545
G1 X116.63 Y117.273 E1.78934
G1 X116.661 Y117.177 E1.7927
G1 X116.72 Y117.054 E1.79724
G1 X116.765 Y116.981 E1.80009
G1 X116.849 Y116.881 E1.80443
G1 X116.926 Y116.809 E1.80794
G1 X117.018 Y116.742 E1.81172
G1 X117.119 Y116.686 E1.81556
G1 X117.219 Y116.646 E1.81915
G1 X117.334 Y116.617 E1.82309
G1 X117.444 Y116.603 E1.82678
G1 X117.556 Y116.603 E1.8305
G1 X117.666 Y116.617 E1.83419
M204 S5000
M205 X30 Y30
G0 F3600 X117.739 Y116.223
M204 S500
M205 X20 Y20
;TYPE:WALL-OUTER
G1 F1200 X117.902 Y116.264 E1.83978
G1 X118.054 Y116.325 E1.84523
G1 X118.198 Y116.404 E1.85069
G1 X118.326 Y116.497 E1.85596
G1 X118.447 Y116.61 E1.86146
G1 X118.555 Y116.74 E1.86708
G1 X118.635 Y116.867 E1.87208
G1 X118.71 Y117.026 E1.87792
G1 X118.758 Y117.172 E1.88303
G1 X118.789 Y117.337 E1.88862
G1 X118.799 Y117.5 E1.89405
G1 X118.789 Y117.663 E1.89948
G1 X118.758 Y117.828 E1.90507
G1 X118.71 Y117.974 E1.91018
G1 X118.635 Y118.133 E1.91602
G1 X118.555 Y118.26 E1.92102
G1 X118.447 Y118.39 E1.92664
G1 X118.326 Y118.503 E1.93214
G1 X118.198 Y118.596 E1.93741
G1 X118.054 Y118.675 E1.94287
G1 X117.902 Y118.736 E1.94832
G1 X117.739 Y118.777 E1.95391
G1 X117.585 Y118.797 E1.95907
G1 X117.415 Y118.797 E1.96473
G1 X117.261 Y118.777 E1.96989
G1 X117.098 Y118.736 E1.97548
G1 X116.946 Y118.675 E1.98093
G1 X116.802 Y118.596 E1.98639
G1 X116.674 Y118.503 E1.99165
G1 X116.553 Y118.39 E1.99716
G1 X116.445 Y118.26 E2.00278
G1 X116.365 Y118.133 E2.00777
G1 X116.29 Y117.974 E2.01362
G1 X116.242 Y117.828 E2.01873
G1 X116.211 Y117.663 E2.02432
G1 X116.201 Y117.5 E2.02975
G1 X116.211 Y117.337 E2.03518
G1 X116.242 Y117.172 E2.04076
G1 X116.29 Y117.026 E2.04588
G1 X116.365 Y116.867 E2.05172
G1 X116.445 Y116.74 E2.05672
G1 X116.553 Y116.61 E2.06234
G1 X116.674 Y116.497 E2.06784
G1 X116.802 Y116.404 E2.07311
G1 X116.946 Y116.325 E2.07857
G1 X117.098 Y116.264 E2.08402
G1 X117.261 Y116.223 E2.08961
G1 X117.415 Y116.203 E2.09477
G1 X117.585 Y116.203 E2.10043
G1 X117.739 Y116.223 E2.10559
M204 S5000
M205 X30 Y30
G0 F3600 X117.902 Y116.264
G0 X117.931 Y116.275
G0 X117.713 Y117.038
M204 S500
M205 X20 Y20
;TYPE:SKIN
G1 F1200 X117.821 Y117.108 E2.10987
G1 X117.919 Y117.211 E2.1146
G1 X117.974 Y117.317 E2.11857
G1 X118.003 Y117.431 E2.12248
G1 X118.003 Y117.569 E2.12707
G1 X117.974 Y117.683 E2.13099
G1 X117.919 Y117.789 E2.13496
G1 X117.821 Y117.892 E2.13969
G1 X117.713 Y117.962 E2.14397
G1 X117.586 Y118.001 E2.14839
G1 X117.461 Y118.007 E2.15255
G1 X117.338 Y117.981 E2.15673
G1 X117.229 Y117.929 E2.16075
G1 X117.131 Y117.847 E2.165
G1 X117.081 Y117.789 E2.16754
G1 X117.026 Y117.683 E2.17152
G1 X116.997 Y117.569 E2.17543
G1 X116.997 Y117.431 E2.18002
G1 X117.026 Y117.317 E2.18393
G1 X117.081 Y117.211 E2.1879
G1 X117.179 Y117.108 E2.19263
G1 X117.287 Y117.038 E2.19691
G1 X117.414 Y116.999 E2.20133
G1 X117.539 Y116.993 E2.20549
G1 X117.586 Y116.999 E2.20707
G1 X117.713 Y117.038 E2.21149
M204 S5000
M205 X30 Y30
G0 F3600 X117.27 Y117.27
M204 S500
M205 X20 Y20
G1 F1200 X117.728 Y117.728 E2.23303
M204 S5000
M205 X30 Y30
G1 F2400 E-2.76697
;MESH:EndCap.stl(2)
G0 F3600 X116.627 Y117.39
G0 X115.346 Y117.308
G0 X111.253 Y116.227
G0 X110.062 Y116.824
G0 X109.648 Y116.715
G0 X109.666 Y116.617
M204 S500
M205 X20 Y20
;TYPE:WALL-INNER
G1 F2400 E2.23303
G1 F1200 X109.781 Y116.646 E2.23698
G1 X109.881 Y116.686 E2.24056
G1 X109.982 Y116.742 E2.2444
G1 X110.074 Y116.809 E2.24818
G1 X110.151 Y116.881 E2.25169
G1 X110.235 Y116.981 E2.25603
G1 X110.28 Y117.054 E2.25889
G1 X110.339 Y117.177 E2.26342
G1 X110.37 Y117.273 E2.26678
G1 X110.392 Y117.388 E2.27067
G1 X110.399 Y117.5 E2.27441
G1 X110.392 Y117.612 E2.27814
G1 X110.37 Y117.727 E2.28203
G1 X110.339 Y117.823 E2.28539
G1 X110.28 Y117.946 E2.28992
G1 X110.235 Y118.019 E2.29278
G1 X110.151 Y118.119 E2.29712
G1 X110.074 Y118.191 E2.30063
G1 X109.982 Y118.258 E2.30441
G1 X109.881 Y118.314 E2.30825
G1 X109.781 Y118.354 E2.31184
G1 X109.666 Y118.383 E2.31578
G1 X109.556 Y118.397 E2.31947
G1 X109.444 Y118.397 E2.32319
G1 X109.334 Y118.383 E2.32688
G1 X109.219 Y118.354 E2.33083
G1 X109.119 Y118.314 E2.33441
G1 X109.018 Y118.258 E2.33825
G1 X108.926 Y118.191 E2.34204
G1 X108.849 Y118.119 E2.34554
G1 X108.765 Y118.019 E2.34989
G1 X108.72 Y117.946 E2.35274
G1 X108.661 Y117.823 E2.35727
G1 X108.63 Y117.727 E2.36063
G1 X108.608 Y117.612 E2.36452
G1 X108.601 Y117.5 E2.36826
G1 X108.608 Y117.388 E2.37199
G1 X108.63 Y117.273 E2.37588
G1 X108.661 Y117.177 E2.37924
