;FLAVOR:Marlin
;TIME:29813
;Filament used: 37.5865m
;Layer height: 0.28
;MINX:6.673
;MINY:7.168
;MINZ:0.28
;MAXX:217.675
;MAXY:213.768
;MAXZ:65.08
;Generated with Cura_SteamEngine 4.2.1
M140 S50
M105
M190 S50
M104 S190
M105
M109 S190
M82 ;absolute extrusion mode
M201 X500.00 Y500.00 Z100.00 E5000.00 ;Setup machine max acceleration
M203 X500.00 Y500.00 Z10.00 E50.00 ;Setup machine max feedrate
M204 P500.00 R1000.00 T500.00 ;Setup Print/Retract/Travel acceleration
M205 X8.00 Y8.00 Z0.40 E5.00 ;Setup Jerk
M220 S100 ;Reset Feedrate
M221 S100 ;Reset Flowrate

G28 ;Home

G92 E0 ;Reset Extruder
G1 Z2.0 F3000 ;Move Z Axis up
G1 X10.1 Y20 Z0.28 F5000.0 ;Move to start position
G1 X10.1 Y200.0 Z0.28 F1500.0 E15 ;Draw the first line
G1 X10.4 Y200.0 Z0.28 F5000.0 ;Move to side a little
G1 X10.4 Y20 Z0.28 F1500.0 E30 ;Draw the second line
G92 E0 ;Reset Extruder
G1 Z2.0 F3000 ;Move Z Axis up

M141 S28
G92 E0
G92 E0
G1 F2700 E-5
;LAYER_COUNT:231
;LAYER:0
M107
G0 F6000 X80.827 Y50.744 Z0.28
;TYPE:SKIRT
G1 F2700 E0
G1 F1200 X97.244 Y65.79 E1.14062
G1 X99.731 Y56.506 E1.63292
G1 X90.912 Y54.142 E2.10058
G1 X90.144 Y53.895 E2.1419
G1 X89.404 Y53.573 E2.18324
G1 X88.7 Y53.18 E2.22454
G1 X88.038 Y52.718 E2.26589
G1 X87.425 Y52.193 E2.30723
G1 X86.867 Y51.611 E2.34852
G1 X86.37 Y50.976 E2.38983
G1 X85.965 Y50.343 E2.42832
G1 X85.874 Y50.185 E2.43766
G1 X85.507 Y49.466 E2.47901
G1 X85.212 Y48.715 E2.52033
G1 X84.993 Y47.939 E2.56163
G1 X84.852 Y47.145 E2.60294
G1 X84.797 Y46.413 E2.64054
G1 X80.827 Y50.744 E2.94147
G0 F6000 X80.205 Y50.772
G1 F1200 X97.481 Y66.604 E4.14173
G1 X100.27 Y56.195 E4.69369
G1 X91.025 Y53.717 E5.18394
G1 X90.279 Y53.476 E5.2241
G1 X89.561 Y53.16 E5.26428
G1 X88.879 Y52.772 E5.30447
G1 X88.24 Y52.317 E5.34465
G1 X87.65 Y51.799 E5.38486
G1 X87.116 Y51.224 E5.42506
G1 X86.644 Y50.598 E5.46521
G1 X86.347 Y50.123 E5.49391
G1 X86.256 Y49.965 E5.50325
G1 X85.899 Y49.266 E5.54345
G1 X85.616 Y48.534 E5.58365
G1 X85.408 Y47.778 E5.62381
G1 X85.279 Y47.004 E5.664
G1 X85.229 Y46.221 E5.70419
G1 X85.259 Y45.437 E5.74437
G1 X85.289 Y45.225 E5.75534
G1 X80.205 Y50.772 E6.14074
G0 F6000 X79.583 Y50.798
G1 F1200 X97.718 Y67.419 E7.40075
G1 X100.809 Y55.884 E8.01242
G1 X91.139 Y53.292 E8.52521
G1 X90.415 Y53.057 E8.5642
G1 X89.719 Y52.747 E8.60322
G1 X89.06 Y52.365 E8.64224
G1 X88.444 Y51.917 E8.68125
G1 X87.878 Y51.406 E8.72031
G1 X87.369 Y50.839 E8.75934
G1 X86.728 Y49.903 E8.81745
G1 X86.637 Y49.745 E8.82678
G1 X86.292 Y49.066 E8.8658
G1 X86.02 Y48.355 E8.90479
G1 X85.824 Y47.618 E8.94385
G1 X85.706 Y46.866 E8.98284
G1 X85.668 Y46.105 E9.02187
G1 X85.71 Y45.344 E9.0609
G1 X85.915 Y44.243 E9.11827
G1 X86.049 Y43.743 E9.14478
G1 X79.583 Y50.798 E9.63495
G0 F6000 X78.962 Y50.825
G1 F1200 X97.956 Y68.233 E10.95463
G1 X101.348 Y55.573 E11.62595
G1 X91.253 Y52.867 E12.16128
G1 X90.551 Y52.638 E12.1991
G1 X89.879 Y52.334 E12.23688
G1 X89.243 Y51.959 E12.2747
G1 X88.651 Y51.517 E12.31254
G1 X88.11 Y51.014 E12.35038
G1 X87.627 Y50.456 E12.38818
G1 X87.109 Y49.684 E12.4358
G1 X87.018 Y49.526 E12.44514
G1 X86.685 Y48.867 E12.48295
G1 X86.425 Y48.176 E12.52077
G1 X86.241 Y47.461 E12.55859
G1 X86.135 Y46.73 E12.59642
G1 X86.109 Y45.992 E12.63424
G1 X86.163 Y45.256 E12.67204
G1 X86.34 Y44.357 E12.71898
G1 X86.939 Y42.122 E12.83749
G1 X78.962 Y50.825 E13.44219
G0 F6000 X78.34 Y50.852
G1 F1200 X98.193 Y69.046 E14.8215
G1 X101.887 Y55.262 E15.55244
G1 X91.367 Y52.442 E16.11031
G1 X90.689 Y52.219 E16.14686
G1 X90.04 Y51.922 E16.18342
G1 X89.428 Y51.553 E16.22002
G1 X88.861 Y51.119 E16.2566
G1 X88.346 Y50.624 E16.29319
G1 X87.89 Y50.074 E16.32978
G1 X87.49 Y49.464 E16.36714
G1 X87.399 Y49.306 E16.37648
G1 X87.078 Y48.668 E16.41306
G1 X86.83 Y47.999 E16.44961
G1 X86.659 Y47.305 E16.48622
G1 X86.566 Y46.597 E16.5228
G1 X86.552 Y45.883 E16.55937
G1 X86.619 Y45.172 E16.59595
G1 X86.765 Y44.471 E16.63263
G1 X87.829 Y40.499 E16.84325
G1 X78.34 Y50.852 E17.56258
G0 F6000 X77.718 Y50.88
G1 F1200 X98.43 Y69.862 E19.0016
G1 X102.426 Y54.951 E19.7923
G1 X91.481 Y52.017 E20.3727
G1 X90.827 Y51.801 E20.40798
G1 X90.202 Y51.51 E20.44329
G1 X89.616 Y51.148 E20.47857
G1 X89.075 Y50.722 E20.51384
G1 X88.587 Y50.235 E20.54916
G1 X88.159 Y49.695 E20.58445
G1 X87.872 Y49.245 E20.61179
G1 X87.781 Y49.087 E20.62113
G1 X87.472 Y48.471 E20.65642
G1 X87.237 Y47.823 E20.69173
G1 X87.078 Y47.152 E20.72705
G1 X86.998 Y46.468 E20.76233
G1 X86.998 Y45.779 E20.79762
G1 X87.078 Y45.094 E20.83294
G1 X87.19 Y44.585 E20.85964
G1 X88.719 Y38.876 E21.16236
G1 X77.718 Y50.88 E21.99636
G0 F6000 X77.097 Y50.907
G1 F1200 X98.668 Y70.676 E23.49505
G1 X102.965 Y54.64 E24.3454
G1 X91.595 Y51.592 E24.94834
G1 X90.966 Y51.383 E24.98229
G1 X90.367 Y51.098 E25.01627
G1 X89.807 Y50.744 E25.0502
G1 X89.293 Y50.325 E25.08417
G1 X88.833 Y49.848 E25.11811
G1 X88.434 Y49.318 E25.15209
G1 X88.253 Y49.025 E25.16973
G1 X88.162 Y48.867 E25.17907
G1 X87.866 Y48.274 E25.21302
G1 X87.644 Y47.649 E25.24699
G1 X87.499 Y47.002 E25.28095
G1 X87.432 Y46.342 E25.31493
G1 X87.446 Y45.679 E25.3489
G1 X87.539 Y45.023 E25.38283
G1 X87.615 Y44.699 E25.39988
G1 X89.482 Y37.729 E25.76947
G1 X89.226 Y37.672 E25.78291
G1 X77.097 Y50.907 E26.70242
G0 F6000 X76.474 Y50.934
G1 F1200 X98.905 Y71.49 E28.26083
G1 X103.433 Y54.592 E29.15689
G1 X103.464 Y54.351 E29.16933
G1 X103.239 Y54.258 E29.1818
G1 X91.709 Y51.167 E29.79323
G1 X91.106 Y50.965 E29.8258
G1 X90.534 Y50.688 E29.85836
G1 X90.001 Y50.341 E29.89093
G1 X89.515 Y49.93 E29.92353
G1 X89.085 Y49.462 E29.95609
G1 X88.634 Y48.805 E29.99691
G1 X88.543 Y48.647 E30.00625
G1 X88.261 Y48.077 E30.03882
G1 X88.053 Y47.477 E30.07135
G1 X87.921 Y46.854 E30.10396
G1 X87.869 Y46.221 E30.1365
G1 X87.897 Y45.585 E30.1691
G1 X88.04 Y44.813 E30.20932
G1 X90.026 Y37.398 E30.60251
G1 X89.074 Y37.187 E30.65245
G1 X76.474 Y50.934 E31.6076
G0 F6000 X75.853 Y50.961
G1 F1200 X99.142 Y72.305 E33.22567
G1 X103.865 Y54.677 E34.16044
G1 X103.917 Y54.284 E34.18074
G1 X103.905 Y54.195 E34.18534
G1 X103.875 Y54.122 E34.18938
G1 X103.815 Y54.043 E34.19447
G1 X103.748 Y53.992 E34.19878
G1 X103.386 Y53.841 E34.21887
G1 X91.823 Y50.742 E34.83204
G1 X91.248 Y50.547 E34.86313
G1 X90.703 Y50.278 E34.89427
G1 X90.198 Y49.939 E34.92542
G1 X89.743 Y49.537 E34.95652
G1 X89.343 Y49.079 E34.98766
G1 X89.016 Y48.586 E35.01797
G1 X88.925 Y48.428 E35.0273
G1 X88.657 Y47.882 E35.05846
G1 X88.462 Y47.307 E35.08956
G1 X88.346 Y46.71 E35.12071
G1 X88.308 Y46.104 E35.15181
G1 X88.35 Y45.498 E35.18292
G1 X88.465 Y44.927 E35.21276
G1 X90.57 Y37.068 E35.62949
G1 X88.922 Y36.702 E35.71596
G1 X75.853 Y50.961 E36.70667
G0 F6000 X75.231 Y50.988
G1 F1200 X99.38 Y73.118 E38.38442
G1 X104.299 Y54.76 E39.3579
G1 X104.361 Y54.285 E39.38244
G1 X104.335 Y54.086 E39.39271
G1 X104.258 Y53.898 E39.40312
G1 X104.13 Y53.73 E39.41394
G1 X103.971 Y53.609 E39.42417
G1 X103.527 Y53.424 E39.44881
G1 X91.937 Y50.317 E40.06342
G1 X91.39 Y50.13 E40.09303
G1 X90.875 Y49.868 E40.12262
G1 X90.4 Y49.538 E40.15225
G1 X89.976 Y49.146 E40.18183
G1 X89.61 Y48.699 E40.21142
G1 X89.397 Y48.366 E40.23166
G1 X89.306 Y48.208 E40.241
G1 X89.053 Y47.689 E40.27058
G1 X88.874 Y47.139 E40.3002
G1 X88.772 Y46.57 E40.32981
G1 X88.75 Y45.993 E40.35939
G1 X88.808 Y45.418 E40.38899
G1 X88.89 Y45.04 E40.4088
G1 X91.114 Y36.738 E40.84903
G1 X88.769 Y36.218 E40.97206
G1 X75.231 Y50.988 E41.9983
G0 F6000 X74.609 Y51.015
G1 F1200 X99.617 Y73.933 E43.73575
G1 X104.73 Y54.849 E44.74772
G1 X104.804 Y54.286 E44.77681
G1 X104.763 Y53.969 E44.79318
G1 X104.644 Y53.68 E44.80919
G1 X104.443 Y53.416 E44.82619
G1 X104.194 Y53.225 E44.84226
G1 X103.667 Y53.006 E44.87149
G1 X92.051 Y49.892 E45.48748
G1 X91.534 Y49.713 E45.5155
G1 X91.05 Y49.46 E45.54347
G1 X90.607 Y49.139 E45.5715
G1 X90.217 Y48.757 E45.59946
G1 X89.778 Y48.147 E45.63795
G1 X89.687 Y47.989 E45.64729
G1 X89.45 Y47.496 E45.67531
G1 X89.286 Y46.975 E45.70329
G1 X89.201 Y46.435 E45.73129
G1 X89.195 Y45.888 E45.75931
G1 X89.315 Y45.154 E45.7974
G1 X91.658 Y36.408 E46.26117
G1 X88.616 Y35.733 E46.42078
G1 X74.609 Y51.015 E47.48258
G0 F6000 X73.988 Y51.042
G1 F1200 X99.854 Y74.747 E49.27967
G1 X105.163 Y54.936 E50.33021
G1 X105.248 Y54.287 E50.36373
G1 X105.192 Y53.853 E50.38615
G1 X105.029 Y53.459 E50.40799
G1 X104.758 Y53.103 E50.4309
G1 X104.417 Y52.841 E50.45293
G1 X103.807 Y52.588 E50.48676
G1 X92.165 Y49.467 E51.10412
G1 X91.681 Y49.296 E51.13041
G1 X91.229 Y49.052 E51.15672
G1 X90.821 Y48.741 E51.183
G1 X90.465 Y48.37 E51.20934
G1 X90.159 Y47.927 E51.23692
G1 X90.068 Y47.769 E51.24625
G1 X89.848 Y47.306 E51.27251
G1 X89.701 Y46.813 E51.29886
G1 X89.633 Y46.304 E51.32516
G1 X89.645 Y45.791 E51.35145
G1 X89.74 Y45.268 E51.37867
G1 X92.202 Y36.078 E51.86599
G1 X88.463 Y35.249 E52.06216
G1 X73.988 Y51.042 E53.15945
G0 F6000 X73.365 Y51.069
G1 F1200 X100.091 Y75.562 E55.01629
G1 X105.594 Y55.024 E56.10536
G1 X105.692 Y54.284 E56.1436
G1 X105.622 Y53.743 E56.17154
G1 X105.413 Y53.238 E56.19953
G1 X105.072 Y52.79 E56.22837
G1 X104.638 Y52.457 E56.25639
G1 X103.947 Y52.17 E56.29472
G1 X92.279 Y49.042 E56.91346
G1 X91.829 Y48.881 E56.93794
G1 X91.412 Y48.646 E56.96246
G1 X91.041 Y48.346 E56.9869
G1 X90.725 Y47.987 E57.01139
G1 X90.541 Y47.707 E57.02856
G1 X90.45 Y47.549 E57.03789
G1 X90.247 Y47.117 E57.06234
G1 X90.118 Y46.656 E57.08686
G1 X90.069 Y46.181 E57.11132
G1 X90.099 Y45.704 E57.1358
G1 X90.165 Y45.382 E57.15264
G1 X92.686 Y35.971 E57.65167
G1 X92.765 Y35.752 E57.6636
G1 X88.31 Y34.764 E57.89733
G1 X73.365 Y51.069 E59.03023
G0 F6000 X72.744 Y51.096
G1 F1200 X100.329 Y76.376 E60.94673
G1 X106.029 Y55.104 E62.07474
G1 X106.136 Y54.289 E62.11684
G1 X106.05 Y53.627 E62.15103
G1 X105.798 Y53.017 E62.18484
G1 X105.387 Y52.477 E62.2196
G1 X104.858 Y52.071 E62.25375
G1 X104.096 Y51.754 E62.29602
G1 X92.392 Y48.617 E62.91667
G1 X91.98 Y48.466 E62.93915
G1 X91.602 Y48.242 E62.96165
G1 X91.27 Y47.953 E62.9842
G1 X90.922 Y47.488 E63.01395
G1 X90.831 Y47.33 E63.02329
G1 X90.647 Y46.931 E63.04579
G1 X90.538 Y46.505 E63.06831
G1 X90.509 Y46.066 E63.09085
G1 X90.59 Y45.496 E63.12034
G1 X93.111 Y36.085 E63.61937
G1 X93.263 Y35.672 E63.64191
G1 X93.399 Y35.442 E63.6556
G1 X88.207 Y34.291 E63.92799
G1 X88.157 Y34.28 E63.93061
G1 X72.744 Y51.096 E65.099
G0 F6000 X72.123 Y51.123
G1 F1200 X100.566 Y77.19 E67.07515
G1 X106.46 Y55.193 E68.24159
G1 X106.579 Y54.29 E68.28824
G1 X106.478 Y53.511 E68.32848
G1 X106.183 Y52.795 E68.36814
G1 X105.702 Y52.164 E68.40878
G1 X105.081 Y51.688 E68.44886
G1 X104.236 Y51.336 E68.49574
G1 X92.506 Y48.192 E69.11777
G1 X92.135 Y48.052 E69.13808
G1 X91.799 Y47.839 E69.15846
G1 X91.512 Y47.564 E69.17882
G1 X91.303 Y47.268 E69.19738
G1 X91.212 Y47.11 E69.20672
G1 X91.049 Y46.748 E69.22705
G1 X90.962 Y46.36 E69.24742
G1 X90.954 Y45.962 E69.26781
G1 X91.015 Y45.61 E69.28611
G1 X93.536 Y36.199 E69.78514
G1 X93.677 Y35.827 E69.80552
G1 X93.89 Y35.491 E69.82589
G1 X94.165 Y35.204 E69.84625
G1 X94.211 Y35.171 E69.84915
G1 X88.302 Y33.861 E70.15916
G1 X88.005 Y33.795 E70.17475
G1 X72.123 Y51.123 E71.3787
G0 F6000 X71.501 Y51.151
G1 F1200 X100.803 Y78.005 E73.41451
G1 X106.893 Y55.279 E74.61962
G1 X107.023 Y54.287 E74.67087
G1 X106.908 Y53.398 E74.71678
G1 X106.569 Y52.576 E74.76233
G1 X106.015 Y51.85 E74.8091
G1 X105.304 Y51.304 E74.85502
G1 X104.377 Y50.918 E74.90645
G1 X92.62 Y47.767 E75.52991
G1 X92.294 Y47.639 E75.54785
G1 X92.006 Y47.44 E75.56578
G1 X91.685 Y47.049 E75.59169
G1 X91.594 Y46.891 E75.60103
G1 X91.454 Y46.569 E75.61901
G1 X91.391 Y46.224 E75.63698
G1 X91.44 Y45.724 E75.66271
G1 X93.961 Y36.313 E76.16174
G1 X94.09 Y35.987 E76.1797
G1 X94.289 Y35.698 E76.19767
G1 X94.68 Y35.377 E76.22358
G1 X94.838 Y35.286 E76.23292
G1 X95.16 Y35.146 E76.25091
G1 X95.505 Y35.083 E76.26887
G1 X96.006 Y35.132 E76.29466
G1 X158.348 Y51.836 E79.60049
G1 X158.674 Y51.965 E79.61845
G1 X158.962 Y52.164 E79.63638
G1 X159.283 Y52.555 E79.66229
G1 X159.374 Y52.713 E79.67163
G1 X159.514 Y53.035 E79.68961
G1 X159.577 Y53.38 E79.70757
G1 X159.528 Y53.88 E79.73331
G1 X157.007 Y63.291 E80.23234
G1 X156.878 Y63.617 E80.2503
G1 X156.679 Y63.906 E80.26827
G1 X156.288 Y64.227 E80.29418
G1 X156.13 Y64.318 E80.30352
G1 X155.808 Y64.458 E80.32151
G1 X155.463 Y64.521 E80.33947
G1 X154.963 Y64.472 E80.3652
G1 X143.202 Y61.322 E80.98884
G1 X142.216 Y61.192 E81.03978
G1 X141.327 Y61.308 E81.0857
G1 X140.502 Y61.648 E81.13141
G1 X139.777 Y62.202 E81.17814
G1 X139.235 Y62.907 E81.22369
G1 X138.85 Y63.832 E81.27501
G1 X132.648 Y86.976 E82.50229
G1 X174.11 Y73.906 E84.72901
G1 X166.835 Y50.825 E85.96857
G1 X88.398 Y33.431 E90.08376
G1 X87.852 Y33.31 E90.11241
G1 X71.501 Y51.151 E91.35196
G0 F6000 X70.879 Y51.178
G1 F1200 X101.041 Y78.819 E93.44749
G1 X107.325 Y55.366 E94.69114
G1 X107.466 Y54.288 E94.74682
G1 X107.337 Y53.285 E94.79862
G1 X106.952 Y52.352 E94.85032
G1 X106.33 Y51.537 E94.90283
G1 X105.527 Y50.921 E94.95467
G1 X104.517 Y50.5 E95.01072
G1 X92.734 Y47.342 E95.63555
G1 X92.461 Y47.228 E95.6507
G1 X92.229 Y47.045 E95.66584
G1 X92.066 Y46.829 E95.6797
G1 X91.975 Y46.671 E95.68904
G1 X91.863 Y46.397 E95.7042
G1 X91.828 Y46.103 E95.71936
G1 X91.865 Y45.837 E95.73312
G1 X94.386 Y36.426 E96.23215
G1 X94.501 Y36.153 E96.24733
G1 X94.684 Y35.921 E96.26246
G1 X94.9 Y35.758 E96.27632
G1 X95.058 Y35.667 E96.28566
G1 X95.332 Y35.555 E96.30082
G1 X95.626 Y35.52 E96.31599
G1 X95.892 Y35.557 E96.32974
G1 X158.234 Y52.261 E99.63558
G1 X158.507 Y52.376 E99.65075
G1 X158.739 Y52.559 E99.66588
G1 X158.902 Y52.775 E99.67974
G1 X158.993 Y52.933 E99.68908
G1 X159.105 Y53.207 E99.70425
G1 X159.14 Y53.501 E99.71941
G1 X159.103 Y53.767 E99.73317
G1 X156.582 Y63.178 E100.2322
G1 X156.467 Y63.451 E100.24737
G1 X156.284 Y63.683 E100.26251
G1 X156.068 Y63.846 E100.27637
G1 X155.91 Y63.937 E100.28571
G1 X155.636 Y64.049 E100.30087
G1 X155.342 Y64.084 E100.31603
G1 X155.076 Y64.047 E100.32979
G1 X143.289 Y60.889 E100.95482
G1 X142.216 Y60.749 E101.01025
G1 X141.211 Y60.879 E101.06215
G1 X140.281 Y61.263 E101.11369
G1 X139.464 Y61.887 E101.16634
G1 X138.85 Y62.687 E101.218
G1 X138.434 Y63.685 E101.27338
G1 X132.015 Y87.637 E102.54351
G1 X174.662 Y74.194 E104.83387
G1 X167.179 Y50.451 E106.10897
G1 X88.493 Y33.002 E110.23722
G1 X87.699 Y32.826 E110.27887
G1 X70.879 Y51.178 E111.55396
G0 F6000 X70.258 Y51.205
G1 F1200 X101.321 Y79.672 E113.71209
G1 X101.332 Y79.431 E113.72445
G1 X101.39 Y79.217 E113.7358
G1 X107.759 Y55.447 E114.99626
G1 X107.91 Y54.293 E115.05588
G1 X107.765 Y53.168 E115.11398
G1 X107.337 Y52.132 E115.17139
G1 X106.645 Y51.224 E115.22987
G1 X105.748 Y50.535 E115.2878
G1 X104.664 Y50.084 E115.34794
G1 X92.848 Y46.917 E115.97452
G1 X92.641 Y46.821 E115.98621
G1 X92.447 Y46.609 E116.00093
G1 X92.356 Y46.451 E116.01027
G1 X92.278 Y46.236 E116.02198
G1 X92.29 Y45.951 E116.03659
G1 X94.811 Y36.54 E116.53563
G1 X94.908 Y36.333 E116.54734
G1 X95.12 Y36.139 E116.56206
G1 X95.278 Y36.048 E116.57139
G1 X95.493 Y35.97 E116.58311
G1 X95.778 Y35.982 E116.59772
G1 X158.12 Y52.686 E119.90355
G1 X158.327 Y52.783 E119.91526
G1 X158.521 Y52.995 E119.92998
G1 X158.612 Y53.153 E119.93932
G1 X158.69 Y53.368 E119.95103
G1 X158.678 Y53.653 E119.96565
G1 X156.157 Y63.064 E120.46468
G1 X156.06 Y63.271 E120.47639
G1 X155.848 Y63.465 E120.49111
G1 X155.69 Y63.556 E120.50045
G1 X155.475 Y63.634 E120.51216
G1 X155.19 Y63.622 E120.52677
G1 X143.369 Y60.456 E121.15359
G1 X142.216 Y60.304 E121.21316
G1 X141.099 Y60.45 E121.27086
G1 X140.059 Y60.878 E121.32846
G1 X139.151 Y61.573 E121.38703
G1 X138.466 Y62.464 E121.4446
G1 X138.016 Y63.545 E121.50457
G1 X131.586 Y87.539 E122.77692
G1 X131.489 Y87.746 E122.78863
G1 X131.285 Y87.933 E122.80281
G1 X132.023 Y88.097 E122.84153
G1 X175.215 Y74.481 E125.16118
G1 X167.523 Y50.077 E126.47179
G1 X88.588 Y32.572 E130.61311
G1 X87.547 Y32.342 E130.66772
G1 X70.258 Y51.205 E131.97833
G0 F6000 X69.803 Y51.05
G1 F1200 X69.637 Y51.232 E131.99094
G1 X103.434 Y82.206 E134.33908
G1 X132.042 Y88.551 E135.84
G1 X175.766 Y74.768 E138.18821
G1 X167.865 Y49.703 E139.53433
G1 X88.683 Y32.143 E143.68861
G1 X87.393 Y31.858 E143.75628
G1 X69.803 Y51.05 E145.08973
G1 F2700 E140.08973
G1 F600 Z0.68
G0 F6000 X92.737 Y46.232 Z0.68
