;FLAVOR:Marlin
;TIME:10268
;Filament used: 8.05619m
;Layer height: 0.2
;MINX:41.865
;MINY:47.764
;MINZ:0.2
;MAXX:177.932
;MAXY:171.969
;MAXZ:22
;Generated with Cura_SteamEngine 4.2.1
M140 S50
M105
M190 S50
M104 S190
M105
M109 S190
M82 ;absolute extrusion mode
M201 X500.00 Y500.00 Z100.00 E5000.00 ;Setup machine max acceleration
M203 X500.00 Y500.00 Z10.00 E50.00 ;Setup machine max feedrate
M204 P500.00 R1000.00 T500.00 ;Setup Print/Retract/Travel acceleration
M205 X8.00 Y8.00 Z0.40 E5.00 ;Setup Jerk
M220 S100 ;Reset Feedrate
M221 S100 ;Reset Flowrate

G28 ;Home

G92 E0 ;Reset Extruder
G1 Z2.0 F3000 ;Move Z Axis up
G1 X10.1 Y20 Z0.28 F5000.0 ;Move to start position
G1 X10.1 Y200.0 Z0.28 F1500.0 E15 ;Draw the first line
G1 X10.4 Y200.0 Z0.28 F5000.0 ;Move to side a little
G1 X10.4 Y20 Z0.28 F1500.0 E30 ;Draw the second line
G92 E0 ;Reset Extruder
G1 Z2.0 F3000 ;Move Z Axis up

M141 S28
G92 E0
G92 E0
G1 F2700 E-5
;LAYER_COUNT:108
;LAYER:0
M107
G0 F6000 X80.027 Y53.45 Z0.2
;TYPE:SKIRT
G1 F2700 E0
G1 F1200 X81.451 Y52.628 E0.06016
G1 X90.527 Y68.353 E0.72442
G1 X90.573 Y68.431 E0.72774
G1 X90.643 Y68.547 E0.73269
G1 X91.07 Y69.305 E0.76452
G1 X91.117 Y69.386 E0.76795
G1 X91.318 Y69.725 E0.78237
G1 X93.529 Y73.563 E0.94442
G1 X93.535 Y73.573 E0.94485
G1 X94.826 Y75.799 E1.03899
G1 X96.036 Y77.921 E1.12836
G1 X96.097 Y78.024 E1.13274
G1 X96.385 Y78.497 E1.153
G1 X96.453 Y78.615 E1.15799
G1 X113.452 Y108.057 E2.40181
G1 X113.461 Y108.072 E2.40245
G1 X113.944 Y108.9 E2.43752
G1 X113.943 Y108.9 E2.43755
G1 X115.505 Y111.608 E2.55193
G1 X129.324 Y135.561 E3.56366
G1 X128.775 Y135.878 E3.58685
G1 X112.537 Y107.752 E4.77506
G1 X112.529 Y107.738 E4.77565
G1 X112.236 Y107.235 E4.79694
G1 X111.979 Y106.786 E4.81587
G1 X111.75 Y106.429 E4.83139
G1 X110.686 Y104.943 E4.89826
G1 X110.317 Y104.497 E4.91943
G1 X109.891 Y104.107 E4.94056
G1 X109.416 Y103.779 E4.96168
G1 X108.652 Y103.425 E4.99249
G1 X108.238 Y103.282 E5.00851
G1 X107.68 Y103.132 E5.02965
G1 X107.106 Y103.06 E5.05082
G1 X106.528 Y103.067 E5.07197
G1 X105.702 Y103.22 E5.1027
G1 X104.856 Y103.467 E5.13495
G1 X104.531 Y103.459 E5.14684
G1 X103.957 Y103.525 E5.16798
G1 X103.488 Y103.641 E5.18565
G1 X101.521 Y104.248 E5.26097
G1 X101.325 Y104.287 E5.26828
G1 X100.765 Y104.439 E5.28951
G1 X95.879 Y106.14 E5.47879
G1 X95.347 Y106.368 E5.49997
G1 X94.852 Y106.666 E5.52111
G1 X94.675 Y106.81 E5.52946
G1 X94.112 Y107.032 E5.5516
G1 X93.698 Y107.073 E5.56682
G1 X93.136 Y107.208 E5.58796
G1 X92.771 Y107.343 E5.6022
G1 X89.729 Y108.626 E5.72299
G1 X89.491 Y108.735 E5.73257
G1 X89.193 Y108.883 E5.74474
G1 X88.551 Y109.17 E5.77047
G1 X88.432 Y109.226 E5.77528
G1 X86.515 Y110.156 E5.85323
G1 X86.411 Y110.208 E5.85749
G1 X84.47 Y111.217 E5.93752
G1 X84.355 Y111.279 E5.9423
G1 X81.915 Y112.646 E6.04463
G1 X81.65 Y112.808 E6.05599
G1 X81.311 Y113.032 E6.07086
G1 X80.732 Y113.391 E6.09578
G1 X80.667 Y113.432 E6.0986
G1 X79.558 Y114.147 E6.14687
G1 X79.501 Y114.184 E6.14936
G1 X78.573 Y114.804 E6.19019
G1 X78.483 Y114.866 E6.19419
G1 X77.692 Y115.425 E6.22963
G1 X77.632 Y115.468 E6.23233
G1 X76.747 Y116.117 E6.27248
G1 X76.689 Y116.16 E6.27512
G1 X75.884 Y116.772 E6.31212
G1 X75.791 Y116.845 E6.31644
G1 X74.915 Y117.551 E6.3576
G1 X74.841 Y117.613 E6.36114
G1 X74.268 Y118.097 E6.38858
G1 X74.206 Y118.15 E6.39156
G1 X73.218 Y119.018 E6.43968
G1 X73.142 Y119.086 E6.44341
G1 X72.209 Y119.947 E6.48986
G1 X72.082 Y120.069 E6.4963
G1 X71.354 Y120.8 E6.53405
G1 X71.281 Y120.876 E6.5379
G1 X70.334 Y121.876 E6.58829
G1 X70.247 Y121.971 E6.593
G1 X69.485 Y122.827 E6.63493
G1 X69.378 Y122.952 E6.64095
G1 X68.551 Y123.958 E6.6886
G1 X68.461 Y124.071 E6.69388
G1 X67.629 Y125.158 E6.74396
G1 X67.542 Y125.275 E6.7493
G1 X66.861 Y126.232 E6.79227
G1 X66.749 Y126.399 E6.79963
G1 X65.963 Y127.624 E6.85288
G1 X65.882 Y127.755 E6.85851
G1 X65.28 Y128.774 E6.90181
G1 X65.204 Y128.909 E6.90748
G1 X64.556 Y130.105 E6.95725
G1 X64.455 Y130.302 E6.96535
G1 X63.893 Y131.485 E7.01327
G1 X63.833 Y131.618 E7.0186
G1 X63.338 Y132.761 E7.06417
G1 X63.268 Y132.932 E7.07093
G1 X62.787 Y134.193 E7.12031
G1 X62.723 Y134.374 E7.12734
G1 X62.31 Y135.627 E7.1756
G1 X62.266 Y135.769 E7.18104
G1 X61.926 Y136.938 E7.22558
G1 X61.878 Y137.119 E7.23244
G1 X61.56 Y138.429 E7.28176
G1 X61.521 Y138.609 E7.28849
G1 X61.276 Y139.855 E7.33495
G1 X61.247 Y140.013 E7.34083
G1 X61.087 Y141.033 E7.3786
G1 X61.065 Y141.197 E7.38466
G1 X60.854 Y143.006 E7.45129
G1 X60.839 Y143.165 E7.45713
G1 X60.774 Y143.999 E7.48774
G1 X60.764 Y144.161 E7.49368
G1 X60.696 Y145.906 E7.55757
G1 X60.693 Y146.057 E7.56309
G1 X60.691 Y146.79 E7.58991
G1 X47.173 Y146.79 E8.08448
G1 X47.582 Y144.799 E8.15885
G1 X47.659 Y144.226 E8.18
G1 X47.657 Y143.78 E8.19632
G1 X47.974 Y142.55 E8.24279
G1 X48.063 Y142.408 E8.24892
G1 X48.373 Y141.664 E8.27841
G1 X49.485 Y138.05 E8.41675
G1 X50.108 Y136.208 E8.48789
G1 X50.853 Y134.175 E8.56711
G1 X51.556 Y132.408 E8.63668
G1 X52.567 Y130.043 E8.73078
G1 X53.368 Y128.283 E8.80153
G1 X54.657 Y125.707 E8.90692
G1 X55.312 Y124.443 E8.959
G1 X56.278 Y122.696 E9.03204
G1 X57.351 Y120.876 E9.10934
G1 X58.47 Y119.086 E9.18657
G1 X59.686 Y117.248 E9.2672
G1 X60.835 Y115.601 E9.34067
G1 X62.068 Y113.917 E9.41703
G1 X63.42 Y112.169 E9.49788
G1 X64.744 Y110.544 E9.57457
G1 X67.12 Y107.751 E9.70873
G1 X67.463 Y107.286 E9.72987
G1 X67.669 Y106.908 E9.74562
G1 X68.447 Y106.077 E9.78727
G1 X68.889 Y105.8 E9.80635
G1 X69.413 Y105.349 E9.83164
G1 X70.551 Y104.193 E9.89099
G1 X70.952 Y103.795 E9.91166
G1 X71.275 Y103.494 E9.92782
G1 X71.387 Y103.386 E9.93351
G1 X71.952 Y102.82 E9.96277
G1 X73.372 Y101.484 E10.0341
G1 X75.279 Y99.763 E10.12808
G1 X76.702 Y98.533 E10.1969
G1 X78.374 Y97.144 E10.27642
G1 X79.899 Y95.924 E10.34787
G1 X81.791 Y94.465 E10.43529
G1 X82.854 Y93.673 E10.48378
G1 X84.286 Y92.641 E10.54836
G1 X85.664 Y91.663 E10.61019
G1 X86.951 Y90.783 E10.66723
G1 X88.373 Y89.836 E10.72973
G1 X90.674 Y88.339 E10.83017
G1 X91.136 Y87.991 E10.85133
G1 X91.545 Y87.583 E10.87246
G1 X91.552 Y87.574 E10.87288
G1 X93.226 Y86.534 E10.94498
G1 X93.694 Y86.196 E10.9661
G1 X94.112 Y85.796 E10.98727
G1 X94.47 Y85.343 E11.0084
G1 X94.763 Y84.844 E11.02957
G1 X94.94 Y84.434 E11.04591
G1 X95.289 Y83.491 E11.08269
G1 X95.419 Y83.076 E11.0986
G1 X95.507 Y82.732 E11.11159
G1 X95.611 Y82.163 E11.13276
G1 X95.634 Y81.864 E11.14373
G1 X95.652 Y81.416 E11.16013
G1 X95.644 Y80.945 E11.17737
G1 X95.617 Y80.574 E11.19098
G1 X95.535 Y80.001 E11.21215
G1 X95.438 Y79.631 E11.22615
G1 X95.334 Y79.298 E11.23891
G1 X95.265 Y79.095 E11.24676
G1 X95.197 Y78.911 E11.25393
G1 X95.1 Y78.673 E11.26334
G1 X94.98 Y78.401 E11.27421
G1 X94.711 Y77.889 E11.29537
G1 X94.548 Y77.646 E11.30608
G1 X94.363 Y77.389 E11.31766
G1 X94.144 Y77.11 E11.33064
G1 X93.909 Y76.836 E11.34385
G1 X93.444 Y76.372 E11.36788
G1 X93.197 Y76.162 E11.37974
G1 X93.098 Y76.085 E11.38433
G1 X92.93 Y75.799 E11.39647
G1 X80.027 Y53.45 E12.34062
G0 F6000 X79.426 Y53.289
G1 F1200 X81.612 Y52.027 E12.43297
G1 X90.908 Y68.133 E13.11333
G1 X90.949 Y68.203 E13.1163
G1 X91.029 Y68.334 E13.12191
G1 X91.454 Y69.09 E13.15364
G1 X91.496 Y69.162 E13.15669
G1 X91.699 Y69.505 E13.17128
G1 X93.91 Y73.343 E13.33333
G1 X93.916 Y73.352 E13.33372
G1 X95.208 Y75.581 E13.42798
G1 X96.418 Y77.703 E13.51735
G1 X96.473 Y77.795 E13.52127
G1 X96.748 Y78.246 E13.5406
G1 X96.834 Y78.395 E13.54689
G1 X113.833 Y107.837 E14.79071
G1 X113.841 Y107.851 E14.7913
G1 X114.324 Y108.68 E14.82641
G1 X115.886 Y111.388 E14.94078
G1 X129.925 Y135.722 E15.96861
G1 X128.614 Y136.479 E16.024
G1 X112.156 Y107.972 E17.2283
G1 X112.149 Y107.96 E17.2288
G1 X111.856 Y107.457 E17.2501
G1 X111.597 Y107.004 E17.26919
G1 X111.392 Y106.685 E17.28307
G1 X110.328 Y105.199 E17.34993
G1 X109.978 Y104.779 E17.36993
G1 X109.571 Y104.414 E17.38994
G1 X109.115 Y104.113 E17.40993
G1 X108.508 Y103.841 E17.43426
G1 X108.094 Y103.698 E17.45029
G1 X107.566 Y103.558 E17.47027
G1 X107.023 Y103.496 E17.49027
G1 X106.476 Y103.514 E17.51029
G1 X105.825 Y103.643 E17.53457
G1 X104.922 Y103.907 E17.56899
G1 X104.492 Y103.902 E17.58472
G1 X103.95 Y103.975 E17.60473
G1 X103.618 Y104.061 E17.61728
G1 X101.622 Y104.677 E17.6937
G1 X101.411 Y104.719 E17.70158
G1 X100.909 Y104.855 E17.7206
G1 X96.023 Y106.556 E17.90989
G1 X95.522 Y106.773 E17.92986
G1 X95.057 Y107.061 E17.94987
G1 X94.896 Y107.196 E17.95756
G1 X94.229 Y107.46 E17.98381
G1 X93.713 Y107.517 E18.0028
G1 X92.942 Y107.748 E18.03225
G1 X89.9 Y109.031 E18.15303
G1 X89.687 Y109.128 E18.1616
G1 X89.352 Y109.294 E18.17528
G1 X88.731 Y109.572 E18.20017
G1 X88.624 Y109.622 E18.20449
G1 X86.707 Y110.552 E18.28244
G1 X86.614 Y110.599 E18.28626
G1 X84.673 Y111.608 E18.36629
G1 X84.57 Y111.663 E18.37056
G1 X82.13 Y113.03 E18.47289
G1 X81.893 Y113.175 E18.48305
G1 X81.564 Y113.393 E18.49749
G1 X80.963 Y113.765 E18.52335
G1 X80.905 Y113.802 E18.52587
G1 X79.796 Y114.517 E18.57415
G1 X79.745 Y114.55 E18.57637
G1 X78.817 Y115.17 E18.6172
G1 X78.737 Y115.226 E18.62077
G1 X77.946 Y115.785 E18.65621
G1 X77.892 Y115.823 E18.65863
G1 X77.007 Y116.472 E18.69878
G1 X76.956 Y116.511 E18.70113
G1 X76.151 Y117.123 E18.73812
G1 X76.067 Y117.188 E18.74201
G1 X75.191 Y117.894 E18.78317
G1 X75.125 Y117.949 E18.78631
G1 X74.552 Y118.433 E18.81376
G1 X74.497 Y118.48 E18.8164
G1 X73.509 Y119.348 E18.86452
G1 X73.441 Y119.409 E18.86786
G1 X72.508 Y120.27 E18.91431
G1 X72.394 Y120.38 E18.92011
G1 X71.666 Y121.111 E18.95785
G1 X71.6 Y121.178 E18.96129
G1 X70.653 Y122.178 E19.01168
G1 X70.575 Y122.263 E19.0159
G1 X69.813 Y123.119 E19.05783
G1 X69.718 Y123.231 E19.0632
G1 X68.891 Y124.237 E19.11085
G1 X68.81 Y124.339 E19.11561
G1 X67.978 Y125.426 E19.16569
G1 X67.901 Y125.531 E19.17046
G1 X67.22 Y126.488 E19.21343
G1 X67.119 Y126.636 E19.21999
G1 X66.333 Y127.861 E19.27324
G1 X66.261 Y127.979 E19.27829
G1 X65.659 Y128.998 E19.3216
G1 X65.591 Y129.118 E19.32664
G1 X64.943 Y130.314 E19.37641
G1 X64.853 Y130.491 E19.38367
G1 X64.291 Y131.674 E19.43159
G1 X64.237 Y131.793 E19.43637
G1 X63.742 Y132.936 E19.48194
G1 X63.68 Y133.089 E19.48798
G1 X63.199 Y134.35 E19.53736
G1 X63.141 Y134.512 E19.54366
G1 X62.728 Y135.765 E19.59192
G1 X62.689 Y135.892 E19.59678
G1 X62.349 Y137.061 E19.64133
G1 X62.306 Y137.223 E19.64746
G1 X61.988 Y138.533 E19.69678
G1 X61.952 Y138.693 E19.70278
G1 X61.707 Y139.939 E19.74924
G1 X61.682 Y140.081 E19.75451
G1 X61.522 Y141.101 E19.79229
G1 X61.502 Y141.248 E19.79771
G1 X61.291 Y143.057 E19.86435
G1 X61.277 Y143.199 E19.86957
G1 X61.212 Y144.033 E19.90017
G1 X61.204 Y144.178 E19.90549
G1 X61.136 Y145.923 E19.96938
G1 X61.133 Y146.059 E19.97435
G1 X61.13 Y147.23 E20.0172
G1 X46.633 Y147.23 E20.54759
G1 X47.151 Y144.71 E20.64171
G1 X47.222 Y144.168 E20.66171
G1 X47.203 Y143.779 E20.67596
G1 X47.566 Y142.371 E20.72916
G1 X47.689 Y142.174 E20.73765
G1 X47.953 Y141.535 E20.76295
G1 X49.076 Y137.886 E20.90263
G1 X49.691 Y136.065 E20.97295
G1 X50.445 Y134.011 E21.053
G1 X51.151 Y132.236 E21.12289
G1 X52.148 Y129.903 E21.21571
G1 X52.973 Y128.09 E21.28859
G1 X54.291 Y125.456 E21.39635
G1 X54.929 Y124.225 E21.44708
G1 X55.884 Y122.497 E21.51931
G1 X56.965 Y120.664 E21.59716
G1 X58.105 Y118.84 E21.67586
G1 X59.324 Y116.998 E21.75667
G1 X60.471 Y115.353 E21.83004
G1 X61.73 Y113.633 E21.90803
G1 X63.058 Y111.916 E21.98744
G1 X64.39 Y110.281 E22.0646
G1 X66.785 Y107.466 E22.19982
G1 X67.107 Y107.024 E22.21983
G1 X67.271 Y106.689 E22.23347
G1 X68.175 Y105.723 E22.28188
G1 X68.218 Y105.704 E22.2836
G1 X68.678 Y105.409 E22.30359
G1 X69.099 Y105.041 E22.32405
G1 X70.208 Y103.914 E22.3819
G1 X70.638 Y103.487 E22.40407
G1 X70.976 Y103.172 E22.42097
G1 X71.076 Y103.075 E22.42607
G1 X71.65 Y102.499 E22.45582
G1 X73.099 Y101.137 E22.52858
G1 X74.982 Y99.437 E22.62139
G1 X76.454 Y98.166 E22.69254
G1 X78.066 Y96.826 E22.76924
G1 X79.616 Y95.587 E22.84183
G1 X81.542 Y94.101 E22.93084
G1 X82.574 Y93.332 E22.97792
G1 X84.032 Y92.282 E23.04366
G1 X85.448 Y91.277 E23.10719
G1 X86.665 Y90.445 E23.16112
G1 X88.134 Y89.467 E23.22569
G1 X90.435 Y87.97 E23.32612
G1 X90.87 Y87.639 E23.34612
G1 X91.252 Y87.248 E23.36612
G1 X91.261 Y87.236 E23.36667
G1 X92.993 Y86.16 E23.44127
G1 X93.435 Y85.838 E23.46127
G1 X93.826 Y85.456 E23.48127
G1 X94.156 Y85.02 E23.50128
G1 X94.42 Y84.542 E23.52126
G1 X94.527 Y84.281 E23.53158
G1 X94.876 Y83.338 E23.56836
G1 X94.992 Y82.967 E23.58259
G1 X95.08 Y82.623 E23.59558
G1 X95.194 Y81.846 E23.62431
G1 X95.212 Y81.398 E23.64071
G1 X95.205 Y80.977 E23.65612
G1 X95.178 Y80.606 E23.66973
G1 X95.099 Y80.065 E23.68973
G1 X95.018 Y79.762 E23.70121
G1 X94.914 Y79.429 E23.71397
G1 X94.852 Y79.248 E23.72097
G1 X94.784 Y79.064 E23.72815
G1 X94.698 Y78.85 E23.73658
G1 X94.578 Y78.578 E23.74746
G1 X94.191 Y77.903 E23.77593
G1 X94.006 Y77.646 E23.78751
G1 X93.81 Y77.396 E23.79913
G1 X93.575 Y77.122 E23.81234
G1 X93.159 Y76.708 E23.83381
G1 X92.912 Y76.498 E23.84568
G1 X92.762 Y76.382 E23.85261
G1 X92.539 Y76.002 E23.86873
G1 X79.426 Y53.289 E24.82826
G0 F6000 X78.825 Y53.128
G1 F1200 X81.773 Y51.426 E24.9528
G1 X91.289 Y67.914 E25.64929
G1 X91.325 Y67.975 E25.65188
G1 X91.408 Y68.112 E25.65774
G1 X91.837 Y68.874 E25.68974
G1 X91.874 Y68.938 E25.69244
G1 X92.101 Y69.321 E25.70873
G1 X92.102 Y69.321 E25.70877
G1 X94.292 Y73.123 E25.86929
G1 X94.296 Y73.132 E25.86965
G1 X95.59 Y75.363 E25.96401
G1 X96.8 Y77.485 E26.05338
G1 X96.848 Y77.566 E26.05683
G1 X97.136 Y78.039 E26.07709
G1 X97.215 Y78.175 E26.08284
G1 X114.214 Y107.617 E27.32666
G1 X114.221 Y107.629 E27.32717
G1 X114.705 Y108.46 E27.36236
G1 X116.267 Y111.168 E27.47673
G1 X130.526 Y135.883 E28.52066
G1 X128.453 Y137.08 E28.60824
G1 X111.775 Y108.192 E29.82863
G1 X111.768 Y108.181 E29.82911
G1 X111.475 Y107.678 E29.8504
G1 X111.215 Y107.223 E29.86958
G1 X111.034 Y106.941 E29.88184
G1 X109.97 Y105.455 E29.9487
G1 X109.64 Y105.062 E29.96748
G1 X109.252 Y104.725 E29.98628
G1 X108.817 Y104.452 E30.00507
G1 X108.364 Y104.257 E30.02311
G1 X107.95 Y104.114 E30.03914
G1 X107.454 Y103.984 E30.0579
G1 X106.943 Y103.934 E30.07668
G1 X106.43 Y103.963 E30.09548
G1 X105.948 Y104.065 E30.11351
G1 X104.985 Y104.346 E30.15021
G1 X104.97 Y104.344 E30.15076
G1 X104.456 Y104.346 E30.16957
G1 X103.748 Y104.482 E30.19594
G1 X101.742 Y105.101 E30.27275
G1 X101.496 Y105.15 E30.28193
G1 X101.054 Y105.27 E30.29868
G1 X96.168 Y106.971 E30.48797
G1 X95.698 Y107.177 E30.50674
G1 X95.265 Y107.454 E30.52555
G1 X95.135 Y107.575 E30.53205
G1 X94.312 Y107.9 E30.56442
G1 X94.241 Y107.898 E30.56702
G1 X93.732 Y107.961 E30.58578
G1 X93.113 Y108.153 E30.60949
G1 X90.071 Y109.436 E30.73028
G1 X89.883 Y109.522 E30.73785
G1 X89.54 Y109.692 E30.75185
G1 X88.91 Y109.974 E30.7771
G1 X88.816 Y110.018 E30.7809
G1 X86.899 Y110.948 E30.85886
G1 X86.817 Y110.989 E30.86221
G1 X84.876 Y111.998 E30.94225
G1 X84.785 Y112.047 E30.94603
G1 X82.345 Y113.414 E31.04835
G1 X82.136 Y113.542 E31.05732
G1 X81.803 Y113.763 E31.07194
G1 X81.195 Y114.139 E31.09809
G1 X81.144 Y114.171 E31.1003
G1 X80.035 Y114.886 E31.14857
G1 X79.99 Y114.916 E31.15055
G1 X79.062 Y115.536 E31.19138
G1 X78.99 Y115.585 E31.19457
G1 X78.199 Y116.144 E31.23001
G1 X78.152 Y116.178 E31.23213
G1 X77.267 Y116.827 E31.27228
G1 X77.222 Y116.861 E31.27435
G1 X76.417 Y117.473 E31.31134
G1 X76.343 Y117.531 E31.31478
G1 X75.467 Y118.237 E31.35594
G1 X75.409 Y118.285 E31.3587
G1 X74.836 Y118.769 E31.38614
G1 X74.787 Y118.811 E31.3885
G1 X73.799 Y119.679 E31.43662
G1 X73.739 Y119.733 E31.43957
G1 X72.806 Y120.594 E31.48602
G1 X72.706 Y120.69 E31.49109
G1 X71.978 Y121.421 E31.52884
G1 X71.92 Y121.481 E31.53189
G1 X70.973 Y122.481 E31.58228
G1 X70.904 Y122.556 E31.58601
G1 X70.142 Y123.412 E31.62793
G1 X70.058 Y123.51 E31.63266
G1 X69.231 Y124.516 E31.6803
G1 X69.16 Y124.606 E31.6845
G1 X68.328 Y125.693 E31.73458
G1 X68.259 Y125.786 E31.73881
G1 X67.578 Y126.743 E31.78179
G1 X67.49 Y126.874 E31.78756
G1 X66.704 Y128.099 E31.84081
G1 X66.64 Y128.202 E31.84525
G1 X66.038 Y129.221 E31.88855
G1 X65.978 Y129.328 E31.89304
G1 X65.33 Y130.524 E31.9428
G1 X65.25 Y130.68 E31.94922
G1 X64.688 Y131.863 E31.99714
G1 X64.641 Y131.968 E32.00134
G1 X64.146 Y133.111 E32.04692
