;FLAVOR:Marlin
;TIME:18302
;Filament used: 16.491m
;Layer height: 0.2
;MINX:7.931
;MINY:12.349
;MINZ:0.2
;MAXX:207.651
;MAXY:212.069
;MAXZ:10.4
;Generated with Cura_SteamEngine 4.2.1
M140 S50
M105
M190 S50
M104 S190
M105
M109 S190
M82 ;absolute extrusion mode
M201 X500.00 Y500.00 Z100.00 E5000.00 ;Setup machine max acceleration
M203 X500.00 Y500.00 Z10.00 E50.00 ;Setup machine max feedrate
M204 P500.00 R1000.00 T500.00 ;Setup Print/Retract/Travel acceleration
M205 X8.00 Y8.00 Z0.40 E5.00 ;Setup Jerk
M220 S100 ;Reset Feedrate
M221 S100 ;Reset Flowrate

G28 ;Home

G92 E0 ;Reset Extruder
G1 Z2.0 F3000 ;Move Z Axis up
G1 X10.1 Y20 Z0.28 F5000.0 ;Move to start position
G1 X10.1 Y200.0 Z0.28 F1500.0 E15 ;Draw the first line
G1 X10.4 Y200.0 Z0.28 F5000.0 ;Move to side a little
G1 X10.4 Y20 Z0.28 F1500.0 E30 ;Draw the second line
G92 E0 ;Reset Extruder
G1 Z2.0 F3000 ;Move Z Axis up

M141 S28
G92 E0
G92 E0
G1 F2700 E-5
;LAYER_COUNT:50
;LAYER:0
M107
G0 F6000 X18.045 Y155.117 Z0.2
;TYPE:SKIRT
G1 F2700 E0
G1 F1200 X175.555 Y18.608 E7.62574
G1 X177.145 Y17.23 E7.70272
G1 X177.245 Y17.144 E7.70755
G1 X178.565 Y16.037 E7.77058
G1 X179.208 Y15.55 E7.80009
G1 X179.707 Y15.235 E7.82168
G1 X181.203 Y14.366 E7.88497
G1 X181.92 Y13.996 E7.91449
G1 X182.487 Y13.763 E7.93692
G1 X184.13 Y13.16 E8.00095
G1 X184.901 Y12.92 E8.03049
G1 X185.504 Y12.789 E8.05307
G1 X187.223 Y12.482 E8.11696
G1 X188.023 Y12.379 E8.14647
G1 X188.626 Y12.355 E8.16855
G1 X190.363 Y12.349 E8.2321
G1 X191.169 Y12.386 E8.26162
G1 X191.781 Y12.468 E8.28421
G1 X193.501 Y12.766 E8.34807
G1 X194.288 Y12.943 E8.37759
G1 X194.868 Y13.128 E8.39986
G1 X196.507 Y13.718 E8.46359
G1 X197.252 Y14.029 E8.49313
G1 X197.803 Y14.318 E8.51589
G1 X199.313 Y15.185 E8.57959
G1 X199.992 Y15.621 E8.60912
G1 X200.472 Y15.991 E8.63129
G1 X201.811 Y17.107 E8.69506
G1 X202.404 Y17.654 E8.72458
G1 X202.823 Y18.114 E8.74734
G1 X203.95 Y19.451 E8.81132
G1 X204.439 Y20.093 E8.84084
G1 X204.765 Y20.608 E8.86314
G1 X205.634 Y22.104 E8.92644
G1 X206.004 Y22.821 E8.95596
G1 X206.237 Y23.388 E8.97839
G1 X206.84 Y25.031 E9.04242
G1 X207.08 Y25.802 E9.07196
G1 X207.211 Y26.405 E9.09454
G1 X207.518 Y28.124 E9.15843
G1 X207.621 Y28.924 E9.18794
G1 X207.645 Y29.527 E9.21001
G1 X207.651 Y31.264 E9.27357
G1 X207.614 Y32.07 E9.30308
G1 X207.532 Y32.679 E9.32557
G1 X207.235 Y34.397 E9.38935
G1 X207.058 Y35.184 E9.41887
G1 X206.872 Y35.768 E9.44129
G1 X206.281 Y37.409 E9.5051
G1 X205.971 Y38.154 E9.53463
G1 X205.682 Y38.704 E9.55736
G1 X204.815 Y40.214 E9.62106
G1 X204.379 Y40.893 E9.65058
G1 X204.008 Y41.373 E9.67278
G1 X202.875 Y42.732 E9.73751
G1 X202.774 Y42.851 E9.74322
G1 X147.057 Y107.139 E12.8557
G1 X147.257 Y107.222 E12.86362
G1 X147.986 Y107.567 E12.89313
G1 X148.365 Y107.783 E12.90909
G1 X148.705 Y107.989 E12.92363
G1 X149.373 Y108.441 E12.95314
G1 X149.752 Y108.743 E12.97087
G1 X150.048 Y108.994 E12.98507
G1 X150.636 Y109.545 E13.01455
G1 X150.952 Y109.891 E13.03169
G1 X151.206 Y110.186 E13.04594
G1 X151.701 Y110.822 E13.07542
G1 X151.961 Y111.217 E13.09272
G1 X152.173 Y111.56 E13.10748
G1 X152.563 Y112.267 E13.13702
G1 X152.76 Y112.703 E13.15452
G1 X152.907 Y113.055 E13.16848
G1 X153.181 Y113.814 E13.198
G1 X153.297 Y114.232 E13.21387
G1 X153.393 Y114.619 E13.22846
G1 X153.548 Y115.411 E13.25799
G1 X153.606 Y115.932 E13.27716
G1 X153.637 Y116.321 E13.29144
G1 X153.661 Y117.128 E13.32098
G1 X153.642 Y117.551 E13.33647
G1 X153.614 Y117.941 E13.35078
G1 X153.517 Y118.742 E13.3803
G1 X153.411 Y119.255 E13.39946
G1 X153.319 Y119.639 E13.41391
G1 X153.092 Y120.413 E13.44342
G1 X152.929 Y120.843 E13.46024
G1 X152.779 Y121.207 E13.47465
G1 X152.435 Y121.937 E13.50417
G1 X152.214 Y122.325 E13.52051
G1 X152.014 Y122.655 E13.53463
G1 X151.563 Y123.323 E13.56411
G1 X151.246 Y123.718 E13.58264
G1 X150.985 Y124.024 E13.59736
G1 X150.896 Y124.127 E13.60234
G1 X124.384 Y154.175 E15.06842
G1 X123.743 Y154.824 E15.10179
G1 X123.352 Y155.178 E15.12109
G1 X122.649 Y155.747 E15.15418
G1 X122.212 Y156.062 E15.17389
G1 X121.5 Y156.521 E15.20488
G1 X121.036 Y156.787 E15.22445
G1 X120.239 Y157.188 E15.25709
G1 X119.734 Y157.408 E15.27725
G1 X118.906 Y157.716 E15.30957
G1 X118.396 Y157.875 E15.32911
G1 X117.547 Y158.09 E15.36115
G1 X117.009 Y158.196 E15.38121
G1 X116.149 Y158.319 E15.413
G1 X115.615 Y158.366 E15.43261
G1 X114.721 Y158.395 E15.46534
G1 X114.178 Y158.383 E15.48521
G1 X113.302 Y158.316 E15.51735
G1 X112.767 Y158.246 E15.53709
G1 X111.902 Y158.085 E15.56928
G1 X111.375 Y157.957 E15.58912
G1 X110.523 Y157.7 E15.62168
G1 X110.007 Y157.513 E15.64176
G1 X109.195 Y157.168 E15.67404
G1 X108.72 Y156.935 E15.6934
G1 X107.962 Y156.511 E15.72517
G1 X107.496 Y156.217 E15.74533
G1 X106.763 Y155.697 E15.77821
G1 X106.343 Y155.362 E15.79787
G1 X105.734 Y154.82 E15.82769
G1 X66.266 Y200.36 E18.03248
G1 X64.897 Y201.941 E18.109
G1 X64.167 Y202.682 E18.14705
G1 X62.066 Y204.559 E18.25013
G1 X61.354 Y205.127 E18.28345
G1 X59.08 Y206.741 E18.38547
G1 X58.308 Y207.227 E18.41885
G1 X55.843 Y208.59 E18.5219
G1 X55.024 Y208.984 E18.55515
G1 X52.441 Y210.056 E18.65747
G1 X51.575 Y210.36 E18.69105
G1 X48.885 Y211.135 E18.79347
G1 X47.999 Y211.337 E18.82672
G1 X45.231 Y211.809 E18.92945
G1 X44.319 Y211.912 E18.96303
G1 X41.519 Y212.069 E19.06563
G1 X40.61 Y212.069 E19.09889
G1 X37.811 Y211.913 E19.20145
G1 X36.902 Y211.811 E19.23492
G1 X34.133 Y211.341 E19.33767
G1 X33.244 Y211.139 E19.37103
G1 X30.554 Y210.365 E19.47344
G1 X29.691 Y210.063 E19.50689
G1 X27.107 Y208.993 E19.60921
G1 X26.286 Y208.597 E19.64256
G1 X23.82 Y207.235 E19.74563
G1 X23.046 Y206.749 E19.77906
G1 X20.772 Y205.136 E19.88106
G1 X20.06 Y204.569 E19.91437
G1 X17.962 Y202.696 E20.01726
G1 X17.313 Y202.048 E20.05081
G1 X15.44 Y199.952 E20.15366
G1 X14.872 Y199.239 E20.18701
G1 X13.259 Y196.966 E20.28898
G1 X12.773 Y196.194 E20.32235
G1 X11.41 Y193.729 E20.42541
G1 X11.016 Y192.911 E20.45863
G1 X9.943 Y190.326 E20.56103
G1 X9.639 Y189.458 E20.59467
G1 X8.864 Y186.767 E20.69713
G1 X8.662 Y185.881 E20.73038
G1 X8.191 Y183.116 E20.83299
G1 X8.088 Y182.205 E20.86654
G1 X7.931 Y179.406 E20.9691
G1 X7.931 Y178.497 E21.00236
G1 X8.087 Y175.697 E21.10496
G1 X8.189 Y174.789 E21.13839
G1 X8.658 Y172.023 E21.24103
G1 X8.86 Y171.134 E21.27438
G1 X9.634 Y168.443 E21.37683
G1 X9.936 Y167.578 E21.41035
G1 X11.007 Y164.992 E21.51275
G1 X11.403 Y164.172 E21.54607
G1 X12.765 Y161.706 E21.64914
G1 X13.25 Y160.932 E21.68255
G1 X14.862 Y158.659 E21.78451
G1 X15.429 Y157.948 E21.81778
G1 X17.303 Y155.848 E21.92075
G1 X18.045 Y155.117 E21.95886
G0 F6000 X18.333 Y155.449
G1 F1200 X175.843 Y18.94 E29.5846
G1 X177.433 Y17.562 E29.66158
G1 X177.528 Y17.481 E29.66615
G1 X178.848 Y16.374 E29.72918
G1 X179.474 Y15.901 E29.75788
G1 X179.928 Y15.616 E29.77749
G1 X181.424 Y14.747 E29.84079
G1 X182.122 Y14.388 E29.86951
G1 X182.639 Y14.176 E29.88995
G1 X184.282 Y13.573 E29.95398
G1 X185.031 Y13.341 E29.98267
G1 X185.581 Y13.222 E30.00326
G1 X187.3 Y12.915 E30.06715
G1 X188.079 Y12.817 E30.09587
G1 X188.627 Y12.795 E30.11594
G1 X190.364 Y12.789 E30.17949
G1 X191.148 Y12.826 E30.2082
G1 X191.705 Y12.902 E30.22877
G1 X193.425 Y13.2 E30.29263
G1 X194.191 Y13.373 E30.32137
G1 X194.719 Y13.542 E30.34165
G1 X196.358 Y14.132 E30.40538
G1 X197.082 Y14.435 E30.43409
G1 X197.584 Y14.699 E30.45485
G1 X199.094 Y15.566 E30.51855
G1 X199.754 Y15.991 E30.54727
G1 X200.19 Y16.329 E30.56745
G1 X201.529 Y17.445 E30.63123
G1 X202.105 Y17.977 E30.65991
G1 X202.486 Y18.397 E30.68066
G1 X203.613 Y19.734 E30.74464
G1 X204.088 Y20.359 E30.77336
G1 X204.384 Y20.829 E30.79368
G1 X205.253 Y22.325 E30.85697
G1 X205.612 Y23.023 E30.88569
G1 X205.824 Y23.54 E30.90613
G1 X206.427 Y25.183 E30.97017
G1 X206.659 Y25.932 E30.99885
G1 X206.778 Y26.482 E31.01944
G1 X207.085 Y28.201 E31.08333
G1 X207.183 Y28.98 E31.11205
G1 X207.205 Y29.528 E31.13212
G1 X207.211 Y31.265 E31.19567
G1 X207.174 Y32.049 E31.22439
G1 X207.098 Y32.604 E31.24488
G1 X206.801 Y34.322 E31.30867
G1 X206.629 Y35.087 E31.33735
G1 X206.458 Y35.619 E31.3578
G1 X205.867 Y37.26 E31.42161
G1 X205.564 Y37.984 E31.45033
G1 X205.301 Y38.485 E31.47103
G1 X204.434 Y39.995 E31.53473
G1 X204.009 Y40.655 E31.56345
G1 X203.67 Y41.092 E31.58369
G1 X202.537 Y42.451 E31.64842
G1 X202.442 Y42.563 E31.65379
G1 X146.316 Y107.324 E34.78915
G1 X146.336 Y107.33 E34.78991
G1 X146.731 Y107.481 E34.80538
G1 X147.089 Y107.629 E34.81955
G1 X148.137 Y108.159 E34.86252
G1 X148.477 Y108.365 E34.87707
G1 X149.127 Y108.806 E34.9058
G1 X149.467 Y109.078 E34.92173
G1 X149.763 Y109.329 E34.93593
G1 X150.335 Y109.866 E34.96464
G1 X150.618 Y110.178 E34.98005
G1 X150.872 Y110.473 E34.99429
G1 X151.353 Y111.093 E35.023
G1 X151.587 Y111.449 E35.03859
G1 X151.799 Y111.792 E35.05334
G1 X152.177 Y112.479 E35.08203
G1 X152.354 Y112.873 E35.09783
G1 X152.501 Y113.225 E35.11179
G1 X152.869 Y114.338 E35.15467
G1 X152.965 Y114.725 E35.16926
G1 X153.115 Y115.495 E35.19796
G1 X153.168 Y115.967 E35.21534
G1 X153.199 Y116.356 E35.22962
G1 X153.203 Y117.519 E35.27217
G1 X153.175 Y117.909 E35.28647
G1 X153.079 Y118.688 E35.31519
G1 X152.983 Y119.152 E35.33252
G1 X152.891 Y119.536 E35.34697
G1 X152.67 Y120.289 E35.37568
G1 X152.522 Y120.676 E35.39084
G1 X152.372 Y121.04 E35.40525
G1 X152.037 Y121.749 E35.43393
G1 X151.838 Y122.097 E35.4486
G1 X151.638 Y122.427 E35.46272
G1 X151.198 Y123.076 E35.49141
G1 X150.911 Y123.433 E35.50816
G1 X150.65 Y123.739 E35.52288
G1 X150.566 Y123.836 E35.52757
G1 X124.054 Y153.884 E36.99366
G1 X123.448 Y154.498 E37.02522
G1 X123.057 Y154.852 E37.04451
G1 X122.392 Y155.39 E37.07581
G1 X121.955 Y155.705 E37.09552
G1 X121.282 Y156.139 E37.12482
G1 X120.818 Y156.405 E37.14438
G1 X120.063 Y156.784 E37.17529
G1 X119.558 Y157.004 E37.19545
G1 X118.775 Y157.296 E37.22602
G1 X118.265 Y157.455 E37.24556
G1 X117.461 Y157.659 E37.27591
G1 X116.923 Y157.765 E37.29597
G1 X116.11 Y157.88 E37.32601
G1 X115.576 Y157.927 E37.34563
G1 X114.731 Y157.955 E37.37656
G1 X114.188 Y157.943 E37.39643
G1 X113.359 Y157.88 E37.42685
G1 X112.824 Y157.81 E37.44659
G1 X112.006 Y157.657 E37.47703
G1 X111.479 Y157.529 E37.49688
G1 X110.672 Y157.286 E37.52771
G1 X110.156 Y157.099 E37.54779
G1 X109.389 Y156.773 E37.57828
G1 X108.914 Y156.54 E37.59764
G1 X108.196 Y156.139 E37.62773
G1 X107.73 Y155.845 E37.64788
G1 X107.038 Y155.353 E37.67895
G1 X106.618 Y155.018 E37.6986
G1 X106.003 Y154.471 E37.72872
G1 X105.708 Y154.179 E37.7439
G1 X65.934 Y200.072 E39.96578
G1 X64.565 Y201.653 E40.0423
G1 X63.874 Y202.354 E40.07831
G1 X61.773 Y204.231 E40.18138
G1 X61.1 Y204.768 E40.21288
G1 X58.826 Y206.382 E40.31491
G1 X58.095 Y206.841 E40.34649
G1 X55.63 Y208.204 E40.44954
G1 X54.856 Y208.578 E40.48099
G1 X52.273 Y209.65 E40.58331
G1 X51.453 Y209.937 E40.61509
G1 X48.763 Y210.712 E40.71751
G1 X47.925 Y210.903 E40.74896
G1 X45.157 Y211.375 E40.85169
G1 X44.294 Y211.473 E40.88347
G1 X41.494 Y211.63 E40.98607
G1 X40.635 Y211.63 E41.0175
G1 X37.836 Y211.474 E41.12006
G1 X36.975 Y211.377 E41.15176
G1 X34.206 Y210.907 E41.25452
G1 X33.366 Y210.716 E41.28603
G1 X30.676 Y209.942 E41.38844
G1 X29.859 Y209.656 E41.42011
G1 X27.275 Y208.586 E41.52243
G1 X26.498 Y208.212 E41.55398
G1 X24.032 Y206.85 E41.65705
G1 X23.3 Y206.39 E41.68868
G1 X21.026 Y204.777 E41.79068
G1 X20.353 Y204.241 E41.82216
G1 X18.255 Y202.368 E41.92506
G1 X17.641 Y201.755 E41.9568
G1 X15.768 Y199.659 E42.05964
G1 X15.23 Y198.984 E42.09122
G1 X13.617 Y196.711 E42.19319
G1 X13.159 Y195.981 E42.22472
G1 X11.796 Y193.516 E42.32778
G1 X11.422 Y192.742 E42.35923
G1 X10.349 Y190.157 E42.46162
G1 X10.062 Y189.336 E42.49344
G1 X9.287 Y186.645 E42.5959
G1 X9.095 Y185.807 E42.62735
G1 X8.624 Y183.042 E42.72997
G1 X8.527 Y182.18 E42.76171
G1 X8.37 Y179.381 E42.86427
G1 X8.37 Y178.522 E42.8957
G1 X8.526 Y175.722 E42.9983
G1 X8.622 Y174.863 E43.02992
G1 X9.091 Y172.097 E43.13257
G1 X9.283 Y171.256 E43.16413
G1 X10.057 Y168.565 E43.26657
G1 X10.343 Y167.747 E43.29827
G1 X11.414 Y165.161 E43.40068
G1 X11.788 Y164.384 E43.43223
G1 X13.15 Y161.918 E43.5353
G1 X13.609 Y161.187 E43.56688
G1 X15.221 Y158.914 E43.66883
G1 X15.757 Y158.241 E43.7003
G1 X17.631 Y156.141 E43.80328
G1 X18.333 Y155.449 E43.83934
G0 F6000 X18.621 Y155.782
G1 F1200 X176.131 Y19.273 E51.46509
G1 X177.721 Y17.895 E51.54206
G1 X177.811 Y17.818 E51.5464
G1 X179.131 Y16.711 E51.60943
G1 X179.739 Y16.253 E51.63728
G1 X180.149 Y15.996 E51.65498
G1 X181.645 Y15.127 E51.71828
G1 X182.323 Y14.78 E51.74614
G1 X182.791 Y14.59 E51.76462
G1 X184.434 Y13.987 E51.82865
G1 X185.162 Y13.762 E51.85653
G1 X185.659 Y13.655 E51.87513
G1 X187.378 Y13.348 E51.93902
G1 X188.134 Y13.254 E51.96689
G1 X188.629 Y13.235 E51.98501
G1 X190.366 Y13.229 E52.04856
G1 X191.127 Y13.266 E52.07644
G1 X191.63 Y13.336 E52.09502
G1 X193.35 Y13.634 E52.15888
G1 X194.093 Y13.803 E52.18676
G1 X194.57 Y13.956 E52.20509
G1 X196.209 Y14.546 E52.26882
G1 X196.911 Y14.841 E52.29668
G1 X197.365 Y15.081 E52.31547
G1 X198.875 Y15.948 E52.37917
G1 X199.515 Y16.361 E52.40704
G1 X199.908 Y16.667 E52.42526
G1 X201.247 Y17.783 E52.48904
G1 X201.806 Y18.301 E52.51692
G1 X202.15 Y18.681 E52.53567
G1 X203.277 Y20.018 E52.59965
G1 X203.737 Y20.625 E52.62751
G1 X204.004 Y21.05 E52.64587
G1 X204.873 Y22.546 E52.70917
G1 X205.22 Y23.224 E52.73704
G1 X205.41 Y23.692 E52.75552
G1 X206.013 Y25.335 E52.81955
G1 X206.238 Y26.063 E52.84743
G1 X206.345 Y26.56 E52.86603
G1 X206.652 Y28.279 E52.92991
G1 X206.746 Y29.035 E52.95778
G1 X206.765 Y29.53 E52.97591
G1 X206.771 Y31.267 E53.03946
G1 X206.734 Y32.028 E53.06733
G1 X206.665 Y32.529 E53.08584
G1 X206.368 Y34.247 E53.14962
G1 X206.199 Y34.99 E53.1775
G1 X206.045 Y35.47 E53.19594
G1 X205.454 Y37.111 E53.25976
G1 X205.158 Y37.813 E53.28763
G1 X204.919 Y38.266 E53.30637
G1 X204.052 Y39.776 E53.37007
G1 X203.639 Y40.416 E53.39794
G1 X203.332 Y40.81 E53.41621
G1 X202.199 Y42.169 E53.48095
G1 X202.109 Y42.275 E53.48603
G1 X145.534 Y107.554 E56.64647
G1 X146.563 Y107.888 E56.68605
G1 X146.921 Y108.036 E56.70022
G1 X147.909 Y108.536 E56.74073
G1 X148.249 Y108.742 E56.75528
G1 X148.879 Y109.17 E56.78314
G1 X149.182 Y109.414 E56.79738
G1 X149.478 Y109.665 E56.81158
G1 X150.285 Y110.465 E56.85315
G1 X150.539 Y110.76 E56.86739
G1 X151.213 Y111.68 E56.90912
G1 X151.425 Y112.023 E56.92387
G1 X151.791 Y112.691 E56.95174
G1 X151.948 Y113.042 E56.96581
G1 X152.095 Y113.394 E56.97976
G1 X152.442 Y114.444 E57.02022
G1 X152.538 Y114.831 E57.03481
G1 X152.683 Y115.579 E57.06268
G1 X152.729 Y116.002 E57.07825
G1 X152.76 Y116.391 E57.09253
G1 X152.764 Y117.488 E57.13266
G1 X152.736 Y117.878 E57.14697
G1 X152.642 Y118.634 E57.17484
G1 X152.555 Y119.05 E57.19039
G1 X152.463 Y119.434 E57.20484
G1 X152.115 Y120.508 E57.24614
G1 X151.965 Y120.872 E57.26055
G1 X151.462 Y121.869 E57.3014
G1 X151.262 Y122.199 E57.31552
G1 X150.833 Y122.829 E57.3434
G1 X150.577 Y123.147 E57.35834
G1 X150.316 Y123.453 E57.37306
G1 X150.236 Y123.545 E57.37752
G1 X123.724 Y153.593 E58.8436
G1 X123.153 Y154.172 E58.87335
G1 X122.762 Y154.526 E58.89265
G1 X122.134 Y155.033 E58.92218
G1 X121.697 Y155.348 E58.94188
G1 X121.063 Y155.757 E58.96949
G1 X120.599 Y156.023 E58.98906
G1 X119.888 Y156.381 E59.01818
G1 X119.383 Y156.601 E59.03833
G1 X118.644 Y156.876 E59.06718
G1 X118.134 Y157.035 E59.08673
G1 X117.376 Y157.227 E59.11533
G1 X116.838 Y157.333 E59.1354
G1 X116.072 Y157.442 E59.1637
G1 X115.538 Y157.489 E59.18332
G1 X114.741 Y157.515 E59.21249
G1 X114.198 Y157.503 E59.23236
G1 X113.416 Y157.444 E59.26105
G1 X112.881 Y157.374 E59.28079
G1 X112.109 Y157.23 E59.30953
G1 X111.582 Y157.102 E59.32937
G1 X110.822 Y156.873 E59.35841
G1 X110.306 Y156.686 E59.37849
G1 X109.583 Y156.378 E59.40724
G1 X109.108 Y156.145 E59.4266
G1 X108.431 Y155.767 E59.45496
G1 X107.965 Y155.473 E59.47512
G1 X107.312 Y155.009 E59.50443
G1 X106.892 Y154.674 E59.52409
G1 X106.312 Y154.158 E59.55249
G1 X105.927 Y153.777 E59.5723
G1 X105.695 Y153.521 E59.58494
G1 X65.601 Y199.784 E61.82472
G1 X64.232 Y201.365 E61.90123
G1 X63.581 Y202.026 E61.93518
G1 X61.48 Y203.903 E62.03825
G1 X60.845 Y204.409 E62.06796
G1 X58.571 Y206.023 E62.16998
G1 X57.882 Y206.456 E62.19975
G1 X55.417 Y207.819 E62.30281
