;FLAVOR:Marlin
;TIME:1314
;Filament used: 0.323175m
;Layer height: 0.12
;MINX:94
;MINY:95
;MINZ:0.12
;MAXX:126
;MAXY:125
;MAXZ:16.92
;Generated with Cura_SteamEngine 4.3.0
M140 S50
M105
M190 S50
M104 S200
M105
M109 S200
M82 ;absolute extrusion mode
M201 X500.00 Y500.00 Z100.00 E5000.00 ;Setup machine max acceleration
M203 X500.00 Y500.00 Z10.00 E50.00 ;Setup machine max feedrate
M204 P500.00 R1000.00 T500.00 ;Setup Print/Retract/Travel acceleration
M205 X8.00 Y8.00 Z0.40 E5.00 ;Setup Jerk
M220 S100 ;Reset Feedrate
M221 S100 ;Reset Flowrate

G28 ;Home

G92 E0 ;Reset Extruder
G1 Z2.0 F3000 ;Move Z Axis up
G1 X10.1 Y20 Z0.28 F5000.0 ;Move to start position
G1 X10.1 Y200.0 Z0.28 F1500.0 E15 ;Draw the first line
G1 X10.4 Y200.0 Z0.28 F5000.0 ;Move to side a little
G1 X10.4 Y20 Z0.28 F1500.0 E30 ;Draw the second line
G92 E0 ;Reset Extruder
G1 Z2.0 F3000 ;Move Z Axis up

G92 E0
G92 E0
G1 F2700 E-5
;LAYER_COUNT:141
;LAYER:0
M107
G0 F6000 X97.198 Y98.264 Z0.12
;TYPE:SKIRT
G1 F2700 E0
G1 F1200 X97.886 Y97.627 E0.01871
G1 X98.626 Y97.051 E0.03742
G1 X99.412 Y96.539 E0.05614
G1 X100.239 Y96.097 E0.07486
G1 X101.101 Y95.727 E0.09358
G1 X101.991 Y95.431 E0.11229
G1 X102.903 Y95.213 E0.13101
G1 X103.83 Y95.072 E0.14972
G1 X104.701 Y95.013 E0.16714
G1 X105.022 Y95.004 E0.17355
G1 X105.33 Y95 E0.1797
G1 X114.293 Y95 E0.35856
G1 X114.451 Y95.001 E0.36172
G1 X115.149 Y95.011 E0.37565
G1 X116.085 Y95.065 E0.39436
G1 X117.013 Y95.197 E0.41306
G1 X117.927 Y95.409 E0.43179
G1 X118.819 Y95.698 E0.4505
G1 X119.684 Y96.061 E0.46922
G1 X120.514 Y96.497 E0.48793
G1 X121.305 Y97.002 E0.50666
G1 X122.049 Y97.573 E0.52537
G1 X122.742 Y98.205 E0.54409
G1 X123.379 Y98.893 E0.5628
G1 X123.954 Y99.634 E0.58152
G1 X124.465 Y100.42 E0.60023
G1 X124.907 Y101.248 E0.61896
G1 X125.276 Y102.11 E0.63767
G1 X125.571 Y103 E0.65638
G1 X125.789 Y103.912 E0.67509
G1 X125.929 Y104.84 E0.69382
G1 X125.987 Y105.701 E0.71104
G1 X125.996 Y106.021 E0.71743
G1 X126 Y106.33 E0.7236
G1 X126 Y113.264 E0.86197
G1 X125.999 Y113.4 E0.86469
G1 X125.99 Y114.127 E0.8792
G1 X125.939 Y115.064 E0.89792
G1 X125.807 Y115.992 E0.91663
G1 X125.598 Y116.906 E0.93534
G1 X125.311 Y117.799 E0.95406
G1 X124.949 Y118.665 E0.97279
G1 X124.515 Y119.496 E0.9915
G1 X124.011 Y120.287 E1.01022
G1 X123.442 Y121.032 E1.02892
G1 X122.811 Y121.727 E1.04766
G1 X122.124 Y122.365 E1.06637
G1 X121.385 Y122.942 E1.08508
G1 X120.599 Y123.454 E1.1038
G1 X119.773 Y123.897 E1.1225
G1 X118.911 Y124.269 E1.14124
G1 X118.022 Y124.565 E1.15994
G1 X117.11 Y124.785 E1.17866
G1 X116.183 Y124.926 E1.19737
G1 X115.299 Y124.987 E1.21505
G1 X114.978 Y124.996 E1.22146
G1 X114.67 Y125 E1.22761
G1 X105.707 Y125 E1.40647
G1 X105.565 Y124.999 E1.40931
G1 X104.867 Y124.99 E1.42324
G1 X103.931 Y124.938 E1.44195
G1 X103.002 Y124.806 E1.46067
G1 X102.088 Y124.596 E1.47939
G1 X101.195 Y124.309 E1.49811
G1 X100.33 Y123.946 E1.51683
G1 X99.499 Y123.512 E1.53553
G1 X98.708 Y123.008 E1.55425
G1 X97.963 Y122.438 E1.57297
G1 X97.269 Y121.807 E1.59169
G1 X96.632 Y121.12 E1.61039
G1 X96.055 Y120.38 E1.62911
G1 X95.543 Y119.594 E1.64783
G1 X95.1 Y118.767 E1.66655
G1 X94.729 Y117.906 E1.68526
G1 X94.433 Y117.016 E1.70398
G1 X94.214 Y116.104 E1.7227
G1 X94.073 Y115.177 E1.74141
G1 X94.013 Y114.288 E1.75919
G1 X94.004 Y113.955 E1.76584
G1 X94 Y113.658 E1.77177
G1 X94 Y106.674 E1.91114
G1 X94.001 Y106.525 E1.91411
G1 X94.01 Y105.86 E1.92739
G1 X94.063 Y104.924 E1.9461
G1 X94.195 Y103.995 E1.96482
G1 X94.406 Y103.081 E1.98354
G1 X94.694 Y102.189 E2.00225
G1 X95.057 Y101.324 E2.02097
G1 X95.492 Y100.493 E2.03968
G1 X95.996 Y99.703 E2.05838
G1 X96.566 Y98.958 E2.0771
G1 X97.198 Y98.264 E2.09584
G0 F6000 X97.589 Y98.439
G1 F1200 X98.274 Y97.823 E2.11422
G1 X99.01 Y97.27 E2.13259
G1 X99.791 Y96.782 E2.15097
G1 X100.611 Y96.364 E2.16934
G1 X101.465 Y96.019 E2.18772
G1 X102.345 Y95.749 E2.20609
G1 X103.245 Y95.557 E2.22445
G1 X104.159 Y95.443 E2.24283
G1 X104.712 Y95.413 E2.25389
G1 X105.033 Y95.404 E2.26029
G1 X105.33 Y95.4 E2.26622
G1 X114.293 Y95.4 E2.44509
G1 X114.445 Y95.401 E2.44812
G1 X115.143 Y95.411 E2.46205
G1 X116.062 Y95.464 E2.48042
G1 X116.973 Y95.597 E2.49879
G1 X117.869 Y95.808 E2.51716
G1 X118.743 Y96.096 E2.53553
G1 X119.59 Y96.459 E2.55392
G1 X120.401 Y96.894 E2.57228
G1 X121.171 Y97.398 E2.59065
G1 X121.895 Y97.967 E2.60903
G1 X122.567 Y98.597 E2.62741
G1 X123.182 Y99.282 E2.64578
G1 X123.735 Y100.018 E2.66415
G1 X124.222 Y100.799 E2.68252
G1 X124.639 Y101.62 E2.70089
G1 X124.984 Y102.474 E2.71927
G1 X125.253 Y103.354 E2.73764
G1 X125.445 Y104.255 E2.75602
G1 X125.558 Y105.168 E2.77438
G1 X125.587 Y105.712 E2.78525
G1 X125.596 Y106.032 E2.79164
G1 X125.6 Y106.33 E2.79759
G1 X125.6 Y113.264 E2.93596
G1 X125.599 Y113.395 E2.93858
G1 X125.59 Y114.122 E2.95309
G1 X125.539 Y115.041 E2.97146
G1 X125.408 Y115.953 E2.98984
G1 X125.198 Y116.849 E3.00821
G1 X124.912 Y117.724 E3.02658
G1 X124.551 Y118.571 E3.04495
G1 X124.117 Y119.383 E3.06333
G1 X123.615 Y120.155 E3.0817
G1 X123.047 Y120.88 E3.10008
G1 X122.419 Y121.553 E3.11845
G1 X121.735 Y122.169 E3.13682
G1 X121 Y122.723 E3.15519
G1 X120.22 Y123.212 E3.17356
G1 X119.4 Y123.631 E3.19194
G1 X118.547 Y123.977 E3.21031
G1 X117.667 Y124.248 E3.22868
G1 X116.767 Y124.441 E3.24705
G1 X115.853 Y124.556 E3.26543
G1 X115.288 Y124.587 E3.27673
G1 X114.967 Y124.596 E3.28313
G1 X114.67 Y124.6 E3.28906
G1 X105.707 Y124.6 E3.46793
G1 X105.57 Y124.599 E3.47066
G1 X104.872 Y124.59 E3.48459
G1 X103.953 Y124.538 E3.50296
G1 X103.042 Y124.407 E3.52133
G1 X102.146 Y124.197 E3.53969
G1 X101.271 Y123.91 E3.55807
G1 X100.424 Y123.548 E3.57645
G1 X99.612 Y123.114 E3.59483
G1 X98.841 Y122.612 E3.61319
G1 X98.116 Y122.044 E3.63157
G1 X97.443 Y121.415 E3.64995
G1 X96.828 Y120.731 E3.66831
G1 X96.274 Y119.996 E3.68667
G1 X95.786 Y119.215 E3.70505
G1 X95.367 Y118.395 E3.72343
G1 X95.021 Y117.542 E3.7418
G1 X94.751 Y116.662 E3.76017
G1 X94.558 Y115.761 E3.77856
G1 X94.444 Y114.848 E3.79692
G1 X94.413 Y114.277 E3.80833
G1 X94.404 Y113.944 E3.81498
G1 X94.4 Y113.658 E3.82068
G1 X94.4 Y106.674 E3.96006
G1 X94.401 Y106.531 E3.96291
G1 X94.41 Y105.866 E3.97618
G1 X94.462 Y104.946 E3.99457
G1 X94.594 Y104.035 E4.01294
G1 X94.805 Y103.139 E4.03131
G1 X95.092 Y102.264 E4.04969
G1 X95.455 Y101.418 E4.06806
G1 X95.889 Y100.606 E4.08643
G1 X96.392 Y99.835 E4.1048
G1 X96.961 Y99.111 E4.12318
G1 X97.589 Y98.439 E4.14154
G0 F6000 X97.981 Y98.617
G1 F1200 X98.662 Y98.024 E4.15956
G1 X99.394 Y97.494 E4.17759
G1 X100.169 Y97.031 E4.19561
G1 X100.982 Y96.638 E4.21363
G1 X101.827 Y96.318 E4.23166
G1 X102.696 Y96.075 E4.24967
G1 X103.584 Y95.909 E4.26769
G1 X104.723 Y95.813 E4.2905
G1 X105.044 Y95.804 E4.29691
G1 X105.33 Y95.8 E4.30262
G1 X114.293 Y95.8 E4.48149
G1 X114.439 Y95.801 E4.4844
G1 X115.137 Y95.811 E4.49833
G1 X116.039 Y95.864 E4.51636
G1 X116.932 Y95.996 E4.53438
G1 X117.81 Y96.207 E4.5524
G1 X118.666 Y96.495 E4.57042
G1 X119.493 Y96.857 E4.58844
G1 X120.285 Y97.292 E4.60647
G1 X121.036 Y97.794 E4.6245
G1 X121.739 Y98.361 E4.64252
G1 X122.389 Y98.988 E4.66054
G1 X122.981 Y99.67 E4.67856
G1 X123.511 Y100.401 E4.69658
G1 X123.973 Y101.177 E4.71461
G1 X124.366 Y101.99 E4.73263
G1 X124.684 Y102.835 E4.75064
G1 X124.927 Y103.705 E4.76867
G1 X125.092 Y104.593 E4.78669
G1 X125.187 Y105.723 E4.80932
G1 X125.196 Y106.043 E4.81571
G1 X125.2 Y106.33 E4.82144
G1 X125.2 Y113.264 E4.95982
G1 X125.199 Y113.39 E4.96233
G1 X125.19 Y114.117 E4.97684
G1 X125.139 Y115.019 E4.99487
G1 X125.008 Y115.913 E5.0129
G1 X124.799 Y116.791 E5.03091
G1 X124.513 Y117.648 E5.04894
G1 X124.152 Y118.476 E5.06697
G1 X123.72 Y119.268 E5.08497
G1 X123.219 Y120.02 E5.103
G1 X122.653 Y120.724 E5.12103
G1 X122.028 Y121.375 E5.13904
G1 X121.347 Y121.969 E5.15707
G1 X120.616 Y122.5 E5.1751
G1 X119.842 Y122.964 E5.19311
G1 X119.029 Y123.358 E5.21114
G1 X118.185 Y123.678 E5.22915
G1 X117.315 Y123.923 E5.24719
G1 X116.428 Y124.089 E5.2652
G1 X115.277 Y124.187 E5.28825
G1 X114.956 Y124.196 E5.29466
G1 X114.67 Y124.2 E5.30037
G1 X105.707 Y124.2 E5.47923
G1 X105.575 Y124.199 E5.48187
G1 X104.877 Y124.19 E5.4958
G1 X103.976 Y124.139 E5.51381
G1 X103.082 Y124.007 E5.53184
G1 X102.204 Y123.798 E5.54985
G1 X101.347 Y123.511 E5.56789
G1 X100.52 Y123.15 E5.5859
G1 X99.727 Y122.717 E5.60393
G1 X98.976 Y122.216 E5.62194
G1 X98.272 Y121.65 E5.63997
G1 X97.621 Y121.024 E5.65799
G1 X97.028 Y120.343 E5.67601
G1 X96.498 Y119.612 E5.69403
G1 X96.034 Y118.837 E5.71206
G1 X95.64 Y118.024 E5.73009
G1 X95.32 Y117.18 E5.7481
G1 X95.076 Y116.31 E5.76613
G1 X94.91 Y115.422 E5.78416
G1 X94.813 Y114.267 E5.80729
G1 X94.804 Y113.934 E5.81394
G1 X94.8 Y113.658 E5.81945
G1 X94.8 Y106.674 E5.95882
G1 X94.801 Y106.536 E5.96157
G1 X94.81 Y105.871 E5.97485
G1 X94.862 Y104.969 E5.99288
G1 X94.994 Y104.076 E6.01089
G1 X95.204 Y103.198 E6.02891
G1 X95.491 Y102.341 E6.04694
G1 X95.853 Y101.514 E6.06496
G1 X96.286 Y100.722 E6.08297
G1 X96.788 Y99.971 E6.101
G1 X97.355 Y99.267 E6.11904
G1 X97.981 Y98.617 E6.13705
G1 F2700 E1.13705
G0 F6000 X104.674 Y105.553
G0 X107.61 Y108.596
G0 X108 Y109
G1 F2700 E6.13705
G1 F1200 X112 Y109 E6.21687
G1 X112 Y111 E6.25678
G1 X108 Y111 E6.33661
G1 X108 Y109 E6.37652
G0 F6000 X108.4 Y109.4
G1 F1200 X111.6 Y109.4 E6.44038
G1 X111.6 Y110.6 E6.46433
G1 X108.4 Y110.6 E6.52818
G1 X108.4 Y109.4 E6.55213
G0 F6000 X108.8 Y109.8
G1 F1200 X111.2 Y109.8 E6.60003
G1 X111.2 Y110.2 E6.60801
G1 X108.8 Y110.2 E6.6559
G1 X108.8 Y109.8 E6.66389
G1 F2700 E1.66389
;MESH:Connector.ipt
G0 F6000 X106.6 Y109.8
G0 X106.4 Y112.6
;TYPE:WALL-INNER
G1 F2700 E6.66389
G1 F1200 X113.6 Y112.6 E6.80757
G1 X113.6 Y107.4 E6.91134
G1 X106.4 Y107.4 E7.05503
G1 X106.4 Y112.6 E7.1588
G0 F6000 X106.8 Y112.2
;TYPE:WALL-OUTER
G1 F1200 X113.2 Y112.2 E7.28652
G1 X113.2 Y107.8 E7.37432
G1 X106.8 Y107.8 E7.50204
G1 X106.8 Y112.2 E7.58985
G0 F6000 X106.5 Y112.2
G0 X105.6 Y113.4
;TYPE:WALL-INNER
G1 F1200 X105.6 Y106.6 E7.72555
G1 X114.4 Y106.6 E7.90116
G1 X114.4 Y113.4 E8.03686
G1 X105.6 Y113.4 E8.21248
G0 F6000 X105.2 Y113.8
;TYPE:WALL-OUTER
G1 F1200 X105.2 Y106.2 E8.36414
G1 X114.8 Y106.2 E8.55572
G1 X114.8 Y113.8 E8.70739
G1 X105.2 Y113.8 E8.89897
G0 F6000 X105.822 Y113.176
;TYPE:SKIN
G1 F1200 X105.963 Y113.034 E8.90566
G0 F6000 X106.104 Y112.893
G1 F1200 X105.999 Y112.505 E8.91486
G1 X106.493 Y112.999 E8.93086
G1 X113.847 Y112.999 E9.0993
G0 F6000 X113.999 Y112.867
G1 F1200 X113.999 Y112.584 E9.10567
G1 X113.999 Y107.493 E9.22021
G1 X113.893 Y107.105 E9.22926
G1 X114.176 Y106.822 E9.23827
G1 X113.221 Y106.999 E9.26012
G1 X106.15 Y106.999 E9.41922
G0 F6000 X105.999 Y107.131
G1 F1200 X105.999 Y107.413 E9.42621
G1 X105.999 Y112.222 E9.54549
G0 F6000 X106.318 Y112.682
G1 F2700 E4.54549
;MESH:NONMESH
G0 F300 X106.318 Y112.682 Z0.24
G0 F6000 X106.6 Y109
G0 X108 Y109
;TIME_ELAPSED:31.107041
;LAYER:1
M140 S50
M106 S85
;TYPE:SUPPORT
G1 F2700 E9.54549
G1 F1018.3 X112 Y109 E9.62531
G1 X112 Y111 E9.66522
G1 X108 Y111 E9.74505
G1 X108 Y109 E9.78496
G0 F7500 X110 Y109.4
G1 F1018.3 X108.4 Y109.4 E9.81689
G1 X108.4 Y110.6 E9.84084
G1 X110 Y110.6 E9.87277
G1 X110 Y109.4 E9.89671
G1 X111.6 Y109.4 E9.92864
G1 X111.6 Y110.6 E9.95259
G1 X110 Y110.6 E9.98452
G0 F7500 X111.6 Y109.4
G1 F2700 E4.98452
;MESH:Connector.ipt
G0 F7500 X111.6 Y112.4
G0 X106.4 Y112.6
;TYPE:WALL-INNER
G1 F2700 E9.98452
G1 F1018.3 X113.6 Y112.6 E10.1282
G1 X113.6 Y107.4 E10.23198
G1 X106.4 Y107.4 E10.37566
G1 X106.4 Y112.6 E10.47943
G0 F7500 X106.8 Y112.2
;TYPE:WALL-OUTER
G1 F1018.3 X113.2 Y112.2 E10.60715
G1 X113.2 Y107.8 E10.69496
G1 X106.8 Y107.8 E10.82268
G1 X106.8 Y112.2 E10.91048
G0 F7500 X106.5 Y112.2
G0 X105.6 Y113.4
;TYPE:WALL-INNER
G1 F1018.3 X105.6 Y106.6 E11.04618
G1 X114.4 Y106.6 E11.2218
G1 X114.4 Y113.4 E11.3575
G1 X105.6 Y113.4 E11.53311
G0 F7500 X105.2 Y113.8
;TYPE:WALL-OUTER
G1 F1018.3 X105.2 Y106.2 E11.68478
G1 X114.8 Y106.2 E11.87636
G1 X114.8 Y113.8 E12.02802
G1 X105.2 Y113.8 E12.2196
G0 F7500 X105.999 Y112.919
;TYPE:SKIN
G1 F1018.3 X106.203 Y112.999 E12.22499
G1 X113.274 Y112.999 E12.39874
G0 F7500 X113.998 Y112.274
G1 F1018.3 X113.998 Y111.991 E12.40572
G1 X113.998 Y107.183 E12.52437
G0 F7500 X113.9 Y106.999
G1 F1018.3 X113.617 Y106.999 E12.53078
G1 X106.546 Y106.999 E12.69093
G1 X105.999 Y107.545 E12.70843
G1 X106.131 Y107.131 E12.71827
G0 F7500 X106.206 Y106.774
G1 F1018.3 X105.775 Y107.205 E12.72436
G0 F7500 X105.849 Y106.848
G1 F1018.3 X105.999 Y107.828 E12.74429
G1 X105.999 Y112.637 E12.84099
G0 F7500 X106.224 Y112.413
G0 X113.332 Y113.224
G1 F1018.3 X114.223 Y112.333 E12.85356
G0 F7500 X114.223 Y112.615
G1 F1018.3 X113.615 Y113.224 E12.86215
G0 F7500 X114.06 Y113.061
G1 F1018.3 X114.201 Y113.202 E12.86735
G0 F7500 X114.18 Y113.2
G1 F2700 E7.86735
;MESH:NONMESH
G0 F300 X114.18 Y113.2 Z0.36
G0 F7500 X108 Y112.4
G0 X108 Y109
;TIME_ELAPSED:43.708402
;LAYER:2
M106 S170
;TYPE:SUPPORT
G1 F2700 E12.86735
G1 F999.3 X112 Y109 E12.94718
G1 X112 Y111 E12.98709
G1 X108 Y111 E13.06692
G1 X108 Y109 E13.10683
G0 F9000 X110 Y109.4
G1 F999.3 X108.4 Y109.4 E13.13876
G1 X108.4 Y110.6 E13.1627
G1 X110 Y110.6 E13.19463
G1 X110 Y109.4 E13.21858
G1 X111.6 Y109.4 E13.25051
G1 X111.6 Y110.6 E13.27446
G1 X110 Y110.6 E13.30639
G0 F9000 X111.6 Y109.4
G1 F2700 E8.30639
;MESH:Connector.ipt
G0 F9000 X111.6 Y112.4
G0 X106.4 Y112.6
;TYPE:WALL-INNER
G1 F2700 E13.30639
G1 F999.3 X113.6 Y112.6 E13.45007
G1 X113.6 Y107.4 E13.55384
G1 X106.4 Y107.4 E13.69753
G1 X106.4 Y112.6 E13.8013
G0 F9000 X106.8 Y112.2
;TYPE:WALL-OUTER
G1 F999.3 X113.2 Y112.2 E13.92902
G1 X113.2 Y107.8 E14.01683
G1 X106.8 Y107.8 E14.14454
G1 X106.8 Y112.2 E14.23235
G0 F9000 X106.5 Y112.2
G0 X105.6 Y113.4
;TYPE:WALL-INNER
G1 F999.3 X105.6 Y106.6 E14.36805
G1 X114.4 Y106.6 E14.54367
G1 X114.4 Y113.4 E14.67937
G1 X105.6 Y113.4 E14.85498
G0 F9000 X105.2 Y113.8
;TYPE:WALL-OUTER
G1 F999.3 X105.2 Y106.2 E15.00665
G1 X114.8 Y106.2 E15.19823
G1 X114.8 Y113.8 E15.34989
G1 X105.2 Y113.8 E15.54147
G0 F9000 X105.822 Y113.176
;TYPE:SKIN
G1 F999.3 X105.963 Y113.034 E15.54816
G0 F9000 X106.104 Y112.893
G1 F999.3 X105.999 Y112.505 E15.55737
G1 X106.493 Y112.999 E15.57337
G1 X113.847 Y112.999 E15.7418
G0 F9000 X113.999 Y112.867
G1 F999.3 X113.999 Y112.584 E15.74817
G1 X113.999 Y107.493 E15.86272
G1 X113.893 Y107.105 E15.87176
G1 X114.176 Y106.822 E15.88077
G1 X113.221 Y106.999 E15.90262
G1 X106.15 Y106.999 E16.06172
G0 F9000 X105.999 Y107.131
G1 F999.3 X105.999 Y107.413 E16.06871
G1 X105.999 Y112.222 E16.18799
G0 F9000 X106.318 Y112.682
G1 F2700 E11.18799
;MESH:NONMESH
G0 F300 X106.318 Y112.682 Z0.48
G0 F9000 X106.6 Y109
G0 X108 Y109
;TIME_ELAPSED:55.836515
;LAYER:3
M106 S255
;TYPE:SUPPORT
G1 F2700 E16.18799
G1 F1014 X112 Y109 E16.26781
G1 X112 Y111 E16.30773
G1 X108 Y111 E16.38755
G1 X108 Y109 E16.42746
G0 F9000 X110 Y109.4
G1 F1014 X108.4 Y109.4 E16.45939
G1 X108.4 Y110.6 E16.48334
G1 X110 Y110.6 E16.51527
G1 X110 Y109.4 E16.53922
G1 X111.6 Y109.4 E16.57115
G1 X111.6 Y110.6 E16.59509
G1 X110 Y110.6 E16.62702
G0 F9000 X111.6 Y109.4
G1 F2700 E11.62702
;MESH:Connector.ipt
G0 F9000 X111.6 Y112.4
G0 X106.4 Y112.6
;TYPE:WALL-INNER
G1 F2700 E16.62702
G1 F1014 X113.6 Y112.6 E16.77071
G1 X113.6 Y107.4 E16.87448
G1 X106.4 Y107.4 E17.01816
G1 X106.4 Y112.6 E17.12193
G0 F9000 X106.8 Y112.2
;TYPE:WALL-OUTER
G1 F1014 X113.2 Y112.2 E17.24965
G1 X113.2 Y107.8 E17.33746
G1 X106.8 Y107.8 E17.46518
G1 X106.8 Y112.2 E17.55298
G0 F9000 X106.5 Y112.2
G0 X105.6 Y113.4
;TYPE:WALL-INNER
G1 F1014 X105.6 Y106.6 E17.68869
G1 X114.4 Y106.6 E17.8643
G1 X114.4 Y113.4 E18
G1 X105.6 Y113.4 E18.17561
G0 F9000 X105.2 Y113.8
;TYPE:WALL-OUTER
G1 F1014 X105.2 Y106.2 E18.32728
G1 X114.8 Y106.2 E18.51886
G1 X114.8 Y113.8 E18.67053
G1 X105.2 Y113.8 E18.8621
G0 F9000 X105.999 Y112.919
;TYPE:SKIN
G1 F1014 X106.203 Y112.999 E18.86749
G1 X113.274 Y112.999 E19.04124
G0 F9000 X113.998 Y112.274
G1 F1014 X113.998 Y111.991 E19.04822
G1 X113.998 Y107.183 E19.16688
G0 F9000 X113.9 Y106.999
G1 F1014 X113.617 Y106.999 E19.17328
G1 X106.546 Y106.999 E19.33343
G1 X105.999 Y107.545 E19.35094
G1 X106.131 Y107.131 E19.36078
G0 F9000 X106.206 Y106.774
G1 F1014 X105.775 Y107.205 E19.36686
G0 F9000 X105.849 Y106.848
G1 F1014 X105.999 Y107.828 E19.38679
