;FLAVOR:Marlin
;TIME:247
;Filament used: 0.061175m
;Layer height: 0.12
;MINX:80.281
;MINY:83.473
;MINZ:0.12
;MAXX:139.959
;MAXY:136.533
;MAXZ:0.96
;Generated with Cura_SteamEngine 4.4.0
M140 S50
M105
M190 S50
M104 S200
M105
M109 S200
M82 ;absolute extrusion mode
M201 X500.00 Y500.00 Z100.00 E5000.00 ;Setup machine max acceleration
M203 X500.00 Y500.00 Z10.00 E50.00 ;Setup machine max feedrate
M204 P500.00 R1000.00 T500.00 ;Setup Print/Retract/Travel acceleration
M205 X8.00 Y8.00 Z0.40 E5.00 ;Setup Jerk
M220 S100 ;Reset Feedrate
M221 S100 ;Reset Flowrate

G28 ;Home

G92 E0 ;Reset Extruder
G1 Z2.0 F3000 ;Move Z Axis up
G1 X10.1 Y20 Z0.28 F5000.0 ;Move to start position
G1 X10.1 Y200.0 Z0.28 F1500.0 E15 ;Draw the first line
G1 X10.4 Y200.0 Z0.28 F5000.0 ;Move to side a little
G1 X10.4 Y20 Z0.28 F1500.0 E30 ;Draw the second line
G92 E0 ;Reset Extruder
G1 Z2.0 F3000 ;Move Z Axis up

G92 E0
G92 E0
G1 F2700 E-5
;LAYER_COUNT:8
;LAYER:0
M107
G0 F6000 X86.132 Y87.288 Z0.12
;TYPE:SKIRT
G1 F2700 E0
G1 F1200 X86.75 Y86.716 E0.0168
G1 X87.117 Y86.401 E0.02646
G1 X87.854 Y85.821 E0.04517
G1 X89.001 Y85.098 E0.07223
G1 X89.213 Y84.982 E0.07705
G1 X90.054 Y84.567 E0.09577
G1 X90.668 Y84.319 E0.10898
G1 X90.943 Y84.217 E0.11484
G1 X91.835 Y83.928 E0.13355
G1 X92.53 Y83.76 E0.14782
G1 X92.761 Y83.712 E0.15252
G1 X93.687 Y83.561 E0.17125
G1 X94.432 Y83.497 E0.18617
G1 X94.742 Y83.481 E0.19236
G1 X96.024 Y83.489 E0.21795
G1 X97.204 Y83.566 E0.24155
G1 X99.926 Y83.71 E0.29594
G1 X102.424 Y83.769 E0.34581
G1 X104.948 Y83.757 E0.39618
G1 X107.45 Y83.674 E0.44614
G1 X108.937 Y83.577 E0.47587
G1 X109.078 Y83.568 E0.47869
G1 X110.731 Y83.481 E0.51173
G1 X112.024 Y83.489 E0.53753
G1 X113.204 Y83.566 E0.56113
G1 X115.926 Y83.71 E0.61552
G1 X118.424 Y83.769 E0.66539
G1 X120.948 Y83.757 E0.71576
G1 X123.45 Y83.674 E0.76572
G1 X124.937 Y83.577 E0.79545
G1 X125.08 Y83.568 E0.79831
G1 X126.721 Y83.482 E0.83111
G1 X127.659 Y83.473 E0.84983
G1 X128.44 Y83.527 E0.86545
G1 X128.708 Y83.555 E0.87083
G1 X129.636 Y83.692 E0.88955
G1 X130.553 Y83.909 E0.90835
G1 X130.762 Y83.968 E0.91268
G1 X132.047 Y84.418 E0.93985
G1 X132.27 Y84.512 E0.94468
G1 X133.118 Y84.913 E0.9634
G1 X133.734 Y85.263 E0.97754
G1 X134.017 Y85.436 E0.98416
G1 X134.796 Y85.959 E1.00289
G1 X135.524 Y86.543 E1.02151
G1 X135.676 Y86.676 E1.02554
G1 X136.354 Y87.323 E1.04424
G1 X136.742 Y87.747 E1.05571
G1 X136.912 Y87.943 E1.06089
G1 X137.496 Y88.677 E1.07961
G1 X137.893 Y89.26 E1.09368
G1 X138.035 Y89.484 E1.09898
G1 X138.502 Y90.297 E1.11769
G1 X138.801 Y90.917 E1.13142
G1 X138.918 Y91.181 E1.13719
G1 X139.261 Y92.054 E1.15591
G1 X139.487 Y92.796 E1.17138
G1 X139.552 Y93.039 E1.1764
G1 X139.756 Y93.954 E1.19511
G1 X139.855 Y94.632 E1.20879
G1 X139.887 Y94.912 E1.21441
G1 X139.954 Y95.847 E1.23312
G1 X139.952 Y96.522 E1.24659
G1 X139.945 Y96.735 E1.25084
G1 X139.875 Y97.664 E1.26943
G1 X139.738 Y98.824 E1.29274
G1 X139.712 Y99.032 E1.29692
G1 X139.683 Y99.243 E1.30118
G1 X139.418 Y101.695 E1.35039
G1 X139.218 Y104.219 E1.40092
G1 X139.089 Y106.753 E1.45155
G1 X139.033 Y109.24 E1.5012
G1 X139.047 Y111.765 E1.55159
G1 X139.133 Y114.295 E1.60211
G1 X139.288 Y116.798 E1.65215
G1 X139.52 Y119.35 E1.70329
G1 X139.709 Y121 E1.73643
G1 X139.831 Y121.983 E1.7562
G1 X139.868 Y122.323 E1.76302
G1 X139.912 Y122.798 E1.77254
G1 X139.959 Y123.735 E1.79127
G1 X139.925 Y124.672 E1.80998
G1 X139.815 Y125.589 E1.82841
G1 X139.727 Y126.127 E1.83929
G1 X139.536 Y127.045 E1.858
G1 X139.268 Y127.944 E1.87672
G1 X138.755 Y129.179 E1.90341
G1 X138.564 Y129.57 E1.91209
G1 X138.117 Y130.395 E1.93082
G1 X137.387 Y131.464 E1.95665
G1 X137.221 Y131.679 E1.96207
G1 X136.617 Y132.397 E1.98079
G1 X136.108 Y132.915 E1.99529
G1 X135.911 Y133.103 E2.00072
G1 X135.206 Y133.721 E2.01943
G1 X134.583 Y134.186 E2.03494
G1 X134.381 Y134.326 E2.03985
G1 X133.588 Y134.827 E2.05857
G1 X133.049 Y135.116 E2.07077
G1 X132.788 Y135.247 E2.0766
G1 X131.933 Y135.632 E2.09531
G1 X131.238 Y135.883 E2.11006
G1 X131.006 Y135.958 E2.11492
G1 X130.102 Y136.208 E2.13364
G1 X129.273 Y136.366 E2.15048
G1 X129.003 Y136.407 E2.15593
G1 X128.071 Y136.508 E2.17464
G1 X127.393 Y136.532 E2.18818
G1 X127.125 Y136.533 E2.19353
G1 X126.315 Y136.506 E2.2097
G1 X125.552 Y136.452 E2.22497
G1 X123.008 Y136.308 E2.27582
G1 X120.45 Y136.236 E2.32688
G1 X117.961 Y136.236 E2.37655
G1 X115.408 Y136.308 E2.42752
G1 X112.848 Y136.454 E2.47869
G1 X112.133 Y136.505 E2.493
G1 X111.347 Y136.533 E2.50869
G1 X111.083 Y136.533 E2.51396
G1 X110.313 Y136.506 E2.52934
G1 X109.546 Y136.452 E2.54468
G1 X107.008 Y136.308 E2.59541
G1 X104.45 Y136.236 E2.64648
G1 X101.961 Y136.236 E2.69615
G1 X99.408 Y136.308 E2.74712
G1 X96.848 Y136.454 E2.79829
G1 X96.133 Y136.505 E2.81259
G1 X95.195 Y136.532 E2.83132
G1 X94.445 Y136.496 E2.8463
G1 X93.959 Y136.456 E2.85604
G1 X93.028 Y136.339 E2.87476
G1 X91.792 Y136.056 E2.90007
G1 X91.527 Y135.979 E2.90557
G1 X90.638 Y135.679 E2.9243
G1 X89.882 Y135.355 E2.94071
G1 X89.648 Y135.244 E2.94588
G1 X88.818 Y134.806 E2.96461
G1 X88.281 Y134.471 E2.97724
G1 X88.076 Y134.335 E2.98215
G1 X87.317 Y133.784 E3.00086
G1 X86.746 Y133.298 E3.01583
G1 X86.576 Y133.143 E3.02042
G1 X85.91 Y132.482 E3.03914
G1 X85.423 Y131.917 E3.05403
G1 X85.211 Y131.654 E3.06077
G1 X84.654 Y130.9 E3.07948
G1 X84.343 Y130.41 E3.09106
G1 X84.235 Y130.23 E3.09525
G1 X83.787 Y129.406 E3.11397
G1 X83.454 Y128.656 E3.13034
G1 X83.37 Y128.446 E3.13486
G1 X83.059 Y127.561 E3.15358
G1 X82.882 Y126.909 E3.16706
G1 X82.767 Y126.426 E3.17697
G1 X82.685 Y126.054 E3.18457
G1 X82.571 Y125.489 E3.19607
G1 X82.545 Y125.355 E3.19879
G1 X82.246 Y123.774 E3.2309
G1 X82.184 Y123.471 E3.23708
G1 X82.153 Y123.314 E3.24027
G1 X81.928 Y122.134 E3.26424
G1 X81.896 Y121.959 E3.26779
G1 X81.614 Y120.34 E3.30059
G1 X80.974 Y117.177 E3.36499
G1 X80.919 Y116.885 E3.37092
G1 X80.782 Y116.1 E3.38682
G1 X80.732 Y115.79 E3.39309
G1 X80.62 Y115.019 E3.40863
G1 X80.578 Y114.695 E3.41515
G1 X80.481 Y113.852 E3.43209
G1 X80.449 Y113.534 E3.43847
G1 X80.394 Y112.892 E3.45132
G1 X80.372 Y112.585 E3.45747
G1 X80.319 Y111.664 E3.47588
G1 X80.305 Y111.336 E3.48243
G1 X80.285 Y110.612 E3.49688
G1 X80.281 Y110.292 E3.50327
G1 X80.282 Y109.605 E3.51698
G1 X80.286 Y109.326 E3.52255
G1 X80.304 Y108.656 E3.53592
G1 X80.315 Y108.385 E3.54133
G1 X80.35 Y107.706 E3.5549
G1 X80.368 Y107.418 E3.56066
G1 X80.414 Y106.827 E3.57249
G1 X80.437 Y106.576 E3.57752
G1 X80.502 Y105.932 E3.59044
G1 X80.533 Y105.653 E3.59604
G1 X80.629 Y104.896 E3.61127
G1 X80.667 Y104.626 E3.61671
G1 X80.759 Y104.021 E3.62892
G1 X80.798 Y103.782 E3.63375
G1 X80.874 Y103.347 E3.64257
G1 X80.936 Y103.022 E3.64917
G1 X81.168 Y101.895 E3.67213
G1 X81.206 Y101.718 E3.67574
G1 X81.339 Y101.123 E3.68791
G1 X81.866 Y98.6 E3.73935
G1 X81.887 Y98.484 E3.7417
G1 X81.918 Y98.318 E3.74507
G1 X81.996 Y97.917 E3.75322
G1 X82.453 Y95.364 E3.80498
G1 X82.54 Y94.801 E3.81635
G1 X82.57 Y94.612 E3.82017
G1 X82.66 Y94.087 E3.8308
G1 X82.917 Y92.952 E3.85402
G1 X83.029 Y92.556 E3.86223
G1 X83.323 Y91.666 E3.88094
G1 X83.775 Y90.631 E3.90348
G1 X83.881 Y90.419 E3.90821
G1 X84.336 Y89.598 E3.92694
G1 X84.732 Y88.997 E3.9413
G1 X84.926 Y88.722 E3.94802
G1 X85.498 Y87.979 E3.96673
G1 X86.132 Y87.288 E3.98544
G0 F6000 X86.439 Y87.547
G1 F1200 X87.01 Y87.02 E4.00095
G1 X87.377 Y86.705 E4.0106
G1 X88.101 Y86.136 E4.02898
G1 X89.193 Y85.449 E4.05472
G1 X89.405 Y85.333 E4.05955
G1 X90.231 Y84.927 E4.07791
G1 X90.807 Y84.694 E4.09031
G1 X91.082 Y84.592 E4.09617
G1 X91.958 Y84.309 E4.11454
G1 X92.611 Y84.152 E4.12794
G1 X92.842 Y84.104 E4.13265
G1 X93.751 Y83.956 E4.15103
G1 X94.453 Y83.896 E4.16509
G1 X94.763 Y83.88 E4.17128
G1 X95.998 Y83.888 E4.19593
G1 X97.239 Y83.969 E4.22075
G1 X99.896 Y84.11 E4.27385
G1 X102.416 Y84.169 E4.32415
G1 X104.963 Y84.157 E4.37498
G1 X107.458 Y84.075 E4.42479
G1 X108.963 Y83.976 E4.45489
G1 X109.099 Y83.968 E4.45761
G1 X110.752 Y83.881 E4.49064
G1 X111.998 Y83.888 E4.51551
G1 X113.239 Y83.969 E4.54033
G1 X115.896 Y84.11 E4.59343
G1 X118.416 Y84.169 E4.64373
G1 X120.963 Y84.157 E4.69456
G1 X123.458 Y84.075 E4.74438
G1 X124.963 Y83.976 E4.77447
G1 X125.101 Y83.968 E4.77723
G1 X126.742 Y83.882 E4.81003
G1 X127.663 Y83.873 E4.82841
G1 X128.398 Y83.924 E4.84311
G1 X128.666 Y83.952 E4.84849
G1 X129.577 Y84.088 E4.86687
G1 X130.445 Y84.294 E4.88467
G1 X130.654 Y84.353 E4.889
G1 X131.891 Y84.786 E4.91516
G1 X132.114 Y84.88 E4.91999
G1 X132.946 Y85.274 E4.93836
G1 X133.526 Y85.604 E4.95168
G1 X133.809 Y85.777 E4.9583
G1 X134.573 Y86.291 E4.97667
G1 X135.26 Y86.844 E4.99427
G1 X135.412 Y86.977 E4.9983
G1 X136.078 Y87.612 E5.01667
G1 X136.44 Y88.009 E5.02739
G1 X136.61 Y88.205 E5.03256
G1 X137.182 Y88.926 E5.05093
G1 X137.555 Y89.475 E5.06418
G1 X137.697 Y89.699 E5.06947
G1 X138.155 Y90.497 E5.08783
G1 X138.435 Y91.079 E5.10072
G1 X138.552 Y91.343 E5.10648
G1 X138.888 Y92.2 E5.12485
G1 X139.101 Y92.899 E5.13943
G1 X139.166 Y93.142 E5.14445
G1 X139.365 Y94.041 E5.16283
G1 X139.457 Y94.677 E5.17565
G1 X139.489 Y94.957 E5.18128
G1 X139.554 Y95.876 E5.19966
G1 X139.552 Y96.509 E5.21229
G1 X139.545 Y96.722 E5.21655
G1 X139.478 Y97.617 E5.23446
G1 X139.341 Y98.777 E5.25777
G1 X139.315 Y98.977 E5.26179
G1 X139.292 Y99.144 E5.26516
G1 X139.017 Y101.688 E5.31622
G1 X138.818 Y104.206 E5.36663
G1 X138.69 Y106.723 E5.41692
G1 X138.633 Y109.233 E5.46702
G1 X138.647 Y111.78 E5.51785
G1 X138.733 Y114.299 E5.56815
G1 X138.889 Y116.816 E5.61848
G1 X139.122 Y119.388 E5.67002
G1 X139.322 Y121.13 E5.70501
G1 X139.434 Y122.032 E5.72315
G1 X139.47 Y122.36 E5.72973
G1 X139.514 Y122.835 E5.73925
G1 X139.559 Y123.755 E5.75763
G1 X139.524 Y124.675 E5.776
G1 X139.42 Y125.524 E5.79307
G1 X139.332 Y126.062 E5.80395
G1 X139.144 Y126.963 E5.82232
G1 X138.879 Y127.845 E5.8407
G1 X138.395 Y129.004 E5.86576
G1 X138.204 Y129.395 E5.87445
G1 X137.765 Y130.203 E5.8928
G1 X137.07 Y131.22 E5.91738
G1 X136.904 Y131.435 E5.9228
G1 X136.31 Y132.139 E5.94118
G1 X135.832 Y132.625 E5.95479
G1 X135.635 Y132.813 E5.96022
G1 X134.942 Y133.42 E5.97861
G1 X134.355 Y133.857 E5.99321
G1 X134.153 Y133.997 E5.99811
G1 X133.374 Y134.488 E6.01649
G1 X132.87 Y134.759 E6.02791
G1 X132.609 Y134.89 E6.03374
G1 X131.769 Y135.267 E6.05211
G1 X131.115 Y135.502 E6.06598
G1 X130.883 Y135.577 E6.07085
G1 X129.995 Y135.822 E6.08923
G1 X129.213 Y135.971 E6.10512
G1 X128.943 Y136.012 E6.11057
G1 X128.028 Y136.11 E6.12893
G1 X127.392 Y136.132 E6.14163
G1 X127.124 Y136.133 E6.14698
G1 X126.343 Y136.107 E6.16257
G1 X125.605 Y136.055 E6.17734
G1 X123.006 Y135.908 E6.22928
G1 X120.461 Y135.836 E6.28009
G1 X117.95 Y135.836 E6.3302
G1 X115.41 Y135.908 E6.38091
G1 X112.792 Y136.057 E6.43324
G1 X112.104 Y136.106 E6.44701
G1 X111.347 Y136.133 E6.46212
G1 X111.083 Y136.133 E6.46739
G1 X110.341 Y136.107 E6.48221
G1 X109.6 Y136.055 E6.49703
G1 X107.006 Y135.908 E6.54888
G1 X104.461 Y135.836 E6.59969
G1 X101.95 Y135.836 E6.6498
G1 X99.41 Y135.908 E6.70051
G1 X96.792 Y136.057 E6.75284
G1 X96.104 Y136.106 E6.7666
G1 X95.184 Y136.132 E6.78497
G1 X94.478 Y136.097 E6.79907
G1 X93.992 Y136.057 E6.80881
G1 X93.078 Y135.942 E6.82719
G1 X91.903 Y135.672 E6.85125
G1 X91.638 Y135.595 E6.85676
G1 X90.766 Y135.3 E6.87513
G1 X90.053 Y134.993 E6.89062
G1 X89.819 Y134.882 E6.89579
G1 X89.005 Y134.452 E6.91416
G1 X88.502 Y134.138 E6.92599
G1 X88.297 Y134.002 E6.9309
G1 X87.553 Y133.46 E6.94927
G1 X87.015 Y133.002 E6.96337
G1 X86.845 Y132.847 E6.96796
G1 X86.192 Y132.198 E6.98633
G1 X85.734 Y131.666 E7.00034
G1 X85.522 Y131.403 E7.00708
G1 X84.976 Y130.662 E7.02545
G1 X84.686 Y130.205 E7.03625
G1 X84.578 Y130.025 E7.04044
G1 X84.139 Y129.215 E7.05883
G1 X83.825 Y128.508 E7.07427
G1 X83.741 Y128.298 E7.07878
G1 X83.437 Y127.429 E7.09715
G1 X83.271 Y126.816 E7.10983
G1 X83.156 Y126.333 E7.11973
G1 X83.077 Y125.975 E7.12705
G1 X82.963 Y125.41 E7.13855
G1 X82.938 Y125.281 E7.14117
G1 X82.646 Y123.733 E7.17261
G1 X82.575 Y123.39 E7.1796
G1 X82.546 Y123.239 E7.18267
G1 X82.321 Y122.059 E7.20664
G1 X82.29 Y121.89 E7.21007
G1 X82.008 Y120.27 E7.24289
G1 X81.366 Y117.098 E7.30747
G1 X81.313 Y116.816 E7.3132
G1 X81.176 Y116.031 E7.3291
G1 X81.128 Y115.733 E7.33512
G1 X81.016 Y114.962 E7.35067
G1 X80.975 Y114.65 E7.35695
G1 X80.878 Y113.807 E7.37388
G1 X80.848 Y113.5 E7.38004
G1 X80.793 Y112.858 E7.3929
G1 X80.772 Y112.562 E7.39882
G1 X80.719 Y111.641 E7.41723
G1 X80.705 Y111.325 E7.42354
G1 X80.685 Y110.601 E7.438
G1 X80.681 Y110.293 E7.44414
G1 X80.682 Y109.606 E7.45785
G1 X80.686 Y109.336 E7.46324
G1 X80.704 Y108.666 E7.47662
G1 X80.714 Y108.405 E7.48183
G1 X80.749 Y107.726 E7.4954
G1 X80.767 Y107.449 E7.50094
G1 X80.813 Y106.858 E7.51277
G1 X80.835 Y106.617 E7.5176
G1 X80.9 Y105.973 E7.53051
G1 X80.93 Y105.703 E7.53593
G1 X81.026 Y104.946 E7.55116
G1 X81.062 Y104.686 E7.5564
G1 X81.154 Y104.081 E7.56861
G1 X81.192 Y103.851 E7.57326
G1 X81.268 Y103.416 E7.58208
G1 X81.328 Y103.103 E7.58844
G1 X81.56 Y101.976 E7.6114
G1 X81.596 Y101.805 E7.61489
G1 X81.725 Y101.228 E7.62669
G1 X82.264 Y98.647 E7.6793
G1 X82.281 Y98.554 E7.68119
G1 X82.311 Y98.394 E7.68444
G1 X82.377 Y98.052 E7.69139
G1 X82.849 Y95.423 E7.74469
G1 X82.935 Y94.861 E7.75604
G1 X82.964 Y94.68 E7.7597
G1 X83.054 Y94.155 E7.77033
G1 X83.302 Y93.061 E7.79271
G1 X83.414 Y92.665 E7.80093
G1 X83.703 Y91.791 E7.8193
G1 X84.133 Y90.81 E7.84067
G1 X84.239 Y90.598 E7.8454
G1 X84.686 Y89.793 E7.86378
G1 X85.058 Y89.228 E7.87728
G1 X85.252 Y88.953 E7.88399
G1 X85.815 Y88.224 E7.90237
G1 X86.439 Y87.547 E7.92075
G0 F6000 X86.746 Y87.807
G1 F1200 X87.271 Y87.323 E7.935
G1 X87.638 Y87.008 E7.94465
G1 X88.348 Y86.451 E7.96266
G1 X89.385 Y85.8 E7.98709
G1 X89.597 Y85.684 E7.99191
G1 X90.408 Y85.286 E8.00994
G1 X90.946 Y85.069 E8.02152
G1 X91.221 Y84.967 E8.02737
G1 X92.081 Y84.69 E8.0454
G1 X92.693 Y84.543 E8.05796
G1 X92.924 Y84.495 E8.06267
G1 X93.815 Y84.351 E8.08068
G1 X94.473 Y84.296 E8.09386
G1 X94.783 Y84.28 E8.10005
G1 X95.972 Y84.288 E8.12378
G1 X97.108 Y84.362 E8.1465
G1 X99.899 Y84.51 E8.20228
G1 X102.409 Y84.569 E8.25238
G1 X104.979 Y84.557 E8.30367
G1 X107.466 Y84.475 E8.35333
G1 X108.989 Y84.375 E8.38378
G1 X109.12 Y84.367 E8.3864
G1 X110.773 Y84.28 E8.41944
G1 X111.972 Y84.288 E8.44336
G1 X113.108 Y84.362 E8.46608
G1 X115.899 Y84.51 E8.52186
G1 X118.409 Y84.569 E8.57196
G1 X120.979 Y84.557 E8.62325
G1 X123.466 Y84.475 E8.67291
G1 X124.989 Y84.375 E8.70337
G1 X125.122 Y84.367 E8.70602
G1 X126.763 Y84.281 E8.73882
G1 X127.666 Y84.274 E8.75684
G1 X128.357 Y84.322 E8.77066
G1 X128.625 Y84.35 E8.77604
G1 X129.518 Y84.484 E8.79406
G1 X130.336 Y84.679 E8.81084
G1 X130.545 Y84.738 E8.81517
G1 X131.736 Y85.155 E8.84036
G1 X131.959 Y85.249 E8.84519
G1 X132.775 Y85.636 E8.86321
G1 X133.317 Y85.945 E8.87566
G1 X133.6 Y86.118 E8.88228
G1 X134.349 Y86.623 E8.90031
G1 X134.997 Y87.145 E8.91691
G1 X135.149 Y87.278 E8.92094
G1 X135.801 Y87.902 E8.93895
G1 X136.137 Y88.271 E8.94891
G1 X136.307 Y88.467 E8.95409
G1 X136.868 Y89.174 E8.9721
G1 X137.217 Y89.689 E8.98451
G1 X137.359 Y89.913 E8.98981
G1 X137.808 Y90.696 E9.00782
G1 X138.069 Y91.241 E9.01988
G1 X138.186 Y91.505 E9.02564
G1 X138.515 Y92.346 E9.04366
G1 X138.715 Y93.002 E9.05735
G1 X138.78 Y93.245 E9.06237
G1 X138.974 Y94.127 E9.08039
G1 X139.06 Y94.723 E9.09241
G1 X139.092 Y95.003 E9.09803
G1 X139.155 Y95.904 E9.11606
G1 X139.152 Y96.496 E9.12787
G1 X139.145 Y96.709 E9.13212
G1 X139.081 Y97.57 E9.14935
G1 X138.944 Y98.73 E9.17266
G1 X138.919 Y98.923 E9.17655
G1 X138.892 Y99.118 E9.18047
G1 X138.619 Y101.649 E9.23128
G1 X138.421 Y104.142 E9.28118
G1 X138.289 Y106.729 E9.33288
G1 X138.233 Y109.226 E9.38272
G1 X138.247 Y111.796 E9.43401
G1 X138.334 Y114.337 E9.48475
G1 X138.489 Y116.848 E9.53495
G1 X138.72 Y119.388 E9.58585
G1 X138.927 Y121.193 E9.62211
G1 X139.037 Y122.082 E9.63998
G1 X139.072 Y122.397 E9.64631
G1 X139.116 Y122.872 E9.65583
G1 X139.159 Y123.774 E9.67385
G1 X139.122 Y124.677 E9.69188
G1 X139.025 Y125.46 E9.70763
G1 X138.937 Y125.998 E9.71851
G1 X138.752 Y126.881 E9.73651
G1 X138.49 Y127.746 E9.75455
G1 X138.036 Y128.828 E9.77796
G1 X137.845 Y129.219 E9.78665
G1 X137.413 Y130.012 E9.80467
G1 X136.754 Y130.976 E9.82797
