;FLAVOR:Marlin
;TIME:8993
;Filament used: 11.0278m
;Layer height: 0.28
;MINX:30.273
;MINY:29.105
;MINZ:0.28
;MAXX:189.727
;MAXY:190.895
;MAXZ:3.2
;Generated with Cura_SteamEngine 4.2.1
M140 S50
M105
M190 S50
M104 S190
M105
M109 S190
M82 ;absolute extrusion mode
M201 X500.00 Y500.00 Z100.00 E5000.00 ;Setup machine max acceleration
M203 X500.00 Y500.00 Z10.00 E50.00 ;Setup machine max feedrate
M204 P500.00 R1000.00 T500.00 ;Setup Print/Retract/Travel acceleration
M205 X8.00 Y8.00 Z0.40 E5.00 ;Setup Jerk
M220 S100 ;Reset Feedrate
M221 S100 ;Reset Flowrate

G28 ;Home

G92 E0 ;Reset Extruder
G1 Z2.0 F3000 ;Move Z Axis up
G1 X10.1 Y20 Z0.28 F5000.0 ;Move to start position
G1 X10.1 Y200.0 Z0.28 F1500.0 E15 ;Draw the first line
G1 X10.4 Y200.0 Z0.28 F5000.0 ;Move to side a little
G1 X10.4 Y20 Z0.28 F1500.0 E30 ;Draw the second line
G92 E0 ;Reset Extruder
G1 Z2.0 F3000 ;Move Z Axis up

M141 S28
G92 E0
G92 E0
G1 F2700 E-5
;LAYER_COUNT:10
;LAYER:0
M107
G0 F6000 X50.133 Y52.794 Z0.28
;TYPE:SKIRT
G1 F2700 E0
G1 F1200 X50.386 Y52.567 E0.01741
G1 X51.012 Y52.059 E0.0587
G1 X51.537 Y51.705 E0.09114
G1 X51.839 Y51.518 E0.10933
G1 X52.545 Y51.128 E0.15064
G1 X53.019 Y50.915 E0.17726
G1 X53.334 Y50.785 E0.19471
G1 X54.089 Y50.516 E0.23577
G1 X113.954 Y32.467 E3.43842
G1 X123.702 Y29.528 E3.95992
G1 X124.366 Y29.357 E3.99504
G1 X124.692 Y29.288 E4.01211
G1 X125.489 Y29.161 E4.05345
G1 X126.097 Y29.117 E4.08467
G1 X126.445 Y29.105 E4.1025
G1 X127.252 Y29.117 E4.14384
G1 X127.832 Y29.175 E4.1737
G1 X128.182 Y29.223 E4.1918
G1 X128.975 Y29.373 E4.23313
G1 X129.6 Y29.549 E4.26639
G1 X129.928 Y29.656 E4.28406
G1 X130.682 Y29.944 E4.32541
G1 X131.219 Y30.204 E4.35596
G1 X131.53 Y30.369 E4.374
G1 X132.223 Y30.782 E4.41532
G1 X132.732 Y31.15 E4.44749
G1 X133.008 Y31.366 E4.46544
G1 X133.565 Y31.844 E4.50304
G1 X184.067 Y79.303 E8.05274
G1 X184.069 Y79.304 E8.05286
G1 X186.542 Y81.629 E8.22672
G1 X187.018 Y82.116 E8.2616
G1 X187.242 Y82.365 E8.27875
G1 X187.751 Y82.991 E8.32008
G1 X188.112 Y83.526 E8.35314
G1 X188.297 Y83.825 E8.37115
G1 X188.687 Y84.531 E8.41246
G1 X188.909 Y85.025 E8.4402
G1 X189.042 Y85.35 E8.45818
G1 X189.31 Y86.111 E8.49951
G1 X189.467 Y86.727 E8.53207
G1 X189.539 Y87.063 E8.54967
G1 X189.669 Y87.86 E8.59103
G1 X189.715 Y88.487 E8.62324
G1 X189.727 Y88.833 E8.64097
G1 X189.715 Y89.639 E8.68226
G1 X189.655 Y90.235 E8.71294
G1 X189.605 Y90.595 E8.73156
G1 X189.466 Y91.337 E8.77022
G1 X175.17 Y152.191 E11.97206
G1 X172.844 Y162.09 E12.4929
G1 X172.656 Y162.76 E12.52854
G1 X172.548 Y163.09 E12.54633
G1 X172.26 Y163.843 E12.58762
G1 X172.012 Y164.356 E12.61681
G1 X171.849 Y164.665 E12.6347
G1 X171.437 Y165.359 E12.67604
G1 X171.074 Y165.864 E12.7079
G1 X170.857 Y166.143 E12.726
G1 X170.331 Y166.755 E12.76733
G1 X169.869 Y167.204 E12.80033
G1 X169.615 Y167.432 E12.81781
G1 X168.989 Y167.94 E12.85911
G1 X168.463 Y168.295 E12.89161
G1 X168.161 Y168.482 E12.90981
G1 X167.455 Y168.872 E12.95112
G1 X166.981 Y169.085 E12.97774
G1 X166.666 Y169.215 E12.99519
G1 X165.911 Y169.484 E13.03624
G1 X99.551 Y189.492 E16.58638
G1 X99.549 Y189.493 E16.58649
G1 X96.296 Y190.473 E16.76051
G1 X95.634 Y190.643 E16.79552
G1 X95.308 Y190.712 E16.81259
G1 X94.511 Y190.839 E16.85392
G1 X93.903 Y190.883 E16.88515
G1 X93.555 Y190.895 E16.90298
G1 X92.748 Y190.883 E16.94432
G1 X92.168 Y190.825 E16.97418
G1 X91.818 Y190.777 E16.99227
G1 X91.025 Y190.627 E17.03361
G1 X90.4 Y190.451 E17.06687
G1 X90.072 Y190.344 E17.08454
G1 X89.318 Y190.056 E17.12588
G1 X88.781 Y189.796 E17.15644
G1 X88.47 Y189.631 E17.17448
G1 X87.777 Y189.218 E17.2158
G1 X87.268 Y188.85 E17.24797
G1 X86.992 Y188.634 E17.26592
G1 X86.44 Y188.161 E17.30315
G1 X85.651 Y187.421 E17.35856
G1 X85.646 Y187.416 E17.35892
G1 X40.877 Y145.343 E20.50572
G1 X33.46 Y138.372 E21.02708
G1 X32.982 Y137.884 E21.06207
G1 X32.758 Y137.635 E21.07923
G1 X32.249 Y137.009 E21.12055
G1 X31.888 Y136.474 E21.15361
G1 X31.703 Y136.175 E21.17162
G1 X31.313 Y135.469 E21.21293
G1 X31.091 Y134.975 E21.24067
G1 X30.958 Y134.65 E21.25866
G1 X30.69 Y133.889 E21.29998
G1 X30.533 Y133.273 E21.33254
G1 X30.461 Y132.937 E21.35014
G1 X30.331 Y132.14 E21.39151
G1 X30.285 Y131.513 E21.42371
G1 X30.273 Y131.167 E21.44144
G1 X30.285 Y130.361 E21.48273
G1 X30.344 Y129.774 E21.51295
G1 X30.394 Y129.411 E21.53172
G1 X30.534 Y128.66 E21.57085
G1 X46.381 Y61.204 E25.12005
G1 X46.381 Y61.202 E25.12015
G1 X47.156 Y57.908 E25.29348
G1 X47.344 Y57.24 E25.32902
G1 X47.452 Y56.91 E25.34681
G1 X47.74 Y56.157 E25.3881
G1 X47.988 Y55.644 E25.41728
G1 X48.151 Y55.335 E25.43518
G1 X48.563 Y54.641 E25.47652
G1 X48.928 Y54.132 E25.5086
G1 X49.146 Y53.852 E25.52678
G1 X49.673 Y53.241 E25.5681
G1 X50.133 Y52.794 E25.60096
G0 F6000 X50.427 Y53.122
G1 F1200 X50.68 Y52.895 E25.61837
G1 X51.29 Y52.401 E25.65857
G1 X51.768 Y52.079 E25.68809
G1 X52.07 Y51.892 E25.70629
G1 X52.758 Y51.514 E25.7465
G1 X53.187 Y51.321 E25.77059
G1 X53.502 Y51.191 E25.78805
G1 X54.216 Y50.937 E25.82686
G1 X114.081 Y32.888 E29.02952
G1 X123.829 Y29.949 E29.55102
G1 X124.458 Y29.788 E29.58427
G1 X124.784 Y29.719 E29.60134
G1 X125.558 Y29.596 E29.64148
G1 X126.113 Y29.557 E29.66998
G1 X126.461 Y29.545 E29.68781
G1 X127.245 Y29.558 E29.72798
G1 X127.772 Y29.611 E29.75511
G1 X128.122 Y29.659 E29.7732
G1 X128.893 Y29.805 E29.81339
G1 X129.464 Y29.968 E29.84381
G1 X129.792 Y30.075 E29.86148
G1 X130.525 Y30.356 E29.90169
G1 X131.013 Y30.593 E29.92948
G1 X131.324 Y30.758 E29.94751
G1 X131.997 Y31.161 E29.98769
G1 X132.461 Y31.496 E30.017
G1 X132.737 Y31.712 E30.03495
G1 X133.264 Y32.165 E30.07055
G1 X183.766 Y79.624 E33.62026
G1 X183.767 Y79.625 E33.62033
G1 X186.24 Y81.95 E33.79419
G1 X186.691 Y82.41 E33.82718
G1 X186.915 Y82.659 E33.84434
G1 X187.409 Y83.269 E33.88454
G1 X187.738 Y83.758 E33.91473
G1 X187.923 Y84.057 E33.93274
G1 X188.301 Y84.744 E33.9729
G1 X188.501 Y85.192 E33.99803
G1 X188.634 Y85.517 E34.01602
G1 X188.894 Y86.257 E34.0562
G1 X189.037 Y86.82 E34.08595
G1 X189.109 Y87.156 E34.10355
G1 X189.234 Y87.93 E34.14371
G1 X189.275 Y88.502 E34.17308
G1 X189.287 Y88.848 E34.19081
G1 X189.275 Y89.633 E34.23103
G1 X189.219 Y90.174 E34.25889
G1 X189.169 Y90.534 E34.2775
G1 X189.038 Y91.236 E34.31408
G1 X174.742 Y152.09 E37.51591
G1 X172.416 Y161.989 E38.03676
G1 X172.238 Y162.623 E38.07049
G1 X172.13 Y162.953 E38.08827
G1 X171.848 Y163.685 E38.12845
G1 X171.623 Y164.151 E38.15496
G1 X171.46 Y164.46 E38.17285
G1 X171.059 Y165.134 E38.21302
G1 X170.727 Y165.594 E38.24208
G1 X170.51 Y165.873 E38.26018
G1 X169.997 Y166.467 E38.30038
G1 X169.576 Y166.876 E38.33045
G1 X169.322 Y167.104 E38.34793
G1 X168.712 Y167.598 E38.38814
G1 X168.232 Y167.921 E38.41777
G1 X167.93 Y168.108 E38.43596
G1 X167.242 Y168.486 E38.47617
G1 X166.813 Y168.679 E38.50027
G1 X166.498 Y168.809 E38.51772
G1 X165.784 Y169.063 E38.55654
G1 X99.424 Y189.071 E42.10667
G1 X99.422 Y189.072 E42.10679
G1 X96.169 Y190.052 E42.28081
G1 X95.542 Y190.212 E42.31395
G1 X95.216 Y190.281 E42.33102
G1 X94.442 Y190.404 E42.37116
G1 X93.887 Y190.443 E42.39966
G1 X93.539 Y190.455 E42.41749
G1 X92.755 Y190.442 E42.45765
G1 X92.228 Y190.389 E42.48478
G1 X91.878 Y190.341 E42.50288
G1 X91.107 Y190.195 E42.54307
G1 X90.536 Y190.032 E42.57349
G1 X90.208 Y189.925 E42.59116
G1 X89.475 Y189.644 E42.63137
G1 X88.987 Y189.407 E42.65916
G1 X88.676 Y189.242 E42.67719
G1 X88.003 Y188.839 E42.71737
G1 X87.539 Y188.504 E42.74668
G1 X87.263 Y188.288 E42.76463
G1 X86.741 Y187.84 E42.79987
G1 X85.952 Y187.1 E42.85527
G1 X85.947 Y187.095 E42.85564
G1 X41.178 Y145.022 E46.00243
G1 X33.761 Y138.051 E46.52379
G1 X33.309 Y137.59 E46.55686
G1 X33.085 Y137.341 E46.57402
G1 X32.591 Y136.731 E46.61422
G1 X32.262 Y136.242 E46.64441
G1 X32.077 Y135.943 E46.66242
G1 X31.699 Y135.256 E46.70258
G1 X31.499 Y134.808 E46.72771
G1 X31.366 Y134.483 E46.7457
G1 X31.106 Y133.743 E46.78587
G1 X30.963 Y133.18 E46.81563
G1 X30.891 Y132.844 E46.83323
G1 X30.766 Y132.07 E46.87339
G1 X30.725 Y131.498 E46.90276
G1 X30.713 Y131.152 E46.92049
G1 X30.725 Y130.367 E46.96071
G1 X30.78 Y129.834 E46.98815
G1 X30.83 Y129.471 E47.00692
G1 X30.962 Y128.761 E47.04391
G1 X46.809 Y61.305 E50.59311
G1 X46.81 Y61.303 E50.59322
G1 X47.585 Y58.009 E50.76655
G1 X47.762 Y57.377 E50.80017
G1 X47.87 Y57.047 E50.81795
G1 X48.152 Y56.315 E50.85813
G1 X48.377 Y55.849 E50.88464
G1 X48.54 Y55.54 E50.90253
G1 X48.941 Y54.866 E50.9427
G1 X49.275 Y54.403 E50.97195
G1 X49.493 Y54.123 E50.99012
G1 X50.006 Y53.529 E51.03032
G1 X50.427 Y53.122 E51.06032
G0 F6000 X50.721 Y53.449
G1 F1200 X50.974 Y53.222 E51.07773
G1 X51.567 Y52.744 E51.11674
G1 X52 Y52.454 E51.14343
G1 X52.302 Y52.267 E51.16163
G1 X52.97 Y51.9 E51.20067
G1 X53.354 Y51.728 E51.22222
G1 X53.669 Y51.598 E51.23967
G1 X54.343 Y51.358 E51.27632
G1 X114.208 Y33.309 E54.47897
G1 X123.956 Y30.37 E55.00047
G1 X124.549 Y30.218 E55.03183
G1 X124.875 Y30.149 E55.04889
G1 X125.627 Y30.031 E55.08788
G1 X126.128 Y29.996 E55.11361
G1 X126.476 Y29.984 E55.13144
G1 X127.238 Y29.998 E55.17048
G1 X127.712 Y30.047 E55.19489
G1 X128.062 Y30.095 E55.21298
G1 X128.811 Y30.238 E55.25204
G1 X129.328 Y30.386 E55.27958
G1 X129.656 Y30.493 E55.29726
G1 X130.366 Y30.767 E55.33624
G1 X130.807 Y30.982 E55.36137
G1 X131.118 Y31.147 E55.3794
G1 X131.771 Y31.539 E55.41841
G1 X132.189 Y31.843 E55.44488
G1 X132.465 Y32.059 E55.46283
G1 X132.963 Y32.485 E55.4964
G1 X183.465 Y79.944 E59.04611
G1 X183.466 Y79.946 E59.04622
G1 X185.939 Y82.271 E59.22008
G1 X186.363 Y82.705 E59.25116
G1 X186.587 Y82.954 E59.26831
G1 X187.066 Y83.546 E59.30732
G1 X187.364 Y83.989 E59.33467
G1 X187.549 Y84.288 E59.35268
G1 X187.915 Y84.956 E59.39169
G1 X188.094 Y85.358 E59.41423
G1 X188.227 Y85.683 E59.43222
G1 X188.478 Y86.403 E59.47127
G1 X188.607 Y86.912 E59.49817
G1 X188.679 Y87.248 E59.51577
G1 X188.799 Y88 E59.55477
G1 X188.836 Y88.517 E59.58132
G1 X188.848 Y88.863 E59.59906
G1 X188.834 Y89.625 E59.63809
G1 X188.783 Y90.114 E59.66327
G1 X188.733 Y90.474 E59.68189
G1 X188.61 Y91.135 E59.71633
G1 X174.314 Y151.989 E62.91816
G1 X171.988 Y161.888 E63.43901
G1 X171.82 Y162.486 E63.47082
G1 X171.712 Y162.816 E63.48861
G1 X171.437 Y163.527 E63.52765
G1 X171.233 Y163.945 E63.55148
G1 X171.07 Y164.254 E63.56937
G1 X170.68 Y164.909 E63.60842
G1 X170.38 Y165.324 E63.63465
G1 X170.163 Y165.603 E63.65275
G1 X169.664 Y166.179 E63.69179
G1 X169.282 Y166.549 E63.71903
G1 X169.028 Y166.777 E63.73651
G1 X168.435 Y167.255 E63.77552
G1 X168 Y167.546 E63.80233
G1 X167.698 Y167.733 E63.82052
G1 X167.03 Y168.1 E63.85956
G1 X166.646 Y168.272 E63.88111
G1 X166.331 Y168.402 E63.89857
G1 X165.657 Y168.642 E63.93521
G1 X99.297 Y188.65 E67.48535
G1 X99.295 Y188.65 E67.48545
G1 X96.042 Y189.63 E67.65947
G1 X95.451 Y189.782 E67.69072
G1 X95.125 Y189.851 E67.70779
G1 X94.373 Y189.969 E67.74678
G1 X93.872 Y190.004 E67.77251
G1 X93.524 Y190.016 E67.79034
G1 X92.762 Y190.002 E67.82938
G1 X92.288 Y189.953 E67.85379
G1 X91.938 Y189.905 E67.87188
G1 X91.189 Y189.762 E67.91094
G1 X90.672 Y189.614 E67.93848
G1 X90.344 Y189.507 E67.95615
G1 X89.634 Y189.233 E67.99514
G1 X89.193 Y189.018 E68.02027
G1 X88.882 Y188.853 E68.0383
G1 X88.229 Y188.461 E68.07731
G1 X87.811 Y188.157 E68.10378
G1 X87.535 Y187.941 E68.12173
G1 X87.042 Y187.519 E68.15497
G1 X86.253 Y186.779 E68.21038
G1 X86.248 Y186.774 E68.21074
G1 X41.479 Y144.701 E71.35754
G1 X34.062 Y137.73 E71.8789
G1 X33.637 Y137.295 E71.91005
G1 X33.413 Y137.046 E71.92721
G1 X32.934 Y136.454 E71.96621
G1 X32.636 Y136.011 E71.99356
G1 X32.451 Y135.712 E72.01157
G1 X32.085 Y135.044 E72.05058
G1 X31.906 Y134.642 E72.07312
G1 X31.773 Y134.317 E72.09111
G1 X31.522 Y133.597 E72.13016
G1 X31.393 Y133.088 E72.15706
G1 X31.321 Y132.752 E72.17466
G1 X31.201 Y132 E72.21367
G1 X31.164 Y131.483 E72.24021
G1 X31.152 Y131.137 E72.25795
G1 X31.166 Y130.375 E72.29698
G1 X31.216 Y129.894 E72.32175
G1 X31.266 Y129.531 E72.34052
G1 X31.39 Y128.862 E72.37537
G1 X47.237 Y61.406 E75.92457
G1 X47.238 Y61.403 E75.92473
G1 X48.013 Y58.109 E76.09806
G1 X48.18 Y57.514 E76.12972
G1 X48.288 Y57.184 E76.1475
G1 X48.563 Y56.473 E76.18655
G1 X48.767 Y56.055 E76.21037
G1 X48.93 Y55.746 E76.22827
G1 X49.32 Y55.091 E76.26731
G1 X49.623 Y54.673 E76.29376
G1 X49.841 Y54.393 E76.31193
G1 X50.339 Y53.817 E76.35093
G1 X50.721 Y53.449 E76.3781
G0 F6000 X51.014 Y53.777
G1 F1200 X51.267 Y53.55 E76.39551
G1 X51.843 Y53.087 E76.43336
G1 X52.232 Y52.828 E76.4573
G1 X52.534 Y52.641 E76.4755
G1 X53.181 Y52.286 E76.5133
G1 X53.522 Y52.135 E76.5324
G1 X53.837 Y52.005 E76.54985
G1 X54.47 Y51.779 E76.58428
G1 X114.335 Y33.73 E79.78693
G1 X124.083 Y30.791 E80.30843
G1 X124.64 Y30.649 E80.33787
G1 X124.966 Y30.58 E80.35494
G1 X125.695 Y30.466 E80.39274
G1 X126.143 Y30.436 E80.41573
G1 X126.491 Y30.424 E80.43357
G1 X127.229 Y30.439 E80.47138
G1 X127.653 Y30.483 E80.49321
G1 X128.003 Y30.531 E80.51131
G1 X128.728 Y30.671 E80.54913
G1 X129.191 Y30.804 E80.5738
G1 X129.519 Y30.911 E80.59147
G1 X130.208 Y31.178 E80.62932
G1 X130.6 Y31.37 E80.65168
G1 X130.911 Y31.535 E80.66971
G1 X131.544 Y31.916 E80.70756
G1 X131.918 Y32.189 E80.73127
G1 X132.194 Y32.405 E80.74922
G1 X132.661 Y32.806 E80.78075
G1 X183.163 Y80.265 E84.33046
G1 X183.164 Y80.266 E84.33053
G1 X185.637 Y82.591 E84.50439
G1 X186.036 Y82.999 E84.53362
G1 X186.26 Y83.248 E84.55077
G1 X186.724 Y83.823 E84.58862
G1 X186.99 Y84.221 E84.61314
G1 X187.175 Y84.52 E84.63115
G1 X187.529 Y85.168 E84.66897
G1 X187.687 Y85.525 E84.68897
G1 X187.82 Y85.85 E84.70695
G1 X188.062 Y86.547 E84.74474
G1 X188.177 Y87.004 E84.76888
G1 X188.249 Y87.34 E84.78648
G1 X188.364 Y88.069 E84.82428
G1 X188.396 Y88.533 E84.84811
G1 X188.408 Y88.879 E84.86584
G1 X188.394 Y89.617 E84.90365
G1 X188.347 Y90.053 E84.92611
G1 X188.297 Y90.413 E84.94473
G1 X188.181 Y91.035 E84.97713
G1 X173.885 Y151.889 E88.17897
G1 X171.559 Y161.788 E88.69981
G1 X171.402 Y162.349 E88.72965
G1 X171.294 Y162.679 E88.74743
G1 X171.026 Y163.368 E88.7853
G1 X170.844 Y163.74 E88.80651
G1 X170.681 Y164.049 E88.82441
G1 X170.302 Y164.682 E88.8622
G1 X170.032 Y165.054 E88.88574
G1 X169.815 Y165.333 E88.90385
G1 X169.331 Y165.891 E88.94168
G1 X168.988 Y166.221 E88.96606
G1 X168.734 Y166.449 E88.98354
G1 X168.158 Y166.912 E89.0214
G1 X167.768 Y167.172 E89.0454
G1 X167.466 Y167.359 E89.0636
G1 X166.819 Y167.714 E89.1014
G1 X166.478 Y167.865 E89.1205
G1 X166.163 Y167.995 E89.13796
G1 X165.53 Y168.221 E89.17238
G1 X99.17 Y188.229 E92.72252
G1 X99.168 Y188.229 E92.72262
G1 X95.915 Y189.209 E92.89664
G1 X95.36 Y189.351 E92.92598
G1 X95.034 Y189.42 E92.94305
G1 X94.305 Y189.534 E92.98084
G1 X93.857 Y189.564 E93.00384
G1 X93.509 Y189.576 E93.02168
G1 X92.771 Y189.561 E93.05948
G1 X92.347 Y189.517 E93.08132
G1 X91.997 Y189.469 E93.09941
G1 X91.272 Y189.329 E93.13723
G1 X90.809 Y189.196 E93.16191
G1 X90.481 Y189.089 E93.17958
G1 X89.792 Y188.822 E93.21743
G1 X89.4 Y188.63 E93.23979
G1 X89.089 Y188.465 E93.25782
G1 X88.456 Y188.084 E93.29566
G1 X88.082 Y187.811 E93.31938
G1 X87.806 Y187.595 E93.33733
G1 X87.343 Y187.198 E93.36857
G1 X86.554 Y186.458 E93.42398
G1 X86.549 Y186.454 E93.4243
G1 X41.78 Y144.381 E96.5711
G1 X34.363 Y137.41 E97.09246
G1 X33.964 Y137.001 E97.12173
G1 X33.74 Y136.752 E97.13888
G1 X33.276 Y136.177 E97.17673
G1 X33.01 Y135.779 E97.20125
G1 X32.825 Y135.48 E97.21926
G1 X32.471 Y134.832 E97.25708
G1 X32.313 Y134.475 E97.27708
G1 X32.18 Y134.15 E97.29506
G1 X31.938 Y133.453 E97.33285
G1 X31.823 Y132.996 E97.35699
G1 X31.751 Y132.66 E97.37459
G1 X31.636 Y131.931 E97.41239
G1 X31.604 Y131.467 E97.43622
G1 X31.592 Y131.121 E97.45395
G1 X31.606 Y130.383 E97.49176
G1 X31.652 Y129.954 E97.51386
G1 X31.702 Y129.591 E97.53262
G1 X31.819 Y128.962 E97.5654
G1 X47.666 Y61.506 E101.1146
G1 X47.666 Y61.504 E101.1147
G1 X48.441 Y58.21 E101.28803
G1 X48.598 Y57.651 E101.31777
G1 X48.706 Y57.321 E101.33555
G1 X48.974 Y56.632 E101.37342
G1 X49.156 Y56.26 E101.39463
G1 X49.319 Y55.951 E101.41252
G1 X49.698 Y55.318 E101.45031
G1 X49.97 Y54.943 E101.47404
G1 X50.188 Y54.663 E101.49222
G1 X50.672 Y54.106 E101.53001
G1 X51.014 Y53.777 E101.55432
G0 F6000 X51.308 Y54.104
G1 F1200 X51.561 Y53.877 E101.57173
G1 X52.119 Y53.431 E101.60832
