;FLAVOR:Marlin
;TIME:12439
;Filament used: 12.5714m
;Layer height: 0.28
;MINX:45.347
;MINY:4.137
;MINZ:0.28
;MAXX:179.256
;MAXY:215.861
;MAXZ:25.32
;Generated with Cura_SteamEngine 4.2.1
M140 S50
M105
M190 S50
M104 S190
M105
M109 S190
M82 ;absolute extrusion mode
M201 X500.00 Y500.00 Z100.00 E5000.00 ;Setup machine max acceleration
M203 X500.00 Y500.00 Z10.00 E50.00 ;Setup machine max feedrate
M204 P500.00 R1000.00 T500.00 ;Setup Print/Retract/Travel acceleration
M205 X8.00 Y8.00 Z0.40 E5.00 ;Setup Jerk
M220 S100 ;Reset Feedrate
M221 S100 ;Reset Flowrate

G28 ;Home

G92 E0 ;Reset Extruder
G1 Z2.0 F3000 ;Move Z Axis up
G1 X10.1 Y20 Z0.28 F5000.0 ;Move to start position
G1 X10.1 Y200.0 Z0.28 F1500.0 E15 ;Draw the first line
G1 X10.4 Y200.0 Z0.28 F5000.0 ;Move to side a little
G1 X10.4 Y20 Z0.28 F1500.0 E30 ;Draw the second line
G92 E0 ;Reset Extruder
G1 Z2.0 F3000 ;Move Z Axis up

M141 S28
G92 E0
G92 E0
G1 F2700 E-5
;LAYER_COUNT:89
;LAYER:0
M107
G0 F6000 X88.641 Y32.772 Z0.28
;TYPE:SKIRT
G1 F2700 E0
G1 F1200 X89.078 Y32.094 E0.04132
G1 X89.263 Y31.861 E0.05655
G1 X89.557 Y31.206 E0.09333
G1 X89.758 Y30.836 E0.1149
G1 X102.821 Y8.207 E1.45323
G1 X103.259 Y7.53 E1.49453
G1 X103.761 Y6.898 E1.53587
G1 X104.324 Y6.32 E1.5772
G1 X104.94 Y5.8 E1.61849
G1 X105.606 Y5.344 E1.65983
G1 X106.313 Y4.956 E1.70114
G1 X107.055 Y4.64 E1.74245
G1 X107.825 Y4.398 E1.78379
G1 X108.615 Y4.235 E1.82511
G1 X109.417 Y4.15 E1.86642
G1 X109.871 Y4.137 E1.88968
G1 X110.127 Y4.137 E1.90279
G1 X110.933 Y4.177 E1.94413
G1 X111.731 Y4.297 E1.98546
G1 X112.513 Y4.494 E2.02677
G1 X113.271 Y4.769 E2.06807
G1 X113.999 Y5.117 E2.1094
G1 X114.689 Y5.535 E2.15072
G1 X115.334 Y6.02 E2.19206
G1 X115.927 Y6.566 E2.23334
G1 X116.464 Y7.168 E2.27466
G1 X116.939 Y7.821 E2.31602
G1 X117.178 Y8.209 E2.33936
G1 X117.815 Y9.313 E2.40465
G1 X117.814 Y9.313 E2.4047
G1 X173.561 Y105.871 E8.11555
G1 X173.93 Y106.589 E8.1569
G1 X174.225 Y107.34 E8.19823
G1 X174.445 Y108.116 E8.23954
G1 X174.586 Y108.91 E8.28085
G1 X174.652 Y109.941 E8.33376
G1 X174.652 Y110.059 E8.33981
G1 X174.612 Y110.865 E8.38114
G1 X174.492 Y111.663 E8.42248
G1 X174.295 Y112.445 E8.46378
G1 X174.02 Y113.203 E8.50508
G1 X173.566 Y114.121 E8.55754
G1 X173.535 Y114.175 E8.56073
G1 X174.071 Y114.463 E8.5919
G1 X174.44 Y114.699 E8.61433
G1 X174.761 Y114.917 E8.63421
G1 X175.405 Y115.403 E8.67553
G1 X175.776 Y115.732 E8.70093
G1 X176.062 Y116.002 E8.72108
G1 X176.62 Y116.584 E8.76237
G1 X176.921 Y116.952 E8.78673
G1 X177.163 Y117.266 E8.80703
G1 X177.624 Y117.929 E8.84839
G1 X177.868 Y118.347 E8.87318
G1 X178.055 Y118.691 E8.89324
G1 X178.404 Y119.418 E8.93454
G1 X178.562 Y119.823 E8.95681
G1 X178.693 Y120.187 E8.97663
G1 X178.928 Y120.958 E9.01791
G1 X179.033 Y121.434 E9.04288
G1 X179.106 Y121.821 E9.06305
G1 X179.216 Y122.62 E9.10436
G1 X179.243 Y123.06 E9.12694
G1 X179.256 Y123.451 E9.14698
G1 X179.242 Y124.257 E9.18827
G1 X179.194 Y124.756 E9.21395
G1 X179.144 Y125.146 E9.23409
G1 X179.002 Y125.94 E9.2754
G1 X178.878 Y126.413 E9.30045
G1 X178.768 Y126.786 E9.32037
G1 X178.501 Y127.548 E9.36172
G1 X178.319 Y127.963 E9.38493
G1 X178.146 Y128.329 E9.40567
G1 X178.077 Y128.472 E9.4138
G1 X160.248 Y164.352 E11.46598
G1 X159.798 Y165.144 E11.51264
G1 X159.516 Y165.581 E11.53928
G1 X158.997 Y166.296 E11.58453
G1 X158.653 Y166.72 E11.6125
G1 X158.08 Y167.354 E11.65627
G1 X157.701 Y167.732 E11.68369
G1 X157.038 Y168.325 E11.72925
G1 X156.618 Y168.661 E11.7568
G1 X155.909 Y169.169 E11.80147
G1 X155.451 Y169.461 E11.82929
G1 X154.65 Y169.91 E11.87633
G1 X154.159 Y170.15 E11.90432
G1 X153.397 Y170.475 E11.94675
G1 X152.892 Y170.661 E11.97432
G1 X152.011 Y170.93 E12.0215
G1 X151.483 Y171.059 E12.04934
G1 X150.622 Y171.221 E12.09422
G1 X150.087 Y171.292 E12.12186
G1 X149.225 Y171.36 E12.16615
G1 X148.681 Y171.374 E12.19402
G1 X147.802 Y171.349 E12.23906
G1 X147.269 Y171.305 E12.26646
G1 X146.377 Y171.182 E12.31258
G1 X145.84 Y171.077 E12.3406
G1 X145.011 Y170.869 E12.38438
G1 X144.5 Y170.712 E12.41176
G1 X143.64 Y170.394 E12.45873
G1 X143.135 Y170.174 E12.48694
G1 X142.367 Y169.79 E12.53092
G1 X141.902 Y169.526 E12.55831
G1 X141.666 Y169.375 E12.57266
G1 X117.352 Y211.487 E15.06337
G1 X117.353 Y211.487 E15.06342
G1 X117.18 Y211.787 E15.08116
G1 X116.742 Y212.465 E15.1225
G1 X116.24 Y213.097 E15.16384
G1 X115.678 Y213.675 E15.20514
G1 X115.062 Y214.196 E15.24646
G1 X114.396 Y214.652 E15.2878
G1 X113.689 Y215.041 E15.32914
G1 X112.947 Y215.357 E15.37044
G1 X112.178 Y215.599 E15.41174
G1 X111.388 Y215.763 E15.45306
G1 X110.586 Y215.848 E15.49437
G1 X110.128 Y215.861 E15.51784
G1 X109.872 Y215.861 E15.53095
G1 X109.066 Y215.821 E15.57229
G1 X108.268 Y215.701 E15.61362
G1 X107.486 Y215.504 E15.65493
G1 X106.728 Y215.229 E15.69623
G1 X106 Y214.881 E15.73756
G1 X105.31 Y214.463 E15.77888
G1 X104.665 Y213.978 E15.82022
G1 X104.072 Y213.432 E15.8615
G1 X103.535 Y212.83 E15.90282
G1 X103.06 Y212.177 E15.94418
G1 X102.823 Y211.791 E15.96738
G1 X100.043 Y206.975 E16.25221
G1 X99.516 Y206.949 E16.27924
G1 X98.718 Y206.83 E16.32056
G1 X97.936 Y206.632 E16.36188
G1 X97.177 Y206.358 E16.40321
G1 X96.331 Y205.945 E16.45143
G1 X96.226 Y205.886 E16.4576
G1 X95.544 Y205.457 E16.49887
G1 X94.907 Y204.962 E16.54019
G1 X94.322 Y204.406 E16.58153
G1 X93.795 Y203.795 E16.62286
G1 X93.164 Y202.86 E16.68064
G1 X47.708 Y124.123 E21.33742
G1 X47.708 Y124.121 E21.33752
G1 X47.281 Y123.381 E21.38128
G1 X46.912 Y122.663 E21.42263
G1 X46.617 Y121.913 E21.46391
G1 X46.398 Y121.136 E21.50526
G1 X46.256 Y120.342 E21.54658
G1 X46.194 Y119.538 E21.58788
G1 X46.212 Y118.731 E21.62923
G1 X46.309 Y117.93 E21.67055
G1 X46.486 Y117.143 E21.71187
G1 X46.739 Y116.377 E21.75319
G1 X47.067 Y115.64 E21.79451
G1 X47.184 Y115.422 E21.80718
G1 X46.437 Y114.127 E21.88376
G1 X46.069 Y113.409 E21.92508
G1 X45.773 Y112.658 E21.96643
G1 X45.554 Y111.882 E22.00773
G1 X45.412 Y111.088 E22.04904
G1 X45.347 Y110.058 E22.10191
G1 X45.347 Y109.939 E22.108
G1 X45.387 Y109.133 E22.14934
G1 X45.507 Y108.335 E22.19067
G1 X45.704 Y107.553 E22.23198
G1 X45.979 Y106.795 E22.27328
G1 X46.438 Y105.869 E22.32621
G1 X57.094 Y87.413 E23.4178
G1 X57.531 Y86.735 E23.45911
G1 X57.716 Y86.503 E23.47431
G1 X58.01 Y85.847 E23.51113
G1 X58.212 Y85.477 E23.53272
G1 X88.641 Y32.772 E26.64993
G0 F6000 X89.022 Y32.992
G1 F1200 X89.448 Y32.333 E26.69012
G1 X89.655 Y32.075 E26.70706
G1 X89.726 Y31.883 E26.71755
G1 X90.139 Y31.056 E26.76489
G1 X103.202 Y8.427 E28.10323
G1 X103.629 Y7.769 E28.1434
G1 X104.12 Y7.157 E28.18359
G1 X104.671 Y6.598 E28.2238
G1 X105.276 Y6.099 E28.26397
G1 X105.928 Y5.663 E28.30414
G1 X106.622 Y5.296 E28.34435
G1 X107.349 Y5.002 E28.38452
G1 X108.103 Y4.783 E28.42474
G1 X108.874 Y4.642 E28.46488
G1 X109.871 Y4.577 E28.51606
G1 X110.127 Y4.577 E28.52917
G1 X110.911 Y4.617 E28.56938
G1 X111.686 Y4.736 E28.60954
G1 X112.445 Y4.934 E28.64972
G1 X113.18 Y5.208 E28.6899
G1 X113.884 Y5.556 E28.73012
G1 X114.548 Y5.973 E28.77028
G1 X115.167 Y6.456 E28.8105
G1 X115.733 Y6.999 E28.85067
G1 X116.241 Y7.597 E28.89086
G1 X116.796 Y8.429 E28.94209
G1 X117.432 Y9.531 E29.00726
G1 X173.18 Y106.091 E34.71822
G1 X173.538 Y106.79 E34.75845
G1 X173.822 Y107.521 E34.79862
G1 X174.03 Y108.277 E34.83878
G1 X174.16 Y109.051 E34.87898
G1 X174.212 Y109.941 E34.92464
G1 X174.212 Y110.059 E34.93069
G1 X174.172 Y110.843 E34.9709
G1 X174.053 Y111.618 E35.01106
G1 X173.855 Y112.377 E35.05124
G1 X173.581 Y113.112 E35.09141
G1 X173.185 Y113.901 E35.13663
G1 X172.921 Y114.359 E35.16371
G1 X173.172 Y114.478 E35.17794
G1 X173.862 Y114.851 E35.21811
G1 X174.193 Y115.063 E35.23825
G1 X174.514 Y115.281 E35.25812
G1 X175.14 Y115.754 E35.29831
G1 X175.474 Y116.052 E35.32124
G1 X175.76 Y116.322 E35.34138
G1 X176.302 Y116.889 E35.38156
G1 X176.573 Y117.221 E35.40351
G1 X176.815 Y117.535 E35.42382
G1 X177.262 Y118.18 E35.46401
G1 X177.481 Y118.557 E35.48634
G1 X177.668 Y118.901 E35.5064
G1 X178.148 Y119.972 E35.56651
G1 X178.279 Y120.336 E35.58633
G1 X178.507 Y121.086 E35.62648
G1 X178.601 Y121.516 E35.64902
G1 X178.674 Y121.903 E35.6692
G1 X178.78 Y122.68 E35.70936
G1 X178.803 Y123.074 E35.72958
G1 X178.816 Y123.465 E35.74962
G1 X178.802 Y124.25 E35.78983
G1 X178.757 Y124.7 E35.813
G1 X178.707 Y125.09 E35.83314
G1 X178.568 Y125.862 E35.87331
G1 X178.456 Y126.289 E35.89592
G1 X178.346 Y126.662 E35.91584
G1 X178.086 Y127.402 E35.95602
G1 X177.921 Y127.775 E35.97691
G1 X177.748 Y128.141 E35.99764
G1 X177.683 Y128.276 E36.00532
G1 X159.854 Y164.156 E38.0575
G1 X159.428 Y164.905 E38.10164
G1 X159.146 Y165.342 E38.12827
G1 X158.656 Y166.018 E38.17104
G1 X158.312 Y166.442 E38.19901
G1 X157.77 Y167.043 E38.24046
G1 X157.391 Y167.421 E38.26788
G1 X156.763 Y167.982 E38.31101
G1 X156.343 Y168.318 E38.33856
G1 X155.672 Y168.798 E38.38082
G1 X155.214 Y169.09 E38.40864
G1 X154.456 Y169.515 E38.45315
G1 X153.965 Y169.755 E38.48114
G1 X153.245 Y170.062 E38.52123
G1 X152.74 Y170.248 E38.5488
G1 X151.906 Y170.503 E38.59347
G1 X151.378 Y170.632 E38.62131
G1 X150.564 Y170.785 E38.66373
G1 X150.029 Y170.856 E38.69137
G1 X149.214 Y170.92 E38.73325
G1 X148.67 Y170.934 E38.76112
G1 X147.839 Y170.911 E38.8037
G1 X147.306 Y170.867 E38.8311
G1 X146.461 Y170.75 E38.87479
G1 X145.924 Y170.645 E38.90282
G1 X145.141 Y170.448 E38.94417
G1 X144.63 Y170.291 E38.97155
G1 X143.816 Y169.99 E39.01601
G1 X143.311 Y169.77 E39.04422
G1 X142.584 Y169.407 E39.08584
G1 X142.119 Y169.143 E39.11323
G1 X141.515 Y168.756 E39.14997
G1 X116.969 Y211.271 E41.6645
G1 X116.798 Y211.568 E41.68205
G1 X116.372 Y212.226 E41.7222
G1 X115.881 Y212.838 E41.76239
G1 X115.331 Y213.397 E41.80256
G1 X114.726 Y213.897 E41.84276
G1 X114.074 Y214.333 E41.88293
G1 X113.38 Y214.7 E41.92315
G1 X112.653 Y214.995 E41.96333
G1 X111.9 Y215.214 E42.0035
G1 X111.128 Y215.356 E42.0437
G1 X110.128 Y215.421 E42.09503
G1 X109.872 Y215.421 E42.10815
G1 X109.088 Y215.381 E42.14836
G1 X108.313 Y215.262 E42.18852
G1 X107.554 Y215.064 E42.22869
G1 X106.819 Y214.79 E42.26887
G1 X106.115 Y214.442 E42.3091
G1 X105.451 Y214.025 E42.34926
G1 X104.832 Y213.542 E42.38947
G1 X104.266 Y212.999 E42.42965
G1 X103.758 Y212.401 E42.46984
G1 X103.204 Y211.571 E42.52095
G1 X100.304 Y206.548 E42.81803
G1 X99.538 Y206.509 E42.85732
G1 X98.762 Y206.39 E42.89753
G1 X98.003 Y206.192 E42.93771
G1 X97.268 Y205.919 E42.97787
G1 X96.547 Y205.562 E43.01908
G1 X96.442 Y205.503 E43.02525
G1 X95.778 Y205.084 E43.06546
G1 X95.161 Y204.6 E43.10563
G1 X94.596 Y204.056 E43.1458
G1 X94.089 Y203.457 E43.186
G1 X93.546 Y202.64 E43.23624
G1 X48.09 Y123.903 E47.89303
G1 X48.089 Y123.901 E47.89314
G1 X47.662 Y123.161 E47.93691
G1 X47.305 Y122.463 E47.97706
G1 X47.021 Y121.731 E48.01728
G1 X46.812 Y120.975 E48.05745
G1 X46.682 Y120.201 E48.09765
G1 X46.632 Y119.418 E48.13784
G1 X46.661 Y118.634 E48.17803
G1 X46.77 Y117.857 E48.21821
G1 X46.957 Y117.095 E48.2584
G1 X47.221 Y116.356 E48.2986
G1 X47.649 Y115.486 E48.34826
G1 X47.689 Y115.416 E48.35239
G1 X46.818 Y113.907 E48.44163
G1 X46.461 Y113.208 E48.48183
G1 X46.177 Y112.477 E48.522
G1 X45.969 Y111.72 E48.56221
G1 X45.838 Y110.947 E48.60237
G1 X45.787 Y110.058 E48.64798
G1 X45.787 Y109.939 E48.65408
G1 X45.827 Y109.155 E48.69429
G1 X45.946 Y108.38 E48.73445
G1 X46.144 Y107.621 E48.77463
G1 X46.418 Y106.886 E48.8148
G1 X46.819 Y106.089 E48.8605
G1 X57.475 Y87.633 E49.95208
G1 X57.901 Y86.974 E49.99228
G1 X58.109 Y86.715 E50.00929
G1 X58.179 Y86.524 E50.01971
G1 X58.593 Y85.697 E50.06708
G1 X89.022 Y32.992 E53.18428
G0 F6000 X89.403 Y33.212
G1 F1200 X89.818 Y32.573 E53.22331
G1 X90.044 Y32.294 E53.2417
G1 X90.23 Y31.834 E53.26712
G1 X90.52 Y31.276 E53.29933
G1 X103.583 Y8.647 E54.63766
G1 X103.998 Y8.008 E54.67669
G1 X104.478 Y7.417 E54.71568
G1 X105.017 Y6.878 E54.75473
G1 X105.61 Y6.399 E54.79377
G1 X106.249 Y5.985 E54.83277
G1 X106.928 Y5.64 E54.87178
G1 X107.64 Y5.368 E54.91082
G1 X108.376 Y5.173 E54.94982
G1 X109.129 Y5.055 E54.98886
G1 X109.871 Y5.017 E55.02692
G1 X110.127 Y5.017 E55.04003
G1 X110.888 Y5.057 E55.07906
G1 X111.64 Y5.176 E55.11806
G1 X112.376 Y5.374 E55.1571
G1 X113.087 Y5.648 E55.19613
G1 X113.765 Y5.994 E55.23511
G1 X114.404 Y6.41 E55.27417
G1 X114.995 Y6.891 E55.3132
G1 X115.533 Y7.431 E55.35224
G1 X116.011 Y8.024 E55.39126
G1 X116.415 Y8.649 E55.42937
G1 X117.051 Y9.751 E55.49454
G1 X172.799 Y106.311 E61.20551
G1 X173.145 Y106.99 E61.24454
G1 X173.418 Y107.701 E61.28355
G1 X173.615 Y108.437 E61.32258
G1 X173.733 Y109.19 E61.36162
G1 X173.772 Y109.941 E61.40014
G1 X173.772 Y110.059 E61.40618
G1 X173.732 Y110.82 E61.44521
G1 X173.613 Y111.572 E61.48421
G1 X173.415 Y112.308 E61.52325
G1 X173.141 Y113.019 E61.56228
G1 X172.804 Y113.681 E61.60033
G1 X172.348 Y114.473 E61.64714
G1 X172.343 Y114.481 E61.64762
G1 X172.297 Y114.561 E61.65235
G1 X172.621 Y114.704 E61.67049
G1 X172.983 Y114.876 E61.69102
G1 X173.946 Y115.427 E61.74785
G1 X174.267 Y115.645 E61.76772
G1 X174.874 Y116.106 E61.80676
G1 X175.172 Y116.372 E61.82722
G1 X175.458 Y116.642 E61.84737
G1 X175.984 Y117.193 E61.88638
G1 X176.224 Y117.489 E61.9059
G1 X176.466 Y117.803 E61.92621
G1 X176.899 Y118.43 E61.96524
G1 X177.094 Y118.768 E61.98523
G1 X177.281 Y119.112 E62.00528
G1 X177.734 Y120.121 E62.06193
G1 X177.865 Y120.485 E62.08175
G1 X178.085 Y121.214 E62.12075
G1 X178.168 Y121.597 E62.14082
G1 X178.241 Y121.984 E62.16099
G1 X178.363 Y123.089 E62.21794
G1 X178.376 Y123.48 E62.23798
G1 X178.361 Y124.241 E62.27696
G1 X178.321 Y124.644 E62.29771
G1 X178.271 Y125.034 E62.31784
G1 X178.135 Y125.784 E62.35689
G1 X178.034 Y126.165 E62.37708
G1 X177.924 Y126.538 E62.39699
G1 X177.524 Y127.587 E62.4545
G1 X177.351 Y127.953 E62.47523
G1 X177.289 Y128.081 E62.48252
G1 X159.46 Y163.961 E64.5347
G1 X159.058 Y164.666 E64.57627
G1 X158.776 Y165.103 E64.60291
G1 X158.314 Y165.741 E64.64326
G1 X157.97 Y166.165 E64.67122
G1 X157.459 Y166.731 E64.71028
G1 X157.08 Y167.109 E64.7377
G1 X156.488 Y167.638 E64.77836
G1 X156.068 Y167.974 E64.80591
G1 X155.436 Y168.427 E64.84574
G1 X154.978 Y168.719 E64.87356
G1 X154.263 Y169.12 E64.91555
G1 X153.772 Y169.36 E64.94354
G1 X153.093 Y169.65 E64.98136
G1 X152.588 Y169.836 E65.00893
G1 X151.802 Y170.076 E65.05102
G1 X151.274 Y170.205 E65.07886
G1 X150.506 Y170.349 E65.11888
G1 X149.971 Y170.42 E65.14653
G1 X149.203 Y170.481 E65.18599
G1 X148.659 Y170.495 E65.21386
G1 X147.875 Y170.472 E65.25404
G1 X147.342 Y170.428 E65.28143
G1 X146.546 Y170.318 E65.32259
G1 X146.009 Y170.213 E65.35061
G1 X145.27 Y170.028 E65.38963
G1 X144.759 Y169.871 E65.41702
G1 X143.991 Y169.587 E65.45896
G1 X143.486 Y169.367 E65.48717
G1 X142.802 Y169.024 E65.52636
G1 X142.337 Y168.76 E65.55375
G1 X141.682 Y168.341 E65.59358
G1 X141.374 Y168.12 E65.613
G1 X116.588 Y211.051 E68.15212
G1 X116.417 Y211.348 E68.16968
G1 X116.003 Y211.987 E68.20867
G1 X115.523 Y212.579 E68.24771
G1 X114.984 Y213.118 E68.28676
G1 X114.392 Y213.597 E68.32576
G1 X113.753 Y214.011 E68.36476
G1 X113.074 Y214.357 E68.40379
G1 X112.362 Y214.629 E68.44283
G1 X111.626 Y214.825 E68.48185
G1 X110.873 Y214.943 E68.52089
G1 X110.128 Y214.981 E68.55909
G1 X109.872 Y214.981 E68.57221
G1 X109.111 Y214.941 E68.61124
G1 X108.359 Y214.822 E68.65024
G1 X107.623 Y214.624 E68.68928
G1 X106.912 Y214.35 E68.7283
G1 X106.234 Y214.004 E68.76729
G1 X105.595 Y213.588 E68.80635
G1 X105.004 Y213.107 E68.84538
G1 X104.466 Y212.567 E68.88442
G1 X103.988 Y211.974 E68.92343
G1 X103.585 Y211.351 E68.96144
G1 X100.559 Y206.109 E69.27146
G1 X100.321 Y206.109 E69.28365
G1 X99.56 Y206.069 E69.32268
G1 X98.808 Y205.95 E69.36168
G1 X98.072 Y205.753 E69.40071
G1 X97.361 Y205.479 E69.43974
G1 X96.763 Y205.178 E69.47403
G1 X96.658 Y205.119 E69.4802
G1 X96.014 Y204.712 E69.51922
G1 X95.416 Y204.239 E69.55827
G1 X94.872 Y203.706 E69.59728
G1 X94.386 Y203.119 E69.63631
G1 X93.927 Y202.42 E69.67915
G1 X48.471 Y123.683 E74.33593
G1 X48.47 Y123.681 E74.33605
G1 X48.043 Y122.941 E74.37981
G1 X47.697 Y122.263 E74.4188
G1 X47.425 Y121.551 E74.45783
G1 X47.228 Y120.815 E74.49686
G1 X47.11 Y120.062 E74.5359
G1 X47.071 Y119.302 E74.57488
G1 X47.112 Y118.541 E74.61391
G1 X47.233 Y117.789 E74.65293
G1 X47.432 Y117.053 E74.69198
G1 X47.706 Y116.343 E74.73096
