;FLAVOR:Marlin
;TIME:2019
;Filament used: 2.09031m
;Layer height: 0.28
;MINX:83.334
;MINY:80.594
;MINZ:0.28
;MAXX:136.656
;MAXY:139.401
;MAXZ:10.2
;Generated with Cura_SteamEngine 4.2.1
M140 S50
M105
M190 S50
M104 S190
M105
M109 S190
M82 ;absolute extrusion mode
M201 X500.00 Y500.00 Z100.00 E5000.00 ;Setup machine max acceleration
M203 X500.00 Y500.00 Z10.00 E50.00 ;Setup machine max feedrate
M204 P500.00 R1000.00 T500.00 ;Setup Print/Retract/Travel acceleration
M205 X8.00 Y8.00 Z0.40 E5.00 ;Setup Jerk
M220 S100 ;Reset Feedrate
M221 S100 ;Reset Flowrate

G28 ;Home

G92 E0 ;Reset Extruder
G1 Z2.0 F3000 ;Move Z Axis up
G1 X10.1 Y20 Z0.28 F5000.0 ;Move to start position
G1 X10.1 Y200.0 Z0.28 F1500.0 E15 ;Draw the first line
G1 X10.4 Y200.0 Z0.28 F5000.0 ;Move to side a little
G1 X10.4 Y20 Z0.28 F1500.0 E30 ;Draw the second line
G92 E0 ;Reset Extruder
G1 Z2.0 F3000 ;Move Z Axis up

M141 S28
G92 E0
G92 E0
G1 F2700 E-5
;LAYER_COUNT:35
;LAYER:0
M107
G0 F6000 X86.698 Y100.064 Z0.28
;TYPE:SKIRT
G1 F2700 E0
G1 F1200 X87.348 Y99.587 E0.0413
G1 X88.043 Y99.177 E0.08263
G1 X89.069 Y98.725 E0.14005
G1 X89.277 Y98.65 E0.15138
G1 X90.401 Y98.333 E0.2112
G1 X90.552 Y98.302 E0.21909
G1 X91.349 Y98.179 E0.2604
G1 X92.188 Y98.136 E0.30343
G1 X105.474 Y98.135 E0.98395
G1 X105.561 Y98.134 E0.9884
G1 X105.884 Y98.11 E1.00499
G1 X106.112 Y98.076 E1.0168
G1 X106.347 Y98.023 E1.02914
G1 X106.544 Y97.963 E1.03969
G1 X106.791 Y97.867 E1.05326
G1 X106.983 Y97.776 E1.06414
G1 X107.187 Y97.66 E1.07616
G1 X107.387 Y97.526 E1.08849
G1 X107.551 Y97.397 E1.09918
G1 X107.728 Y97.235 E1.11147
G1 X107.903 Y97.05 E1.12452
G1 X108.041 Y96.882 E1.13565
G1 X108.196 Y96.659 E1.14956
G1 X108.292 Y96.503 E1.15894
G1 X108.608 Y95.957 E1.19126
G1 X108.609 Y95.957 E1.19131
G1 X114.919 Y85.028 E1.8377
G1 X115.356 Y84.35 E1.87902
G1 X115.656 Y83.958 E1.9043
G1 X115.805 Y83.775 E1.91639
G1 X116.344 Y83.176 E1.95766
G1 X116.941 Y82.633 E1.999
G1 X117.754 Y82.043 E2.05045
G1 X117.932 Y81.93 E2.06125
G1 X118.634 Y81.532 E2.10258
G1 X119.372 Y81.205 E2.14393
G1 X120.067 Y80.973 E2.18146
G1 X120.306 Y80.905 E2.19419
G1 X121.092 Y80.723 E2.23551
G1 X121.892 Y80.619 E2.27683
G1 X122.582 Y80.594 E2.3122
G1 X122.75 Y80.595 E2.3208
G1 X123.556 Y80.64 E2.36215
G1 X124.353 Y80.764 E2.40346
G1 X125.155 Y80.973 E2.44591
G1 X125.405 Y81.052 E2.45934
G1 X126.161 Y81.333 E2.50065
G1 X127.021 Y81.764 E2.54993
G1 X132.216 Y84.762 E2.85715
G1 X132.894 Y85.199 E2.89846
G1 X133.525 Y85.701 E2.93977
G1 X133.928 Y86.081 E2.96814
G1 X134.156 Y86.311 E2.98472
G1 X134.695 Y86.912 E3.02607
G1 X135.172 Y87.562 E3.06737
G1 X135.582 Y88.257 E3.1087
G1 X136.003 Y89.202 E3.16169
G1 X136.143 Y89.578 E3.18224
G1 X136.387 Y90.347 E3.22357
G1 X136.553 Y91.136 E3.26486
G1 X136.641 Y91.938 E3.30619
G1 X136.648 Y92.745 E3.34753
G1 X136.576 Y93.548 E3.38882
G1 X136.477 Y94.112 E3.41815
G1 X136.4 Y94.474 E3.43711
G1 X136.193 Y95.253 E3.47839
G1 X135.91 Y96.009 E3.51974
G1 X135.532 Y96.772 E3.56335
G1 X135.173 Y97.41 E3.60085
G1 X135.129 Y97.488 E3.60544
G1 X128.869 Y108.331 E4.24674
G1 X128.726 Y108.598 E4.26225
G1 X128.631 Y108.809 E4.2741
G1 X128.552 Y109.024 E4.28584
G1 X128.478 Y109.283 E4.29963
G1 X128.439 Y109.475 E4.30967
G1 X128.41 Y109.702 E4.32139
G1 X128.395 Y109.962 E4.33473
G1 X128.399 Y110.166 E4.34518
G1 X128.422 Y110.418 E4.35814
G1 X128.457 Y110.625 E4.36889
G1 X128.517 Y110.87 E4.38181
G1 X128.582 Y111.071 E4.39263
G1 X128.672 Y111.29 E4.40476
G1 X128.812 Y111.573 E4.42093
G1 X135.473 Y123.111 E5.10333
G1 X135.841 Y123.829 E5.14466
G1 X136.136 Y124.58 E5.18598
G1 X136.259 Y124.978 E5.20732
G1 X136.354 Y125.316 E5.2253
G1 X136.534 Y126.103 E5.26666
G1 X136.635 Y126.903 E5.30796
G1 X136.656 Y127.71 E5.34931
G1 X136.597 Y128.514 E5.3906
G1 X136.459 Y129.309 E5.43193
G1 X136.326 Y129.821 E5.45902
G1 X136.206 Y130.228 E5.48076
G1 X135.939 Y130.99 E5.52211
G1 X135.599 Y131.721 E5.56341
G1 X135.188 Y132.415 E5.60472
G1 X134.558 Y133.247 E5.65818
G1 X134.355 Y133.482 E5.67408
G1 X133.798 Y134.066 E5.71542
G1 X133.186 Y134.591 E5.75672
G1 X132.29 Y135.196 E5.8121
G1 X131.711 Y135.533 E5.84641
G1 X131.686 Y135.547 E5.84788
G1 X127.048 Y138.225 E6.1222
G1 X126.331 Y138.594 E6.1635
G1 X125.905 Y138.772 E6.18715
G1 X125.687 Y138.856 E6.19911
G1 X124.921 Y139.108 E6.24042
G1 X124.133 Y139.283 E6.28176
G1 X123.136 Y139.391 E6.33313
G1 X122.92 Y139.401 E6.3442
G1 X122.114 Y139.399 E6.38549
G1 X121.311 Y139.316 E6.42684
G1 X120.455 Y139.137 E6.47163
G1 X120.214 Y139.073 E6.4844
G1 X119.445 Y138.828 E6.52574
G1 X118.705 Y138.508 E6.56704
G1 X118.232 Y138.255 E6.59451
G1 X118.09 Y138.173 E6.60291
G1 X117.413 Y137.736 E6.64418
G1 X116.782 Y137.233 E6.68552
G1 X116.132 Y136.593 E6.73224
G1 X115.956 Y136.399 E6.74566
G1 X115.444 Y135.776 E6.78696
G1 X114.946 Y135.017 E6.83346
G1 X114.586 Y134.397 E6.87018
G1 X114.576 Y134.381 E6.87115
G1 X108.292 Y123.499 E7.51479
G1 X108.107 Y123.213 E7.53224
G1 X107.96 Y123.018 E7.54474
G1 X107.82 Y122.859 E7.5556
G1 X107.65 Y122.692 E7.5678
G1 X107.472 Y122.542 E7.57972
G1 X107.288 Y122.408 E7.59138
G1 X107.084 Y122.282 E7.60367
G1 X106.877 Y122.174 E7.61562
G1 X106.687 Y122.092 E7.62622
G1 X106.444 Y122.008 E7.63939
G1 X106.198 Y121.943 E7.65243
G1 X106.029 Y121.912 E7.66123
G1 X105.768 Y121.883 E7.67468
G1 X105.395 Y121.869 E7.6938
G1 X92.212 Y121.868 E8.36904
G1 X91.407 Y121.828 E8.41032
G1 X90.512 Y121.688 E8.45672
G1 X90.189 Y121.619 E8.47364
G1 X89.41 Y121.412 E8.51492
G1 X88.655 Y121.128 E8.55624
G1 X87.931 Y120.771 E8.59759
G1 X87.247 Y120.345 E8.63886
G1 X86.608 Y119.852 E8.6802
G1 X86.001 Y119.278 E8.72299
G1 X85.689 Y118.951 E8.74614
G1 X85.161 Y118.341 E8.78746
G1 X84.697 Y117.681 E8.82879
G1 X84.3 Y116.978 E8.87014
G1 X83.85 Y115.889 E8.9305
G1 X83.759 Y115.614 E8.94533
G1 X83.544 Y114.837 E8.98663
G1 X83.407 Y114.042 E9.02795
G1 X83.348 Y113.212 E9.07057
G1 X83.335 Y112.528 E9.10561
G1 X83.334 Y112.371 E9.11365
G1 X83.335 Y107.013 E9.38809
G1 X83.375 Y106.208 E9.42937
G1 X83.495 Y105.41 E9.47071
G1 X83.61 Y104.918 E9.49659
G1 X83.69 Y104.618 E9.51249
G1 X83.936 Y103.849 E9.55385
G1 X84.257 Y103.109 E9.59516
G1 X84.65 Y102.405 E9.63646
G1 X85.279 Y101.532 E9.69157
G1 X85.554 Y101.199 E9.71369
G1 X86.097 Y100.603 E9.75499
G1 X86.698 Y100.064 E9.79634
G0 F6000 X87.009 Y100.378
G1 F1200 X87.645 Y99.919 E9.83651
G1 X88.324 Y99.527 E9.87667
G1 X89.218 Y99.138 E9.92661
G1 X89.426 Y99.063 E9.93794
G1 X90.49 Y98.764 E9.99455
G1 X90.641 Y98.733 E10.00244
G1 X91.416 Y98.615 E10.04259
G1 X92.188 Y98.576 E10.08219
G1 X105.481 Y98.575 E10.76306
G1 X105.582 Y98.573 E10.76824
G1 X105.928 Y98.548 E10.78601
G1 X106.193 Y98.509 E10.79973
G1 X106.45 Y98.451 E10.81322
G1 X106.709 Y98.372 E10.82709
G1 X106.947 Y98.279 E10.84018
G1 X107.204 Y98.158 E10.85473
G1 X107.413 Y98.039 E10.86705
G1 X107.645 Y97.882 E10.88139
G1 X107.844 Y97.726 E10.89435
G1 X108.041 Y97.546 E10.90801
G1 X108.233 Y97.342 E10.92236
G1 X108.39 Y97.151 E10.93503
G1 X108.557 Y96.911 E10.95
G1 X108.693 Y96.688 E10.96338
G1 X108.989 Y96.178 E10.99359
G1 X115.3 Y85.248 E11.64005
G1 X115.726 Y84.589 E11.68024
G1 X115.997 Y84.236 E11.70304
G1 X116.146 Y84.053 E11.71512
G1 X116.672 Y83.471 E11.75531
G1 X117.254 Y82.945 E11.79549
G1 X117.99 Y82.414 E11.84197
G1 X118.168 Y82.301 E11.85277
G1 X118.851 Y81.915 E11.89296
G1 X119.57 Y81.6 E11.93316
G1 X120.188 Y81.396 E11.9665
G1 X120.427 Y81.328 E11.97922
G1 X121.191 Y81.152 E12.01938
G1 X121.97 Y81.055 E12.05959
G1 X122.58 Y81.034 E12.09085
G1 X122.748 Y81.035 E12.09946
G1 X123.531 Y81.08 E12.13963
G1 X124.306 Y81.204 E12.17983
G1 X125.022 Y81.393 E12.21776
G1 X125.272 Y81.472 E12.23119
G1 X126.007 Y81.746 E12.27137
G1 X126.801 Y82.145 E12.31689
G1 X131.996 Y85.143 E12.62411
G1 X132.654 Y85.569 E12.66426
G1 X133.266 Y86.06 E12.70444
G1 X133.615 Y86.391 E12.72908
G1 X133.843 Y86.621 E12.74567
G1 X134.367 Y87.206 E12.7859
G1 X134.828 Y87.841 E12.82609
G1 X135.222 Y88.519 E12.86626
G1 X135.591 Y89.355 E12.91306
G1 X135.731 Y89.731 E12.93361
G1 X135.967 Y90.479 E12.97379
G1 X136.126 Y91.248 E13.01401
G1 X136.205 Y92.028 E13.05417
G1 X136.205 Y92.813 E13.09437
G1 X136.125 Y93.594 E13.13459
G1 X136.047 Y94.02 E13.15677
G1 X135.97 Y94.382 E13.17573
G1 X135.767 Y95.14 E13.21592
G1 X135.489 Y95.874 E13.25612
G1 X135.149 Y96.556 E13.29515
G1 X134.79 Y97.194 E13.33265
G1 X134.748 Y97.268 E13.33701
G1 X128.48 Y108.125 E13.97913
G1 X128.333 Y108.4 E13.9951
G1 X128.224 Y108.64 E14.00861
G1 X128.133 Y108.891 E14.02228
G1 X128.047 Y109.19 E14.03822
G1 X128.004 Y109.401 E14.04925
G1 X127.971 Y109.654 E14.06232
G1 X127.955 Y109.933 E14.07663
G1 X127.961 Y110.201 E14.09036
G1 X127.986 Y110.474 E14.1044
G1 X128.025 Y110.711 E14.1167
G1 X128.093 Y110.988 E14.13131
G1 X128.168 Y111.221 E14.14385
G1 X128.276 Y111.481 E14.15827
G1 X128.424 Y111.779 E14.17531
G1 X135.092 Y123.331 E14.85851
G1 X135.449 Y124.03 E14.89871
G1 X135.836 Y125.098 E14.9569
G1 X135.931 Y125.436 E14.97488
G1 X136.104 Y126.201 E15.01505
G1 X136.199 Y126.98 E15.05525
G1 X136.214 Y127.764 E15.09542
G1 X136.149 Y128.546 E15.13561
G1 X136.005 Y129.317 E15.17578
G1 X135.904 Y129.697 E15.19592
G1 X135.784 Y130.104 E15.21766
G1 X135.524 Y130.844 E15.25783
G1 X135.19 Y131.554 E15.29802
G1 X134.785 Y132.226 E15.33821
G1 X134.225 Y132.96 E15.3855
G1 X134.022 Y133.195 E15.4014
G1 X133.479 Y133.761 E15.44158
G1 X132.882 Y134.27 E15.48176
G1 X132.068 Y134.816 E15.53197
G1 X131.489 Y135.153 E15.56628
G1 X131.466 Y135.166 E15.56763
G1 X126.828 Y137.844 E15.84195
G1 X126.13 Y138.201 E15.88211
G1 X125.747 Y138.361 E15.90337
G1 X125.529 Y138.445 E15.91534
G1 X124.783 Y138.689 E15.95554
G1 X124.016 Y138.857 E15.99576
G1 X123.116 Y138.952 E16.04211
G1 X122.9 Y138.962 E16.05319
G1 X122.116 Y138.958 E16.09334
G1 X121.335 Y138.875 E16.13357
G1 X120.568 Y138.712 E16.17374
G1 X120.327 Y138.648 E16.18651
G1 X119.58 Y138.408 E16.2267
G1 X118.861 Y138.094 E16.26688
G1 X118.452 Y137.874 E16.29067
G1 X118.31 Y137.792 E16.29907
G1 X117.652 Y137.366 E16.33922
G1 X117.04 Y136.874 E16.37944
G1 X116.458 Y136.298 E16.42138
G1 X116.282 Y136.104 E16.4348
G1 X115.785 Y135.497 E16.47498
G1 X115.326 Y134.796 E16.5179
G1 X114.966 Y134.176 E16.55462
G1 X114.957 Y134.161 E16.55552
G1 X108.665 Y123.266 E17.19994
G1 X108.475 Y122.972 E17.21787
G1 X108.297 Y122.736 E17.23301
G1 X108.134 Y122.551 E17.24564
G1 X107.945 Y122.365 E17.25922
G1 X107.741 Y122.193 E17.27289
G1 X107.532 Y122.041 E17.28613
G1 X107.305 Y121.901 E17.29979
G1 X107.074 Y121.78 E17.31314
G1 X106.837 Y121.678 E17.32636
G1 X106.563 Y121.583 E17.34121
G1 X106.305 Y121.515 E17.35488
G1 X106.099 Y121.477 E17.36561
G1 X105.806 Y121.445 E17.38071
G1 X105.385 Y121.429 E17.40229
G1 X92.212 Y121.428 E18.07702
G1 X91.429 Y121.388 E18.11717
G1 X90.604 Y121.258 E18.15995
G1 X90.281 Y121.189 E18.17687
G1 X89.523 Y120.986 E18.21706
G1 X88.79 Y120.707 E18.25724
G1 X88.089 Y120.355 E18.29741
G1 X87.427 Y119.934 E18.3376
G1 X86.812 Y119.447 E18.37778
G1 X86.319 Y118.974 E18.41277
G1 X86.007 Y118.647 E18.43592
G1 X85.495 Y118.053 E18.47609
G1 X85.046 Y117.409 E18.5163
G1 X84.665 Y116.724 E18.55645
G1 X84.268 Y115.751 E18.61028
G1 X84.177 Y115.476 E18.62511
G1 X83.969 Y114.72 E18.66528
G1 X83.838 Y113.946 E18.70548
G1 X83.788 Y113.203 E18.74363
G1 X83.775 Y112.519 E18.77867
G1 X83.774 Y112.372 E18.7862
G1 X83.775 Y107.014 E19.06064
G1 X83.815 Y106.23 E19.10085
G1 X83.935 Y105.455 E19.14102
G1 X84.035 Y105.031 E19.16333
G1 X84.115 Y104.731 E19.17923
G1 X84.356 Y103.984 E19.21944
G1 X84.671 Y103.266 E19.2596
G1 X85.058 Y102.583 E19.29981
G1 X85.618 Y101.812 E19.34861
G1 X85.893 Y101.479 E19.37074
G1 X86.423 Y100.9 E19.41094
G1 X87.009 Y100.378 E19.45114
G0 F6000 X87.319 Y100.694
G1 F1200 X87.94 Y100.252 E19.49018
G1 X88.603 Y99.878 E19.52917
G1 X89.367 Y99.552 E19.57172
G1 X89.575 Y99.477 E19.58304
G1 X90.578 Y99.195 E19.63641
G1 X90.729 Y99.164 E19.6443
G1 X91.482 Y99.05 E19.68331
G1 X92.188 Y99.016 E19.71952
G1 X105.488 Y99.015 E20.40075
G1 X105.586 Y99.013 E20.40577
G1 X105.984 Y98.984 E20.42621
G1 X106.276 Y98.941 E20.44133
G1 X106.569 Y98.875 E20.45671
G1 X106.845 Y98.79 E20.4715
G1 X107.132 Y98.679 E20.48726
G1 X107.392 Y98.556 E20.502
G1 X107.647 Y98.411 E20.51702
G1 X107.903 Y98.239 E20.53282
G1 X108.123 Y98.066 E20.54715
G1 X108.353 Y97.856 E20.56311
G1 X108.562 Y97.635 E20.57869
G1 X108.74 Y97.418 E20.59306
G1 X108.927 Y97.149 E20.60984
G1 X109.083 Y96.894 E20.62516
G1 X109.37 Y96.399 E20.65446
G1 X115.681 Y85.468 E21.30097
G1 X116.096 Y84.829 E21.34
G1 X116.338 Y84.514 E21.36034
G1 X116.487 Y84.331 E21.37243
G1 X116.998 Y83.766 E21.41145
G1 X117.566 Y83.258 E21.45048
G1 X118.226 Y82.786 E21.49204
G1 X118.404 Y82.673 E21.50284
G1 X119.068 Y82.299 E21.54188
G1 X119.767 Y81.996 E21.5809
G1 X120.308 Y81.819 E21.61006
G1 X120.547 Y81.751 E21.62278
G1 X121.29 Y81.581 E21.66182
G1 X122.046 Y81.49 E21.70083
G1 X122.577 Y81.474 E21.72804
G1 X122.745 Y81.475 E21.73664
G1 X123.506 Y81.52 E21.77569
G1 X124.257 Y81.644 E21.81468
G1 X124.89 Y81.812 E21.84822
G1 X125.14 Y81.891 E21.86165
G1 X125.853 Y82.159 E21.90066
G1 X126.581 Y82.526 E21.94242
G1 X131.776 Y85.524 E22.24965
G1 X132.415 Y85.939 E22.28867
G1 X133.007 Y86.418 E22.32768
G1 X133.303 Y86.701 E22.34865
G1 X133.531 Y86.931 E22.36524
G1 X134.038 Y87.499 E22.40424
G1 X134.483 Y88.118 E22.44329
G1 X134.861 Y88.779 E22.48229
G1 X135.179 Y89.509 E22.52307
G1 X135.319 Y89.885 E22.54362
G1 X135.547 Y90.612 E22.58265
G1 X135.697 Y91.358 E22.62163
G1 X135.769 Y92.117 E22.66068
G1 X135.76 Y92.879 E22.69971
G1 X135.616 Y93.928 E22.75394
G1 X135.539 Y94.29 E22.7729
G1 X135.342 Y95.026 E22.81193
G1 X135.068 Y95.737 E22.85095
G1 X134.765 Y96.34 E22.88552
G1 X134.406 Y96.978 E22.92302
G1 X134.366 Y97.048 E22.92715
G1 X128.112 Y107.882 E23.56789
G1 X127.941 Y108.201 E23.58643
G1 X127.816 Y108.477 E23.60195
G1 X127.713 Y108.758 E23.61728
G1 X127.62 Y109.084 E23.63464
G1 X127.571 Y109.324 E23.64719
G1 X127.532 Y109.622 E23.66258
G1 X127.515 Y109.931 E23.67843
G1 X127.521 Y110.236 E23.69406
G1 X127.547 Y110.519 E23.70862
G1 X127.596 Y110.81 E23.72373
G1 X127.667 Y111.102 E23.73912
G1 X127.755 Y111.374 E23.75377
G1 X127.868 Y111.648 E23.76895
G1 X128.038 Y111.992 E23.7886
G1 X134.711 Y123.551 E24.47224
G1 X135.056 Y124.23 E24.51125
G1 X135.412 Y125.217 E24.56499
G1 X135.507 Y125.555 E24.58297
G1 X135.675 Y126.298 E24.62199
G1 X135.763 Y127.054 E24.66098
G1 X135.772 Y127.816 E24.70001
G1 X135.701 Y128.575 E24.73906
G1 X135.482 Y129.572 E24.79134
G1 X135.362 Y129.979 E24.81307
G1 X135.108 Y130.698 E24.85213
G1 X134.781 Y131.385 E24.8911
G1 X134.383 Y132.035 E24.93014
G1 X133.892 Y132.672 E24.97134
G1 X133.689 Y132.907 E24.98724
G1 X133.161 Y133.456 E25.02626
G1 X132.579 Y133.948 E25.06529
G1 X131.847 Y134.436 E25.11035
G1 X131.268 Y134.773 E25.14467
G1 X131.246 Y134.785 E25.14595
G1 X126.608 Y137.463 E25.42027
G1 X125.588 Y137.95 E25.47817
G1 X125.37 Y138.034 E25.49013
G1 X124.646 Y138.271 E25.52915
G1 X123.901 Y138.43 E25.56817
G1 X123.096 Y138.512 E25.60962
G1 X122.88 Y138.522 E25.62069
G1 X122.118 Y138.517 E25.65972
G1 X121.361 Y138.433 E25.69873
G1 X120.681 Y138.287 E25.73436
G1 X120.44 Y138.223 E25.74713
G1 X119.715 Y137.989 E25.78615
G1 X119.018 Y137.68 E25.8252
G1 X118.672 Y137.493 E25.84535
G1 X118.53 Y137.411 E25.85375
G1 X117.892 Y136.996 E25.89273
G1 X117.3 Y136.516 E25.93177
G1 X116.784 Y136.002 E25.96907
G1 X116.608 Y135.808 E25.98249
G1 X116.126 Y135.218 E26.02151
G1 X115.707 Y134.576 E26.06078
G1 X115.347 Y133.956 E26.0975
G1 X115.338 Y133.941 E26.0984
G1 X109.044 Y123.041 E26.7431
G1 X108.834 Y122.718 E26.76283
G1 X108.639 Y122.459 E26.77944
G1 X108.456 Y122.251 E26.79363
G1 X108.241 Y122.039 E26.80909
G1 X108.018 Y121.851 E26.82403
G1 X107.775 Y121.674 E26.83943
G1 X107.515 Y121.514 E26.85507
G1 X107.266 Y121.384 E26.86945
G1 X106.991 Y121.266 E26.88478
G1 X106.697 Y121.164 E26.90072
G1 X106.408 Y121.087 E26.91604
G1 X106.156 Y121.041 E26.92916
G1 X105.83 Y121.005 E26.94596
G1 X105.401 Y120.989 E26.96795
G1 X92.212 Y120.988 E27.6435
G1 X91.452 Y120.948 E27.68248
G1 X90.696 Y120.828 E27.72169
G1 X90.373 Y120.759 E27.7386
