;FLAVOR:RepRap
;TIME:18218
;Filament used: 8.63398m
;Layer height: 0.15
;Generated with Cura_SteamEngine 2.4.0
M104 S205
M109 S205
G28 ;Home
G1 Z15.0 F6000 ;Move the platform down 15mm
;Prime the extruder
G92 E0
G1 F200 E3
G92 E0
;LAYER_COUNT:592
;LAYER:0
M107
G1 F1500 E-6.5
G0 F3600 X47.597 Y55.145 Z0.3
;TYPE:SKIRT
G1 F1500 E0
G1 F1800 X48.245 Y54.694 E0.01485
G1 X48.936 Y54.31 E0.02972
G1 X49.661 Y53.998 E0.04457
G1 X50.414 Y53.761 E0.05942
G1 X51.188 Y53.602 E0.07428
G1 X51.973 Y53.521 E0.08913
G1 X52.375 Y53.511 E0.09669
G1 X58.383 Y53.511 E0.2097
G1 X58.673 Y53.046 E0.22001
G1 X59.156 Y52.422 E0.23486
G1 X59.699 Y51.849 E0.2497
G1 X60.298 Y51.334 E0.26456
G1 X60.946 Y50.883 E0.27941
G1 X61.637 Y50.499 E0.29429
G1 X62.362 Y50.187 E0.30913
G1 X63.115 Y49.95 E0.32398
G1 X63.889 Y49.791 E0.33884
G1 X64.674 Y49.71 E0.35369
G1 X65.076 Y49.7 E0.36125
G1 X137.774 Y49.7 E1.72874
G1 X138.563 Y49.74 E1.7436
G1 X139.343 Y49.859 E1.75845
G1 X140.108 Y50.057 E1.77331
G1 X140.848 Y50.331 E1.78815
G1 X141.557 Y50.679 E1.80301
G1 X142.228 Y51.097 E1.81788
G1 X142.852 Y51.58 E1.83272
G1 X143.425 Y52.123 E1.84757
G1 X143.94 Y52.722 E1.86243
G1 X144.391 Y53.37 E1.87728
G1 X144.775 Y54.061 E1.89215
G1 X145.087 Y54.786 E1.907
G1 X145.373 Y55.739 E1.92572
G1 X155.225 Y98.239 E2.74636
G1 X155.364 Y99.016 E2.76121
G1 X155.424 Y99.803 E2.77606
G1 X155.403 Y100.593 E2.79093
G1 X155.225 Y101.761 E2.81315
G1 X145.373 Y144.261 E3.6338
G1 X145.155 Y145.021 E3.64867
G1 X144.863 Y145.754 E3.66351
G1 X144.497 Y146.454 E3.67837
G1 X144.063 Y147.114 E3.69323
G1 X143.564 Y147.726 E3.70808
G1 X143.006 Y148.285 E3.72294
G1 X142.395 Y148.784 E3.73778
G1 X141.736 Y149.219 E3.75263
G1 X141.036 Y149.585 E3.76749
G1 X140.303 Y149.879 E3.78235
G1 X139.544 Y150.097 E3.7972
G1 X138.767 Y150.237 E3.81205
G1 X137.774 Y150.3 E3.83077
G1 X65.076 Y150.3 E5.19826
G1 X64.287 Y150.26 E5.21312
G1 X63.507 Y150.141 E5.22796
G1 X62.742 Y149.943 E5.24283
G1 X62.002 Y149.669 E5.25767
G1 X61.293 Y149.321 E5.27253
G1 X60.622 Y148.903 E5.2874
G1 X59.998 Y148.42 E5.30224
G1 X59.425 Y147.877 E5.31709
G1 X58.91 Y147.278 E5.33195
G1 X58.459 Y146.63 E5.3468
G1 X58.381 Y146.489 E5.34983
G1 X52.375 Y146.489 E5.46281
G1 X51.586 Y146.449 E5.47767
G1 X50.806 Y146.33 E5.49251
G1 X50.041 Y146.132 E5.50737
G1 X49.301 Y145.858 E5.52222
G1 X48.592 Y145.51 E5.53707
G1 X47.921 Y145.092 E5.55194
G1 X47.297 Y144.609 E5.56679
G1 X46.724 Y144.066 E5.58164
G1 X46.209 Y143.467 E5.5965
G1 X45.758 Y142.819 E5.61135
G1 X45.374 Y142.128 E5.62622
G1 X45.062 Y141.403 E5.64106
G1 X44.825 Y140.65 E5.65591
G1 X44.666 Y139.876 E5.67078
G1 X44.585 Y139.091 E5.68562
G1 X44.575 Y138.689 E5.69319
G1 X44.575 Y61.311 E7.14871
G1 X44.615 Y60.522 E7.16357
G1 X44.734 Y59.742 E7.17841
G1 X44.932 Y58.977 E7.19328
G1 X45.206 Y58.237 E7.20812
G1 X45.554 Y57.528 E7.22298
G1 X45.972 Y56.857 E7.23785
G1 X46.455 Y56.233 E7.25269
G1 X46.998 Y55.66 E7.26754
G1 X47.597 Y55.145 E7.2824
G0 F3600 X47.986 Y55.353
G1 F1800 X48.628 Y54.93 E7.29686
G1 X49.311 Y54.575 E7.31134
G1 X50.026 Y54.294 E7.32579
G1 X50.768 Y54.088 E7.34028
G1 X51.526 Y53.96 E7.35474
G1 X52.375 Y53.911 E7.37073
G1 X58.61 Y53.911 E7.48802
G1 X58.654 Y53.824 E7.48985
G1 X59.07 Y53.177 E7.50432
G1 X59.551 Y52.577 E7.51879
G1 X60.092 Y52.03 E7.53326
G1 X60.687 Y51.542 E7.54773
G1 X61.329 Y51.119 E7.56219
G1 X62.012 Y50.764 E7.57667
G1 X62.727 Y50.483 E7.59112
G1 X63.469 Y50.277 E7.60561
G1 X64.227 Y50.149 E7.62007
G1 X65.076 Y50.1 E7.63607
G1 X137.774 Y50.1 E9.00356
G1 X138.542 Y50.14 E9.01802
G1 X139.302 Y50.259 E9.03249
G1 X140.045 Y50.457 E9.04696
G1 X140.764 Y50.731 E9.06143
G1 X141.45 Y51.078 E9.07589
G1 X142.097 Y51.494 E9.09036
G1 X142.697 Y51.975 E9.10483
G1 X143.244 Y52.516 E9.1193
G1 X143.732 Y53.111 E9.13377
G1 X144.155 Y53.753 E9.14823
G1 X144.51 Y54.436 E9.16271
G1 X144.791 Y55.151 E9.17717
G1 X144.983 Y55.829 E9.19042
G1 X154.835 Y98.329 E10.01107
G1 X154.969 Y99.086 E10.02553
G1 X155.025 Y99.853 E10.03999
G1 X155 Y100.622 E10.05447
G1 X154.835 Y101.671 E10.07444
G1 X144.983 Y144.171 E10.89509
G1 X144.77 Y144.91 E10.90956
G1 X144.482 Y145.624 E10.92404
G1 X144.122 Y146.303 E10.9385
G1 X143.693 Y146.941 E10.95296
G1 X143.2 Y147.532 E10.96743
G1 X142.648 Y148.068 E10.98191
G1 X142.044 Y148.544 E10.99637
G1 X141.394 Y148.954 E11.01083
G1 X140.704 Y149.295 E11.02531
G1 X139.983 Y149.563 E11.03978
G1 X139.238 Y149.754 E11.05424
G1 X138.477 Y149.867 E11.06872
G1 X137.774 Y149.9 E11.08195
G1 X65.076 Y149.9 E12.44944
G1 X64.308 Y149.86 E12.46391
G1 X63.548 Y149.741 E12.47838
G1 X62.805 Y149.543 E12.49284
G1 X62.086 Y149.269 E12.50732
G1 X61.4 Y148.922 E12.52178
G1 X60.753 Y148.506 E12.53625
G1 X60.153 Y148.025 E12.55071
G1 X59.606 Y147.484 E12.56518
G1 X59.118 Y146.889 E12.57966
G1 X58.695 Y146.247 E12.59412
G1 X58.613 Y146.089 E12.59747
G1 X52.375 Y146.089 E12.71481
G1 X51.607 Y146.049 E12.72928
G1 X50.847 Y145.93 E12.74375
G1 X50.104 Y145.732 E12.75821
G1 X49.385 Y145.458 E12.77268
G1 X48.699 Y145.111 E12.78715
G1 X48.052 Y144.695 E12.80161
G1 X47.452 Y144.214 E12.81608
G1 X46.905 Y143.673 E12.83055
G1 X46.417 Y143.078 E12.84503
G1 X45.994 Y142.436 E12.85949
G1 X45.639 Y141.753 E12.87397
G1 X45.358 Y141.038 E12.88842
G1 X45.152 Y140.296 E12.9029
G1 X45.024 Y139.538 E12.91736
G1 X44.975 Y138.689 E12.93336
G1 X44.975 Y61.311 E14.38888
G1 X45.015 Y60.543 E14.40335
G1 X45.134 Y59.783 E14.41782
G1 X45.332 Y59.04 E14.43228
G1 X45.606 Y58.321 E14.44676
G1 X45.953 Y57.635 E14.46122
G1 X46.369 Y56.988 E14.47569
G1 X46.85 Y56.388 E14.49015
G1 X47.391 Y55.841 E14.50463
G1 X47.986 Y55.353 E14.5191
G0 F3600 X48.373 Y55.568
G1 F1800 X49.009 Y55.173 E14.53318
G1 X49.683 Y54.849 E14.54725
G1 X50.388 Y54.599 E14.56132
G1 X51.116 Y54.425 E14.5754
G1 X51.858 Y54.33 E14.58947
G1 X52.375 Y54.311 E14.5992
G1 X58.856 Y54.311 E14.72112
G1 X59.053 Y53.934 E14.72912
G1 X59.468 Y53.311 E14.7432
G1 X59.947 Y52.737 E14.75726
G1 X60.484 Y52.216 E14.77134
G1 X61.074 Y51.757 E14.7854
G1 X61.71 Y51.362 E14.79948
G1 X62.384 Y51.038 E14.81355
G1 X63.089 Y50.788 E14.82762
G1 X63.817 Y50.614 E14.8417
G1 X64.559 Y50.519 E14.85577
G1 X65.076 Y50.5 E14.8655
G1 X137.774 Y50.5 E16.23299
G1 X138.521 Y50.54 E16.24706
G1 X139.259 Y50.659 E16.26112
G1 X139.981 Y50.857 E16.27521
G1 X140.677 Y51.13 E16.28927
G1 X141.34 Y51.477 E16.30334
G1 X141.963 Y51.892 E16.31743
G1 X142.537 Y52.371 E16.33149
G1 X143.058 Y52.908 E16.34556
G1 X143.517 Y53.498 E16.35962
G1 X143.912 Y54.134 E16.37371
G1 X144.236 Y54.808 E16.38777
G1 X144.486 Y55.513 E16.40184
G1 X144.593 Y55.919 E16.40974
G1 X154.445 Y98.419 E17.23039
G1 X154.575 Y99.156 E17.24447
G1 X154.625 Y99.902 E17.25853
G1 X154.596 Y100.65 E17.27261
G1 X154.445 Y101.581 E17.29035
G1 X144.593 Y144.081 E18.111
G1 X144.386 Y144.799 E18.12506
G1 X144.102 Y145.492 E18.13915
G1 X143.747 Y146.15 E18.15321
G1 X143.323 Y146.767 E18.16729
G1 X142.836 Y147.334 E18.18135
G1 X142.292 Y147.847 E18.19542
G1 X141.695 Y148.299 E18.2095
G1 X141.054 Y148.684 E18.22357
G1 X140.375 Y148.999 E18.23765
G1 X139.667 Y149.239 E18.25171
G1 X138.937 Y149.403 E18.26578
G1 X138.194 Y149.487 E18.27985
G1 X137.774 Y149.5 E18.28775
G1 X65.076 Y149.5 E19.65524
G1 X64.329 Y149.46 E19.66931
G1 X63.591 Y149.341 E19.68338
G1 X62.869 Y149.143 E19.69746
G1 X62.173 Y148.87 E19.71152
G1 X61.51 Y148.523 E19.7256
G1 X60.887 Y148.108 E19.73968
G1 X60.313 Y147.629 E19.75374
G1 X59.792 Y147.092 E19.76782
G1 X59.333 Y146.502 E19.78188
G1 X58.938 Y145.866 E19.79596
G1 X58.853 Y145.689 E19.79965
G1 X52.375 Y145.689 E19.92151
G1 X51.628 Y145.649 E19.93558
G1 X50.89 Y145.53 E19.94964
G1 X50.168 Y145.332 E19.96372
G1 X49.472 Y145.059 E19.97779
G1 X48.809 Y144.712 E19.99186
G1 X48.186 Y144.297 E20.00595
G1 X47.612 Y143.818 E20.02001
G1 X47.091 Y143.281 E20.03408
G1 X46.632 Y142.691 E20.04814
G1 X46.237 Y142.055 E20.06223
G1 X45.913 Y141.381 E20.07629
G1 X45.663 Y140.676 E20.09036
G1 X45.489 Y139.948 E20.10444
G1 X45.394 Y139.206 E20.11852
G1 X45.375 Y138.689 E20.12825
G1 X45.375 Y61.311 E21.58377
G1 X45.415 Y60.564 E21.59784
G1 X45.534 Y59.826 E21.6119
G1 X45.732 Y59.104 E21.62599
G1 X46.005 Y58.408 E21.64005
G1 X46.352 Y57.745 E21.65413
G1 X46.767 Y57.122 E21.66821
G1 X47.246 Y56.548 E21.68227
G1 X47.783 Y56.027 E21.69634
G1 X48.373 Y55.568 E21.7104
G0 F3600 X48.759 Y55.79
G1 F1800 X49.388 Y55.426 E21.72407
G1 X50.053 Y55.133 E21.73774
G1 X50.746 Y54.915 E21.75141
G1 X51.458 Y54.775 E21.76506
G1 X52.375 Y54.711 E21.78235
G1 X59.096 Y54.711 E21.90878
G1 X59.106 Y54.686 E21.90928
G1 X59.451 Y54.047 E21.92294
G1 X59.865 Y53.45 E21.93661
G1 X60.341 Y52.902 E21.95026
G1 X60.875 Y52.409 E21.96393
G1 X61.46 Y51.979 E21.97759
G1 X62.089 Y51.615 E21.99126
G1 X62.754 Y51.322 E22.00493
G1 X63.447 Y51.104 E22.0186
G1 X64.159 Y50.964 E22.03225
G1 X65.076 Y50.9 E22.04954
G1 X137.774 Y50.9 E23.41703
G1 X138.499 Y50.94 E23.43068
G1 X139.216 Y51.059 E23.44436
G1 X139.915 Y51.257 E23.45802
G1 X140.588 Y51.53 E23.47168
G1 X141.227 Y51.875 E23.48534
G1 X141.824 Y52.289 E23.49901
G1 X142.372 Y52.765 E23.51266
G1 X142.865 Y53.299 E23.52633
G1 X143.295 Y53.884 E23.53999
G1 X143.659 Y54.513 E23.55366
G1 X143.952 Y55.178 E23.56733
G1 X144.204 Y56.01 E23.58368
G1 X154.056 Y98.51 E24.40433
G1 X154.18 Y99.225 E24.41798
G1 X154.226 Y99.95 E24.43165
G1 X154.191 Y100.676 E24.44532
G1 X154.056 Y101.49 E24.46084
G1 X144.204 Y143.99 E25.28149
G1 X144.001 Y144.688 E25.29516
G1 X143.723 Y145.359 E25.30882
G1 X143.372 Y145.995 E25.32249
G1 X142.954 Y146.589 E25.33615
G1 X142.474 Y147.134 E25.34981
G1 X141.936 Y147.622 E25.36347
G1 X141.348 Y148.049 E25.37714
G1 X140.717 Y148.408 E25.3908
G1 X140.05 Y148.695 E25.40446
G1 X139.355 Y148.908 E25.41813
G1 X138.641 Y149.043 E25.4318
G1 X137.774 Y149.1 E25.44815
G1 X65.076 Y149.1 E26.81564
G1 X64.351 Y149.06 E26.82929
G1 X63.634 Y148.941 E26.84297
G1 X62.935 Y148.743 E26.85663
G1 X62.262 Y148.47 E26.87029
G1 X61.623 Y148.125 E26.88395
G1 X61.026 Y147.711 E26.89762
G1 X60.478 Y147.235 E26.91127
G1 X59.985 Y146.701 E26.92494
G1 X59.555 Y146.116 E26.9386
G1 X59.191 Y145.487 E26.95227
G1 X59.104 Y145.289 E26.95634
G1 X52.375 Y145.289 E27.08292
G1 X51.65 Y145.249 E27.09657
G1 X50.933 Y145.13 E27.11025
G1 X50.234 Y144.932 E27.12391
G1 X49.561 Y144.659 E27.13757
G1 X48.922 Y144.314 E27.15123
G1 X48.325 Y143.9 E27.1649
G1 X47.777 Y143.424 E27.17855
G1 X47.284 Y142.89 E27.19222
G1 X46.854 Y142.305 E27.20588
G1 X46.49 Y141.676 E27.21955
G1 X46.197 Y141.011 E27.23322
G1 X45.979 Y140.318 E27.24689
G1 X45.839 Y139.606 E27.26054
G1 X45.775 Y138.689 E27.27783
G1 X45.775 Y61.311 E28.73335
G1 X45.815 Y60.586 E28.74701
G1 X45.934 Y59.869 E28.76068
G1 X46.132 Y59.17 E28.77435
G1 X46.405 Y58.497 E28.78801
G1 X46.75 Y57.858 E28.80167
G1 X47.164 Y57.261 E28.81533
G1 X47.64 Y56.713 E28.82899
G1 X48.174 Y56.22 E28.84266
G1 X48.759 Y55.79 E28.85631
G0 F3600 X49.143 Y56.02
G1 F1800 X49.764 Y55.688 E28.86956
G1 X50.418 Y55.428 E28.8828
G1 X51.098 Y55.244 E28.89605
G1 X51.794 Y55.138 E28.90929
G1 X52.375 Y55.111 E28.92023
G1 X59.366 Y55.111 E29.05174
G1 X59.505 Y54.779 E29.05851
G1 X59.85 Y54.165 E29.07176
G1 X60.261 Y53.594 E29.08499
G1 X60.735 Y53.073 E29.09824
G1 X61.265 Y52.609 E29.11149
G1 X61.844 Y52.209 E29.12473
G1 X62.465 Y51.877 E29.13797
G1 X63.119 Y51.617 E29.15121
G1 X63.799 Y51.433 E29.16446
G1 X64.495 Y51.327 E29.17771
G1 X65.076 Y51.3 E29.18865
G1 X137.774 Y51.3 E30.55614
G1 X138.477 Y51.34 E30.56938
G1 X139.171 Y51.459 E30.58263
G1 X139.846 Y51.657 E30.59586
G1 X140.495 Y51.929 E30.6091
G1 X141.109 Y52.274 E30.62235
G1 X141.68 Y52.685 E30.63558
G1 X142.201 Y53.159 E30.64883
G1 X142.665 Y53.689 E30.66208
G1 X143.065 Y54.268 E30.67532
G1 X143.397 Y54.889 E30.68856
G1 X143.657 Y55.543 E30.7018
G1 X143.814 Y56.1 E30.71269
G1 X153.666 Y98.6 E31.53333
G1 X153.786 Y99.294 E31.54658
G1 X153.826 Y99.996 E31.55981
G1 X153.786 Y100.699 E31.57305
G1 X153.666 Y101.4 E31.58643
G1 X143.814 Y143.9 E32.40708
G1 X143.616 Y144.576 E32.42033
G1 X143.343 Y145.225 E32.43357
G1 X142.998 Y145.838 E32.44681
G1 X142.586 Y146.409 E32.46005
G1 X142.112 Y146.93 E32.4733
G1 X141.582 Y147.393 E32.48654
G1 X141.003 Y147.793 E32.49978
G1 X140.382 Y148.125 E32.51302
G1 X139.727 Y148.384 E32.52627
G1 X139.048 Y148.568 E32.5395
G1 X138.352 Y148.673 E32.55274
G1 X137.774 Y148.7 E32.56363
G1 X65.076 Y148.7 E33.93112
G1 X64.373 Y148.66 E33.94436
G1 X63.679 Y148.541 E33.95761
G1 X63.004 Y148.343 E33.97084
G1 X62.355 Y148.071 E33.98408
G1 X61.741 Y147.726 E33.99733
G1 X61.17 Y147.315 E34.01056
G1 X60.649 Y146.841 E34.02381
G1 X60.185 Y146.311 E34.03706
G1 X59.785 Y145.732 E34.0503
G1 X59.453 Y145.111 E34.06354
G1 X59.365 Y144.889 E34.06803
G1 X52.375 Y144.889 E34.19952
G1 X51.672 Y144.849 E34.21277
G1 X50.978 Y144.73 E34.22601
G1 X50.303 Y144.532 E34.23924
G1 X49.654 Y144.26 E34.25248
G1 X49.04 Y143.915 E34.26573
G1 X48.469 Y143.504 E34.27896
G1 X47.948 Y143.03 E34.29221
G1 X47.484 Y142.5 E34.30546
G1 X47.084 Y141.921 E34.3187
G1 X46.752 Y141.3 E34.33195
G1 X46.492 Y140.646 E34.34518
G1 X46.308 Y139.966 E34.35843
G1 X46.202 Y139.27 E34.37168
G1 X46.175 Y138.689 E34.38262
G1 X46.175 Y61.311 E35.83814
G1 X46.215 Y60.608 E35.85139
G1 X46.334 Y59.914 E35.86463
G1 X46.532 Y59.239 E35.87786
G1 X46.804 Y58.59 E35.8911
G1 X47.149 Y57.976 E35.90435
G1 X47.56 Y57.405 E35.91758
G1 X48.034 Y56.884 E35.93083
G1 X48.564 Y56.42 E35.94408
G1 X49.143 Y56.02 E35.95732
G0 F3600 X49.525 Y56.259
G1 F1800 X50.137 Y55.96 E35.97013
G1 X50.779 Y55.735 E35.98293
G1 X51.444 Y55.586 E35.99575
G1 X52.375 Y55.511 E36.01332
G1 X59.628 Y55.511 E36.14975
G1 X59.632 Y55.498 E36.15001
G1 X59.904 Y54.874 E36.16281
G1 X60.248 Y54.286 E36.17563
G1 X60.658 Y53.742 E36.18844
G1 X61.129 Y53.251 E36.20124
G1 X61.654 Y52.817 E36.21405
G1 X62.226 Y52.448 E36.22686
G1 X62.838 Y52.149 E36.23967
G1 X63.48 Y51.924 E36.25246
G1 X64.145 Y51.775 E36.26528
G1 X65.076 Y51.7 E36.28285
G1 X137.774 Y51.7 E37.65034
G1 X138.454 Y51.74 E37.66316
G1 X139.124 Y51.859 E37.67596
G1 X139.776 Y52.056 E37.68877
G1 X140.4 Y52.328 E37.70157
G1 X140.988 Y52.672 E37.71439
G1 X141.532 Y53.082 E37.7272
G1 X142.023 Y53.553 E37.74
G1 X142.457 Y54.078 E37.75281
G1 X142.826 Y54.65 E37.76562
G1 X143.125 Y55.262 E37.77843
G1 X143.424 Y56.19 E37.79677
G1 X153.276 Y98.69 E38.61742
G1 X153.391 Y99.361 E38.63022
G1 X153.426 Y100.041 E38.64303
G1 X153.381 Y100.721 E38.65585
G1 X153.276 Y101.31 E38.6671
G1 X143.424 Y143.81 E39.48775
G1 X143.232 Y144.463 E39.50055
G1 X142.964 Y145.089 E39.51336
G1 X142.625 Y145.679 E39.52616
G1 X142.219 Y146.226 E39.53898
G1 X141.752 Y146.721 E39.55178
G1 X141.23 Y147.158 E39.56458
G1 X140.66 Y147.531 E39.5774
G1 X140.05 Y147.835 E39.59022
G1 X139.409 Y148.065 E39.60303
G1 X138.746 Y148.218 E39.61583
G1 X137.774 Y148.3 E39.63418
G1 X65.076 Y148.3 E41.00167
G1 X64.396 Y148.26 E41.01448
G1 X63.726 Y148.141 E41.02728
G1 X63.074 Y147.944 E41.04009
G1 X62.45 Y147.672 E41.0529
G1 X61.862 Y147.328 E41.06571
G1 X61.318 Y146.918 E41.07852
G1 X60.827 Y146.447 E41.09132
G1 X60.393 Y145.922 E41.10414
G1 X60.024 Y145.35 E41.11694
G1 X59.725 Y144.738 E41.12975
G1 X59.638 Y144.489 E41.13471
G1 X52.375 Y144.489 E41.27134
G1 X51.695 Y144.449 E41.28415
G1 X51.025 Y144.33 E41.29695
G1 X50.373 Y144.133 E41.30976
G1 X49.749 Y143.861 E41.32257
G1 X49.161 Y143.517 E41.33538
G1 X48.617 Y143.107 E41.34819
G1 X48.126 Y142.636 E41.36099
G1 X47.692 Y142.111 E41.37381
G1 X47.323 Y141.539 E41.38661
G1 X47.024 Y140.927 E41.39942
G1 X46.799 Y140.285 E41.41222
G1 X46.65 Y139.62 E41.42504
G1 X46.575 Y138.689 E41.44261
G1 X46.575 Y61.311 E42.89813
G1 X46.615 Y60.631 E42.91094
G1 X46.734 Y59.961 E42.92374
G1 X46.931 Y59.309 E42.93656
G1 X47.203 Y58.685 E42.94936
G1 X47.547 Y58.097 E42.96217
G1 X47.957 Y57.553 E42.97499
G1 X48.428 Y57.062 E42.98779
G1 X48.953 Y56.628 E43.0006
G1 X49.525 Y56.259 E43.0134
G0 F3600 X49.904 Y56.509
G1 F1800 X50.506 Y56.245 E43.02577
G1 X51.135 Y56.055 E43.03813
G1 X51.782 Y55.944 E43.05048
G1 X52.375 Y55.911 E43.06165
G1 X59.925 Y55.911 E43.20367
G1 X60.032 Y55.571 E43.21037
G1 X60.304 Y54.973 E43.22273
G1 X60.646 Y54.412 E43.23509
G1 X61.054 Y53.897 E43.24745
G1 X61.521 Y53.435 E43.25981
